(G-CODE GENERATED BY FLATCAM v8.994 - www.flatcam.org - Version Date: 2020/11/7)

(Name: drill_1_16.xln_edit_cnc)
(Type: G-code from Geometry)
(Units: MM)

(Created on Sunday, 26 May 2024 at 19:45)

(This preprocessor is the default preprocessor used by FlatCAM.)
(It is made to work with MACH3 compatible motion controllers.)


(TOOLS DIAMETER: )
(Tool: 1 -> Dia: 1.0)
(Tool: 2 -> Dia: 3.5)

(FEEDRATE Z: )
(Tool: 1 -> Feedrate: 50.0)
(Tool: 2 -> Feedrate: 50.0)

(FEEDRATE RAPIDS: )
(Tool: 1 -> Feedrate Rapids: 1500)
(Tool: 2 -> Feedrate Rapids: 1500)

(Z_CUT: )
(Tool: 1 -> Z_Cut: -1.7)
(Tool: 2 -> Z_Cut: -1.7)

(Tools Offset: )
(Tool: 2 -> Offset Z: 0.0)

(Z_MOVE: )
(Tool: 1 -> Z_Move: 2)
(Tool: 2 -> Z_Move: 2)

(Z Toolchange: 5.0 mm)
(X,Y Toolchange: 0.0000, 0.0000 mm)
(Z Start: None mm)
(Z End: 0.5 mm)
(X,Y End: None mm)
(Steps per circle: 64)
(Preprocessor Excellon: default)

(X range:    2.7900 ...   31.4360  mm)
(Y range:  -44.2100 ...   -2.3560  mm)

(Spindle Speed: 0 RPM)
G21
G90
G94

G01 F50.00

M5
G00 Z5.0000
T2
G00 X0.0000 Y0.0000                
M6
(MSG, Change to Tool Dia = 3.5000 ||| Total drills for tool T2 = 4)
M0
G00 Z5.0000

G01 F50.00
M03
G00 X4.5400 Y-4.1060
G01 Z-1.7000
G01 Z0
G00 Z2.0000
G00 X29.6860 Y-4.1060
G01 Z-1.7000
G01 Z0
G00 Z2.0000
G00 X29.6860 Y-42.4600
G01 Z-1.7000
G01 Z0
G00 Z2.0000
G00 X4.5400 Y-42.4600
G01 Z-1.7000
G01 Z0
G00 Z2.0000
M05
G00 Z0.50


