(G-CODE GENERATED BY FLATCAM v8.994 - www.flatcam.org - Version Date: 2020/11/7)

(Name: copper_top.gbr_iso_combined_cnc)
(Type: G-code from Geometry)
(Units: MM)

(Created on Sunday, 26 May 2024 at 19:44)

(This preprocessor is the default preprocessor used by FlatCAM.)
(It is made to work with MACH3 compatible motion controllers.)

(TOOL DIAMETER: 0.1015 mm)
(Feedrate_XY: 50.0 mm/min)
(Feedrate_Z: 60.0 mm/min)
(Feedrate rapids 1500.0 mm/min)

(Z_Cut: -0.015 mm)
(Z_Move: 2.0 mm)
(Z Start: None mm)
(Z End: 4.0 mm)
(X,Y End: None mm)
(Steps per circle: 64)
(Preprocessor Geometry: default)

(X range:    2.9654 ...   31.1846  mm)
(Y range:  -44.0346 ...   -2.5414  mm)

(Spindle Speed: 0.0 RPM)
G21
G90
G94

G01 F50.00

M5
G00 Z4.0000
G00 X0.0000 Y0.0000
T1
M6    
(MSG, Change to Tool Dia = 0.1015)
M0
G00 Z4.0000

M03
G01 F50.00
G00 X4.9875 Y-7.5159
G01 F60.00
G01 Z-0.0150
G01 F50.00
G01 X4.9348 Y-7.4633
G01 X4.8885 Y-7.4365
G01 X4.8368 Y-7.4226
G01 X4.4356 Y-7.4226
G01 X4.4356 Y-7.5753
G01 X4.8125 Y-7.5753
G01 X4.8223 Y-7.5768
G01 X4.8317 Y-7.5801
G01 X4.8402 Y-7.5852
G01 X4.8476 Y-7.5919
G01 X4.8529 Y-7.5988
G01 X4.8569 Y-7.6066
G01 X4.8595 Y-7.6149
G01 X4.8607 Y-7.6235
G01 X4.8607 Y-7.9004
G01 X5.0342 Y-7.9004
G01 X5.0713 Y-7.9033
G01 X5.0824 Y-7.9053
G01 X5.1215 Y-7.9163
G01 X5.1306 Y-7.9200
G01 X5.1505 Y-7.9304
G01 X5.4393 Y-7.9304
G01 X5.4394 Y-7.6523
G01 X5.4411 Y-7.6425
G01 X5.4427 Y-7.6377
G01 X5.4452 Y-7.6321
G01 X5.4478 Y-7.6278
G01 X5.4516 Y-7.6229
G01 X5.4588 Y-7.6160
G01 X5.4650 Y-7.6118
G01 X5.4729 Y-7.6082
G01 X5.4813 Y-7.6060
G01 X5.4888 Y-7.6053
G01 X5.8644 Y-7.6053
G01 X5.8644 Y-7.4526
G01 X5.4632 Y-7.4526
G01 X5.4115 Y-7.4665
G01 X5.3652 Y-7.4933
G01 X5.3424 Y-7.5159
G01 X5.3143 Y-7.5397
G01 X5.3060 Y-7.5454
G01 X5.2702 Y-7.5654
G01 X5.2616 Y-7.5691
G01 X5.2225 Y-7.5817
G01 X5.2136 Y-7.5835
G01 X5.1743 Y-7.5881
G01 X5.1637 Y-7.5882
G01 X5.1211 Y-7.5844
G01 X5.1136 Y-7.5829
G01 X5.0730 Y-7.5710
G01 X5.0644 Y-7.5673
G01 X5.0314 Y-7.5501
G01 X5.0254 Y-7.5465
G01 X5.0212 Y-7.5436
G01 X4.9924 Y-7.5203
G01 X4.9875 Y-7.5159
G00 Z2.0000
G00 X7.0407 Y-7.9304
G01 F60.00
G01 Z-0.0150
G01 F50.00
G01 X7.1934 Y-7.9304
G01 X7.1934 Y-7.6292
G01 X7.1795 Y-7.5775
G01 X7.1527 Y-7.5312
G01 X7.1148 Y-7.4933
G01 X7.0685 Y-7.4665
G01 X7.0168 Y-7.4526
G01 X6.6156 Y-7.4526
G01 X6.6156 Y-7.6053
G01 X6.9925 Y-7.6053
G01 X7.0023 Y-7.6068
G01 X7.0117 Y-7.6101
G01 X7.0202 Y-7.6152
G01 X7.0276 Y-7.6219
G01 X7.0329 Y-7.6288
G01 X7.0369 Y-7.6366
G01 X7.0395 Y-7.6449
G01 X7.0407 Y-7.6535
G01 X7.0407 Y-7.9304
G00 Z2.0000
G00 X9.7907 Y-8.9844
G01 F60.00
G01 Z-0.0150
G01 F50.00
G01 X9.9434 Y-8.9844
G01 X9.9434 Y-8.7832
G01 X9.9295 Y-8.7315
G01 X9.9027 Y-8.6852
G01 X9.8648 Y-8.6473
G01 X9.8185 Y-8.6205
G01 X9.7668 Y-8.6066
G01 X9.0156 Y-8.6066
G01 X9.0156 Y-8.7593
G01 X9.7400 Y-8.7593
G01 X9.7462 Y-8.7596
G01 X9.7511 Y-8.7605
G01 X9.7559 Y-8.7618
G01 X9.7617 Y-8.7641
G01 X9.7672 Y-8.7671
G01 X9.7722 Y-8.7708
G01 X9.7768 Y-8.7750
G01 X9.7808 Y-8.7798
G01 X9.7842 Y-8.7850
G01 X9.7873 Y-8.7917
G01 X9.7892 Y-8.7977
G01 X9.7904 Y-8.8038
G01 X9.7907 Y-8.8100
G01 X9.7907 Y-8.9844
G00 Z2.0000
G00 X7.7400 Y-13.5707
G01 F60.00
G01 Z-0.0150
G01 F50.00
G01 X7.7301 Y-13.5698
G01 X7.7206 Y-13.5669
G01 X7.7118 Y-13.5622
G01 X7.7041 Y-13.5559
G01 X7.6978 Y-13.5482
G01 X7.6931 Y-13.5394
G01 X7.6902 Y-13.5299
G01 X7.6893 Y-13.5212
G01 X7.6893 Y-12.6188
G01 X7.6900 Y-12.6113
G01 X7.6914 Y-12.6053
G01 X7.6941 Y-12.5983
G01 X7.6971 Y-12.5928
G01 X7.7016 Y-12.5869
G01 X7.7059 Y-12.5824
G01 X7.7118 Y-12.5778
G01 X7.7183 Y-12.5741
G01 X7.7241 Y-12.5718
G01 X7.7289 Y-12.5705
G01 X7.7338 Y-12.5696
G01 X7.7400 Y-12.5693
G01 X9.7400 Y-12.5693
G01 X9.7474 Y-12.5698
G01 X9.7547 Y-12.5714
G01 X9.7617 Y-12.5741
G01 X9.7672 Y-12.5771
G01 X9.7722 Y-12.5808
G01 X9.7776 Y-12.5859
G01 X9.7822 Y-12.5918
G01 X9.7859 Y-12.5983
G01 X9.7882 Y-12.6041
G01 X9.7895 Y-12.6089
G01 X9.7904 Y-12.6138
G01 X9.7907 Y-12.6200
G01 X9.7907 Y-13.5212
G01 X9.7900 Y-13.5287
G01 X9.7886 Y-13.5347
G01 X9.7859 Y-13.5417
G01 X9.7829 Y-13.5472
G01 X9.7784 Y-13.5531
G01 X9.7731 Y-13.5584
G01 X9.7682 Y-13.5622
G01 X9.7617 Y-13.5659
G01 X9.7571 Y-13.5678
G01 X9.7511 Y-13.5695
G01 X9.7462 Y-13.5704
G01 X9.7400 Y-13.5707
G01 X7.7400 Y-13.5707
G00 Z2.0000
G00 X7.7400 Y-14.8407
G01 F60.00
G01 Z-0.0150
G01 F50.00
G01 X7.7301 Y-14.8398
G01 X7.7206 Y-14.8369
G01 X7.7118 Y-14.8322
G01 X7.7041 Y-14.8259
G01 X7.6978 Y-14.8182
G01 X7.6931 Y-14.8094
G01 X7.6902 Y-14.7999
G01 X7.6893 Y-14.7912
G01 X7.6893 Y-13.8888
G01 X7.6900 Y-13.8813
G01 X7.6914 Y-13.8753
G01 X7.6941 Y-13.8683
G01 X7.6971 Y-13.8628
G01 X7.7016 Y-13.8569
G01 X7.7059 Y-13.8524
G01 X7.7118 Y-13.8478
G01 X7.7183 Y-13.8441
G01 X7.7241 Y-13.8418
G01 X7.7289 Y-13.8405
G01 X7.7338 Y-13.8396
G01 X7.7400 Y-13.8393
G01 X9.7400 Y-13.8393
G01 X9.7474 Y-13.8398
G01 X9.7547 Y-13.8414
G01 X9.7606 Y-13.8436
G01 X9.7672 Y-13.8471
G01 X9.7731 Y-13.8516
G01 X9.7776 Y-13.8559
G01 X9.7822 Y-13.8618
G01 X9.7859 Y-13.8683
G01 X9.7878 Y-13.8729
G01 X9.7895 Y-13.8789
G01 X9.7904 Y-13.8838
G01 X9.7907 Y-13.8900
G01 X9.7907 Y-14.7912
G01 X9.7902 Y-14.7974
G01 X9.7886 Y-14.8047
G01 X9.7864 Y-14.8106
G01 X9.7829 Y-14.8172
G01 X9.7792 Y-14.8222
G01 X9.7741 Y-14.8276
G01 X9.7682 Y-14.8322
G01 X9.7617 Y-14.8359
G01 X9.7571 Y-14.8378
G01 X9.7511 Y-14.8395
G01 X9.7462 Y-14.8404
G01 X9.7400 Y-14.8407
G01 X7.7400 Y-14.8407
G00 Z2.0000
G00 X7.7400 Y-16.1107
G01 F60.00
G01 Z-0.0150
G01 F50.00
G01 X7.7301 Y-16.1098
G01 X7.7206 Y-16.1069
G01 X7.7118 Y-16.1022
G01 X7.7041 Y-16.0959
G01 X7.6985 Y-16.0892
G01 X7.6936 Y-16.0806
G01 X7.6905 Y-16.0711
G01 X7.6893 Y-16.0612
G01 X7.6893 Y-15.1588
G01 X7.6900 Y-15.1513
G01 X7.6914 Y-15.1453
G01 X7.6941 Y-15.1383
G01 X7.6971 Y-15.1328
G01 X7.7016 Y-15.1269
G01 X7.7059 Y-15.1224
G01 X7.7118 Y-15.1178
G01 X7.7183 Y-15.1141
G01 X7.7241 Y-15.1118
G01 X7.7289 Y-15.1105
G01 X7.7338 Y-15.1096
G01 X7.7400 Y-15.1093
G01 X9.7400 Y-15.1093
G01 X9.7474 Y-15.1098
G01 X9.7547 Y-15.1114
G01 X9.7606 Y-15.1136
G01 X9.7672 Y-15.1171
G01 X9.7731 Y-15.1216
G01 X9.7776 Y-15.1259
G01 X9.7822 Y-15.1318
G01 X9.7859 Y-15.1383
G01 X9.7878 Y-15.1429
G01 X9.7895 Y-15.1489
G01 X9.7904 Y-15.1538
G01 X9.7907 Y-15.1600
G01 X9.7907 Y-16.0612
G01 X9.7902 Y-16.0674
G01 X9.7886 Y-16.0747
G01 X9.7864 Y-16.0806
G01 X9.7829 Y-16.0872
G01 X9.7792 Y-16.0922
G01 X9.7741 Y-16.0976
G01 X9.7682 Y-16.1022
G01 X9.7617 Y-16.1059
G01 X9.7559 Y-16.1082
G01 X9.7511 Y-16.1095
G01 X9.7462 Y-16.1104
G01 X9.7400 Y-16.1107
G01 X7.7400 Y-16.1107
G00 Z2.0000
G00 X5.4946 Y-17.2634
G01 F60.00
G01 Z-0.0150
G01 F50.00
G01 X5.8958 Y-17.2634
G01 X5.9672 Y-17.2442
G01 X5.9790 Y-17.2414
G01 X5.9886 Y-17.2401
G01 X6.0088 Y-17.2366
G01 X6.0173 Y-17.2365
G01 X6.0280 Y-17.2356
G01 X6.0454 Y-17.2366
G01 X6.0446 Y-17.2265
G01 X6.0451 Y-17.2171
G01 X6.0451 Y-17.2078
G01 X6.0473 Y-17.1921
G01 X6.0488 Y-17.1773
G01 X6.0515 Y-17.1672
G01 X6.0532 Y-17.1582
G01 X6.0724 Y-17.0868
G01 X6.0724 Y-16.7856
G01 X5.9197 Y-16.7856
G01 X5.9197 Y-17.0625
G01 X5.9190 Y-17.0687
G01 X5.9179 Y-17.0735
G01 X5.9143 Y-17.0828
G01 X5.9090 Y-17.0912
G01 X5.9049 Y-17.0959
G01 X5.9012 Y-17.0992
G01 X5.8940 Y-17.1042
G01 X5.8873 Y-17.1073
G01 X5.8789 Y-17.1098
G01 X5.8702 Y-17.1107
G01 X5.4946 Y-17.1107
G01 X5.4946 Y-17.2634
G00 Z2.0000
G00 X4.7426 Y-19.4000
G01 F60.00
G01 Z-0.0150
G01 F50.00
G01 X4.7448 Y-19.3552
G01 X4.7514 Y-19.3108
G01 X4.7623 Y-19.2672
G01 X4.7775 Y-19.2250
G01 X4.7967 Y-19.1844
G01 X4.8197 Y-19.1459
G01 X4.8465 Y-19.1099
G01 X4.8757 Y-19.0775
G01 X7.3966 Y-16.5566
G01 X7.4318 Y-16.5249
G01 X7.4659 Y-16.4997
G01 X7.5022 Y-16.4779
G01 X7.5450 Y-16.4575
G01 X7.5884 Y-16.4420
G01 X7.6320 Y-16.4312
G01 X7.6739 Y-16.4250
G01 X7.6896 Y-16.4241
G01 X7.6914 Y-16.4153
G01 X7.6947 Y-16.4072
G01 X7.6992 Y-16.3998
G01 X7.7059 Y-16.3924
G01 X7.7128 Y-16.3871
G01 X7.7206 Y-16.3831
G01 X7.7289 Y-16.3805
G01 X7.7388 Y-16.3793
G01 X9.7400 Y-16.3793
G01 X9.7462 Y-16.3796
G01 X9.7523 Y-16.3808
G01 X9.7583 Y-16.3827
G01 X9.7650 Y-16.3858
G01 X9.7702 Y-16.3892
G01 X9.7750 Y-16.3932
G01 X9.7800 Y-16.3988
G01 X9.7835 Y-16.4039
G01 X9.7864 Y-16.4094
G01 X9.7889 Y-16.4165
G01 X9.7904 Y-16.4238
G01 X9.7907 Y-16.4300
G01 X9.7907 Y-17.3312
G01 X9.7902 Y-17.3374
G01 X9.7892 Y-17.3423
G01 X9.7878 Y-17.3471
G01 X9.7853 Y-17.3528
G01 X9.7829 Y-17.3572
G01 X9.7792 Y-17.3622
G01 X9.7750 Y-17.3668
G01 X9.7712 Y-17.3700
G01 X9.7639 Y-17.3748
G01 X9.7571 Y-17.3778
G01 X9.7487 Y-17.3800
G01 X9.7400 Y-17.3807
G01 X7.8660 Y-17.3807
G01 X5.6574 Y-19.5894
G01 X5.6574 Y-32.0106
G01 X6.8844 Y-33.2376
G01 X6.8973 Y-33.2282
G01 X6.9647 Y-33.1879
G01 X7.0392 Y-33.1529
G01 X7.1120 Y-33.1269
G01 X7.1869 Y-33.1080
G01 X7.2695 Y-33.0957
G01 X7.3480 Y-33.0919
G01 X8.8732 Y-33.0919
G01 X8.9517 Y-33.0958
G01 X9.0282 Y-33.1071
G01 X9.1104 Y-33.1277
G01 X9.1832 Y-33.1538
G01 X9.2553 Y-33.1879
G01 X9.3238 Y-33.2289
G01 X9.3869 Y-33.2757
G01 X9.4487 Y-33.3318
G01 X9.5006 Y-33.3892
G01 X9.5467 Y-33.4512
G01 X9.5891 Y-33.5217
G01 X9.6241 Y-33.5962
G01 X9.6501 Y-33.6690
G01 X9.6690 Y-33.7439
G01 X9.6812 Y-33.8253
G01 X9.6851 Y-33.9050
G01 X9.6814 Y-33.9822
G01 X9.6695 Y-34.0636
G01 X9.6493 Y-34.1434
G01 X9.6232 Y-34.2162
G01 X9.5891 Y-34.2883
G01 X9.5467 Y-34.3588
G01 X9.5006 Y-34.4208
G01 X9.4487 Y-34.4782
G01 X9.3878 Y-34.5336
G01 X9.3216 Y-34.5824
G01 X9.2553 Y-34.6221
G01 X9.1854 Y-34.6552
G01 X9.1068 Y-34.6835
G01 X9.0306 Y-34.7025
G01 X8.9542 Y-34.7139
G01 X8.8732 Y-34.7181
G01 X7.3468 Y-34.7181
G01 X7.2658 Y-34.7139
G01 X7.1894 Y-34.7025
G01 X7.1144 Y-34.6838
G01 X7.0368 Y-34.6562
G01 X6.9647 Y-34.6221
G01 X6.8962 Y-34.5811
G01 X6.8341 Y-34.5351
G01 X6.7730 Y-34.4800
G01 X6.7194 Y-34.4208
G01 X6.6726 Y-34.3578
G01 X6.6315 Y-34.2894
G01 X6.6178 Y-34.2608
G01 X6.6130 Y-34.2569
G01 X6.5816 Y-34.2284
G01 X4.8757 Y-32.5225
G01 X4.8449 Y-32.4882
G01 X4.8197 Y-32.4541
G01 X4.7979 Y-32.4178
G01 X4.7775 Y-32.3750
G01 X4.7620 Y-32.3316
G01 X4.7514 Y-32.2892
G01 X4.7452 Y-32.2473
G01 X4.7426 Y-32.2000
G01 X4.7426 Y-19.4000
G00 Z2.0000
G00 X7.7400 Y-19.9207
G01 F60.00
G01 Z-0.0150
G01 F50.00
G01 X7.7301 Y-19.9198
G01 X7.7206 Y-19.9169
G01 X7.7118 Y-19.9122
G01 X7.7041 Y-19.9059
G01 X7.6985 Y-19.8992
G01 X7.6936 Y-19.8906
G01 X7.6905 Y-19.8811
G01 X7.6893 Y-19.8712
G01 X7.6893 Y-18.9688
G01 X7.6898 Y-18.9626
G01 X7.6914 Y-18.9553
G01 X7.6941 Y-18.9483
G01 X7.6971 Y-18.9428
G01 X7.7016 Y-18.9369
G01 X7.7069 Y-18.9316
G01 X7.7118 Y-18.9278
G01 X7.7183 Y-18.9241
G01 X7.7229 Y-18.9222
G01 X7.7289 Y-18.9205
G01 X7.7338 Y-18.9196
G01 X7.7400 Y-18.9193
G01 X9.7400 Y-18.9193
G01 X9.7474 Y-18.9198
G01 X9.7547 Y-18.9214
G01 X9.7617 Y-18.9241
G01 X9.7672 Y-18.9271
G01 X9.7731 Y-18.9316
G01 X9.7776 Y-18.9359
G01 X9.7822 Y-18.9418
G01 X9.7859 Y-18.9483
G01 X9.7878 Y-18.9529
G01 X9.7895 Y-18.9589
G01 X9.7904 Y-18.9638
G01 X9.7907 Y-18.9700
G01 X9.7907 Y-19.8712
G01 X9.7902 Y-19.8774
G01 X9.7886 Y-19.8847
G01 X9.7864 Y-19.8906
G01 X9.7829 Y-19.8972
G01 X9.7792 Y-19.9022
G01 X9.7741 Y-19.9076
G01 X9.7682 Y-19.9122
G01 X9.7617 Y-19.9159
G01 X9.7559 Y-19.9182
G01 X9.7511 Y-19.9195
G01 X9.7462 Y-19.9204
G01 X9.7400 Y-19.9207
G01 X7.7400 Y-19.9207
G00 Z2.0000
G00 X7.7400 Y-21.1907
G01 F60.00
G01 Z-0.0150
G01 F50.00
G01 X7.7301 Y-21.1898
G01 X7.7206 Y-21.1869
G01 X7.7118 Y-21.1822
G01 X7.7041 Y-21.1759
G01 X7.6985 Y-21.1692
G01 X7.6936 Y-21.1606
G01 X7.6905 Y-21.1511
G01 X7.6893 Y-21.1412
G01 X7.6893 Y-20.2388
G01 X7.6898 Y-20.2326
G01 X7.6914 Y-20.2253
G01 X7.6941 Y-20.2183
G01 X7.6971 Y-20.2128
G01 X7.7016 Y-20.2069
G01 X7.7069 Y-20.2016
G01 X7.7118 Y-20.1978
G01 X7.7183 Y-20.1941
G01 X7.7229 Y-20.1922
G01 X7.7289 Y-20.1905
G01 X7.7338 Y-20.1896
G01 X7.7400 Y-20.1893
G01 X9.7400 Y-20.1893
G01 X9.7474 Y-20.1898
G01 X9.7547 Y-20.1914
G01 X9.7617 Y-20.1941
G01 X9.7672 Y-20.1971
G01 X9.7731 Y-20.2016
G01 X9.7776 Y-20.2059
G01 X9.7822 Y-20.2118
G01 X9.7859 Y-20.2183
G01 X9.7878 Y-20.2229
G01 X9.7895 Y-20.2289
G01 X9.7904 Y-20.2338
G01 X9.7907 Y-20.2400
G01 X9.7907 Y-21.1412
G01 X9.7902 Y-21.1474
G01 X9.7886 Y-21.1547
G01 X9.7864 Y-21.1606
G01 X9.7829 Y-21.1672
G01 X9.7792 Y-21.1722
G01 X9.7741 Y-21.1776
G01 X9.7682 Y-21.1822
G01 X9.7617 Y-21.1859
G01 X9.7559 Y-21.1882
G01 X9.7511 Y-21.1895
G01 X9.7462 Y-21.1904
G01 X9.7400 Y-21.1907
G01 X7.7400 Y-21.1907
G00 Z2.0000
G00 X7.7400 Y-22.4607
G01 F60.00
G01 Z-0.0150
G01 F50.00
G01 X7.7301 Y-22.4598
G01 X7.7206 Y-22.4569
G01 X7.7118 Y-22.4522
G01 X7.7041 Y-22.4459
G01 X7.6985 Y-22.4392
G01 X7.6936 Y-22.4306
G01 X7.6905 Y-22.4211
G01 X7.6893 Y-22.4112
G01 X7.6893 Y-21.5088
G01 X7.6898 Y-21.5026
G01 X7.6914 Y-21.4953
G01 X7.6941 Y-21.4883
G01 X7.6971 Y-21.4828
G01 X7.7016 Y-21.4769
G01 X7.7069 Y-21.4716
G01 X7.7118 Y-21.4678
G01 X7.7183 Y-21.4641
G01 X7.7229 Y-21.4622
G01 X7.7289 Y-21.4605
G01 X7.7338 Y-21.4596
G01 X7.7400 Y-21.4593
G01 X9.7400 Y-21.4593
G01 X9.7474 Y-21.4598
G01 X9.7547 Y-21.4614
G01 X9.7617 Y-21.4641
G01 X9.7672 Y-21.4671
G01 X9.7731 Y-21.4716
G01 X9.7776 Y-21.4759
G01 X9.7822 Y-21.4818
G01 X9.7859 Y-21.4883
G01 X9.7878 Y-21.4929
G01 X9.7895 Y-21.4989
G01 X9.7904 Y-21.5038
G01 X9.7907 Y-21.5100
G01 X9.7907 Y-22.4112
G01 X9.7902 Y-22.4174
G01 X9.7886 Y-22.4247
G01 X9.7864 Y-22.4306
G01 X9.7829 Y-22.4372
G01 X9.7792 Y-22.4422
G01 X9.7741 Y-22.4476
G01 X9.7682 Y-22.4522
G01 X9.7617 Y-22.4559
G01 X9.7559 Y-22.4582
G01 X9.7511 Y-22.4595
G01 X9.7462 Y-22.4604
G01 X9.7400 Y-22.4607
G01 X7.7400 Y-22.4607
G00 Z2.0000
G00 X7.7400 Y-23.7307
G01 F60.00
G01 Z-0.0150
G01 F50.00
G01 X7.7301 Y-23.7298
G01 X7.7206 Y-23.7269
G01 X7.7118 Y-23.7222
G01 X7.7041 Y-23.7159
G01 X7.6985 Y-23.7092
G01 X7.6936 Y-23.7006
G01 X7.6905 Y-23.6911
G01 X7.6893 Y-23.6812
G01 X7.6893 Y-22.7788
G01 X7.6898 Y-22.7726
G01 X7.6914 Y-22.7653
G01 X7.6941 Y-22.7583
G01 X7.6971 Y-22.7528
G01 X7.7016 Y-22.7469
G01 X7.7069 Y-22.7416
G01 X7.7118 Y-22.7378
G01 X7.7183 Y-22.7341
G01 X7.7229 Y-22.7322
G01 X7.7289 Y-22.7305
G01 X7.7338 Y-22.7296
G01 X7.7400 Y-22.7293
G01 X9.7400 Y-22.7293
G01 X9.7474 Y-22.7298
G01 X9.7547 Y-22.7314
G01 X9.7617 Y-22.7341
G01 X9.7672 Y-22.7371
G01 X9.7731 Y-22.7416
G01 X9.7776 Y-22.7459
G01 X9.7822 Y-22.7518
G01 X9.7859 Y-22.7583
G01 X9.7878 Y-22.7629
G01 X9.7895 Y-22.7689
G01 X9.7904 Y-22.7738
G01 X9.7907 Y-22.7800
G01 X9.7907 Y-23.6812
G01 X9.7902 Y-23.6874
G01 X9.7886 Y-23.6947
G01 X9.7864 Y-23.7006
G01 X9.7829 Y-23.7072
G01 X9.7792 Y-23.7122
G01 X9.7741 Y-23.7176
G01 X9.7682 Y-23.7222
G01 X9.7617 Y-23.7259
G01 X9.7559 Y-23.7282
G01 X9.7511 Y-23.7295
G01 X9.7462 Y-23.7304
G01 X9.7400 Y-23.7307
G01 X7.7400 Y-23.7307
G00 Z2.0000
G00 X7.7400 Y-25.0007
G01 F60.00
G01 Z-0.0150
G01 F50.00
G01 X7.7301 Y-24.9998
G01 X7.7206 Y-24.9969
G01 X7.7118 Y-24.9922
G01 X7.7041 Y-24.9859
G01 X7.6985 Y-24.9792
G01 X7.6936 Y-24.9706
G01 X7.6905 Y-24.9611
G01 X7.6893 Y-24.9512
G01 X7.6893 Y-24.0488
G01 X7.6898 Y-24.0426
G01 X7.6914 Y-24.0353
G01 X7.6941 Y-24.0283
G01 X7.6971 Y-24.0228
G01 X7.7016 Y-24.0169
G01 X7.7069 Y-24.0116
G01 X7.7118 Y-24.0078
G01 X7.7183 Y-24.0041
G01 X7.7229 Y-24.0022
G01 X7.7289 Y-24.0005
G01 X7.7338 Y-23.9996
G01 X7.7400 Y-23.9993
G01 X9.7400 Y-23.9993
G01 X9.7474 Y-23.9998
G01 X9.7547 Y-24.0014
G01 X9.7617 Y-24.0041
G01 X9.7672 Y-24.0071
G01 X9.7731 Y-24.0116
G01 X9.7776 Y-24.0159
G01 X9.7822 Y-24.0218
G01 X9.7859 Y-24.0283
G01 X9.7878 Y-24.0329
G01 X9.7895 Y-24.0389
G01 X9.7904 Y-24.0438
G01 X9.7907 Y-24.0500
