(G-CODE GENERATED BY FLATCAM v8.994 - www.flatcam.org - Version Date: 2020/11/7)

(Name: profile.gbr_cutout_1_cnc)
(Type: G-code from Geometry)
(Units: MM)

(Created on Sunday, 26 May 2024 at 19:46)

(This preprocessor is the default preprocessor used by FlatCAM.)
(It is made to work with MACH3 compatible motion controllers.)

(TOOL DIAMETER: 1.0 mm)
(Feedrate_XY: 50.0 mm/min)
(Feedrate_Z: 60.0 mm/min)
(Feedrate rapids 1500.0 mm/min)

(Z_Cut: -2.0 mm)
(DepthPerCut: 0.4 mm <=>5 passes)
(Z_Move: 2.0 mm)
(Z Start: None mm)
(Z End: 4.0 mm)
(X,Y End: None mm)
(Steps per circle: 64)
(Preprocessor Geometry: default)

(X range:    1.2729 ...   32.8771  mm)
(Y range:  -45.7271 ...   -0.8489  mm)

(Spindle Speed: 0.0 RPM)
G21
G90
G94

G01 F50.00

M5
G00 Z4.0000
G00 X0.0000 Y0.0000
T1
M6    
(MSG, Change to Tool Dia = 1.0000)
M0
G00 Z4.0000

M03
G01 F50.00
G00 X15.6750 Y-0.8489
G01 F60.00
G01 Z-0.4000
G01 F50.00
G01 X1.8729 Y-0.8489
G01 X1.8141 Y-0.8518
G01 X1.7559 Y-0.8605
G01 X1.6988 Y-0.8748
G01 X1.6433 Y-0.8946
G01 X1.5901 Y-0.9198
G01 X1.5396 Y-0.9501
G01 X1.4923 Y-0.9851
G01 X1.4487 Y-1.0247
G01 X1.4091 Y-1.0683
G01 X1.3741 Y-1.1156
G01 X1.3438 Y-1.1661
G01 X1.3186 Y-1.2193
G01 X1.2988 Y-1.2748
G01 X1.2845 Y-1.3319
G01 X1.2758 Y-1.3901
G01 X1.2729 Y-1.4489
G01 X1.2729 Y-21.6880
G00 X1.2729 Y-21.6880
G01 F60.00
G01 Z-0.8000
G01 F50.00
G01 X1.2729 Y-1.4489
G01 X1.2758 Y-1.3901
G01 X1.2845 Y-1.3319
G01 X1.2988 Y-1.2748
G01 X1.3186 Y-1.2193
G01 X1.3438 Y-1.1661
G01 X1.3741 Y-1.1156
G01 X1.4091 Y-1.0683
G01 X1.4487 Y-1.0247
G01 X1.4923 Y-0.9851
G01 X1.5396 Y-0.9501
G01 X1.5901 Y-0.9198
G01 X1.6433 Y-0.8946
G01 X1.6988 Y-0.8748
G01 X1.7559 Y-0.8605
G01 X1.8141 Y-0.8518
G01 X1.8729 Y-0.8489
G01 X15.6750 Y-0.8489
G00 X15.6750 Y-0.8489
G01 F60.00
G01 Z-1.2000
G01 F50.00
G01 X1.8729 Y-0.8489
G01 X1.8141 Y-0.8518
G01 X1.7559 Y-0.8605
G01 X1.6988 Y-0.8748
G01 X1.6433 Y-0.8946
G01 X1.5901 Y-0.9198
G01 X1.5396 Y-0.9501
G01 X1.4923 Y-0.9851
G01 X1.4487 Y-1.0247
G01 X1.4091 Y-1.0683
G01 X1.3741 Y-1.1156
G01 X1.3438 Y-1.1661
G01 X1.3186 Y-1.2193
G01 X1.2988 Y-1.2748
G01 X1.2845 Y-1.3319
G01 X1.2758 Y-1.3901
G01 X1.2729 Y-1.4489
G01 X1.2729 Y-21.6880
G00 X1.2729 Y-21.6880
G01 F60.00
G01 Z-1.6000
G01 F50.00
G01 X1.2729 Y-1.4489
G01 X1.2758 Y-1.3901
G01 X1.2845 Y-1.3319
G01 X1.2988 Y-1.2748
G01 X1.3186 Y-1.2193
G01 X1.3438 Y-1.1661
G01 X1.3741 Y-1.1156
G01 X1.4091 Y-1.0683
G01 X1.4487 Y-1.0247
G01 X1.4923 Y-0.9851
G01 X1.5396 Y-0.9501
G01 X1.5901 Y-0.9198
G01 X1.6433 Y-0.8946
G01 X1.6988 Y-0.8748
G01 X1.7559 Y-0.8605
G01 X1.8141 Y-0.8518
G01 X1.8729 Y-0.8489
G01 X15.6750 Y-0.8489
G00 X15.6750 Y-0.8489
G01 F60.00
G01 Z-2.0000
G01 F50.00
G01 X1.8729 Y-0.8489
G01 X1.8141 Y-0.8518
G01 X1.7559 Y-0.8605
G01 X1.6988 Y-0.8748
G01 X1.6433 Y-0.8946
G01 X1.5901 Y-0.9198
G01 X1.5396 Y-0.9501
G01 X1.4923 Y-0.9851
G01 X1.4487 Y-1.0247
G01 X1.4091 Y-1.0683
G01 X1.3741 Y-1.1156
G01 X1.3438 Y-1.1661
G01 X1.3186 Y-1.2193
G01 X1.2988 Y-1.2748
G01 X1.2845 Y-1.3319
G01 X1.2758 Y-1.3901
G01 X1.2729 Y-1.4489
G01 X1.2729 Y-21.6880
G00 Z2.0000
G00 X18.6750 Y-0.8489
G01 F60.00
G01 Z-0.4000
G01 F50.00
G01 X32.2771 Y-0.8489
G01 X32.3359 Y-0.8518
G01 X32.3941 Y-0.8605
G01 X32.4512 Y-0.8748
G01 X32.5067 Y-0.8946
G01 X32.5599 Y-0.9198
G01 X32.6104 Y-0.9501
G01 X32.6577 Y-0.9851
G01 X32.7013 Y-1.0247
G01 X32.7409 Y-1.0683
G01 X32.7759 Y-1.1156
G01 X32.8062 Y-1.1661
G01 X32.8314 Y-1.2193
G01 X32.8512 Y-1.2748
G01 X32.8655 Y-1.3319
G01 X32.8742 Y-1.3901
G01 X32.8771 Y-1.4489
G01 X32.8771 Y-21.6880
G00 X32.8771 Y-21.6880
G01 F60.00
G01 Z-0.8000
G01 F50.00
G01 X32.8771 Y-1.4489
G01 X32.8742 Y-1.3901
G01 X32.8655 Y-1.3319
G01 X32.8512 Y-1.2748
G01 X32.8314 Y-1.2193
G01 X32.8062 Y-1.1661
G01 X32.7759 Y-1.1156
G01 X32.7409 Y-1.0683
G01 X32.7013 Y-1.0247
G01 X32.6577 Y-0.9851
G01 X32.6104 Y-0.9501
G01 X32.5599 Y-0.9198
G01 X32.5067 Y-0.8946
G01 X32.4512 Y-0.8748
G01 X32.3941 Y-0.8605
G01 X32.3359 Y-0.8518
G01 X32.2771 Y-0.8489
G01 X18.6750 Y-0.8489
G00 X18.6750 Y-0.8489
G01 F60.00
G01 Z-1.2000
G01 F50.00
G01 X32.2771 Y-0.8489
G01 X32.3359 Y-0.8518
G01 X32.3941 Y-0.8605
G01 X32.4512 Y-0.8748
G01 X32.5067 Y-0.8946
G01 X32.5599 Y-0.9198
G01 X32.6104 Y-0.9501
G01 X32.6577 Y-0.9851
G01 X32.7013 Y-1.0247
G01 X32.7409 Y-1.0683
G01 X32.7759 Y-1.1156
G01 X32.8062 Y-1.1661
G01 X32.8314 Y-1.2193
G01 X32.8512 Y-1.2748
G01 X32.8655 Y-1.3319
G01 X32.8742 Y-1.3901
G01 X32.8771 Y-1.4489
G01 X32.8771 Y-21.6880
G00 X32.8771 Y-21.6880
G01 F60.00
G01 Z-1.6000
G01 F50.00
G01 X32.8771 Y-1.4489
G01 X32.8742 Y-1.3901
G01 X32.8655 Y-1.3319
G01 X32.8512 Y-1.2748
G01 X32.8314 Y-1.2193
G01 X32.8062 Y-1.1661
G01 X32.7759 Y-1.1156
G01 X32.7409 Y-1.0683
G01 X32.7013 Y-1.0247
G01 X32.6577 Y-0.9851
G01 X32.6104 Y-0.9501
G01 X32.5599 Y-0.9198
G01 X32.5067 Y-0.8946
G01 X32.4512 Y-0.8748
G01 X32.3941 Y-0.8605
G01 X32.3359 Y-0.8518
G01 X32.2771 Y-0.8489
G01 X18.6750 Y-0.8489
G00 X18.6750 Y-0.8489
G01 F60.00
G01 Z-2.0000
G01 F50.00
G01 X32.2771 Y-0.8489
G01 X32.3359 Y-0.8518
G01 X32.3941 Y-0.8605
G01 X32.4512 Y-0.8748
G01 X32.5067 Y-0.8946
G01 X32.5599 Y-0.9198
G01 X32.6104 Y-0.9501
G01 X32.6577 Y-0.9851
G01 X32.7013 Y-1.0247
G01 X32.7409 Y-1.0683
G01 X32.7759 Y-1.1156
G01 X32.8062 Y-1.1661
G01 X32.8314 Y-1.2193
G01 X32.8512 Y-1.2748
G01 X32.8655 Y-1.3319
G01 X32.8742 Y-1.3901
G01 X32.8771 Y-1.4489
G01 X32.8771 Y-21.6880
G00 Z2.0000
G00 X32.8771 Y-24.6880
G01 F60.00
G01 Z-0.4000
G01 F50.00
G01 X32.8771 Y-45.1271
G01 X32.8742 Y-45.1859
G01 X32.8655 Y-45.2441
G01 X32.8512 Y-45.3012
G01 X32.8314 Y-45.3567
G01 X32.8062 Y-45.4099
G01 X32.7759 Y-45.4604
G01 X32.7409 Y-45.5077
G01 X32.7013 Y-45.5513
G01 X32.6577 Y-45.5909
G01 X32.6104 Y-45.6259
G01 X32.5599 Y-45.6562
G01 X32.5067 Y-45.6814
G01 X32.4512 Y-45.7012
G01 X32.3941 Y-45.7155
G01 X32.3359 Y-45.7242
G01 X32.2771 Y-45.7271
G01 X18.6750 Y-45.7271
G00 X18.6750 Y-45.7271
G01 F60.00
G01 Z-0.8000
G01 F50.00
G01 X32.2771 Y-45.7271
G01 X32.3359 Y-45.7242
G01 X32.3941 Y-45.7155
G01 X32.4512 Y-45.7012
G01 X32.5067 Y-45.6814
G01 X32.5599 Y-45.6562
G01 X32.6104 Y-45.6259
G01 X32.6577 Y-45.5909
G01 X32.7013 Y-45.5513
G01 X32.7409 Y-45.5077
G01 X32.7759 Y-45.4604
G01 X32.8062 Y-45.4099
G01 X32.8314 Y-45.3567
G01 X32.8512 Y-45.3012
G01 X32.8655 Y-45.2441
G01 X32.8742 Y-45.1859
G01 X32.8771 Y-45.1271
G01 X32.8771 Y-24.6880
G00 X32.8771 Y-24.6880
G01 F60.00
G01 Z-1.2000
G01 F50.00
G01 X32.8771 Y-45.1271
G01 X32.8742 Y-45.1859
G01 X32.8655 Y-45.2441
G01 X32.8512 Y-45.3012
G01 X32.8314 Y-45.3567
G01 X32.8062 Y-45.4099
G01 X32.7759 Y-45.4604
G01 X32.7409 Y-45.5077
G01 X32.7013 Y-45.5513
G01 X32.6577 Y-45.5909
G01 X32.6104 Y-45.6259
G01 X32.5599 Y-45.6562
G01 X32.5067 Y-45.6814
G01 X32.4512 Y-45.7012
G01 X32.3941 Y-45.7155
G01 X32.3359 Y-45.7242
G01 X32.2771 Y-45.7271
G01 X18.6750 Y-45.7271
G00 X18.6750 Y-45.7271
G01 F60.00
G01 Z-1.6000
G01 F50.00
G01 X32.2771 Y-45.7271
G01 X32.3359 Y-45.7242
G01 X32.3941 Y-45.7155
G01 X32.4512 Y-45.7012
G01 X32.5067 Y-45.6814
G01 X32.5599 Y-45.6562
G01 X32.6104 Y-45.6259
G01 X32.6577 Y-45.5909
G01 X32.7013 Y-45.5513
G01 X32.7409 Y-45.5077
G01 X32.7759 Y-45.4604
G01 X32.8062 Y-45.4099
G01 X32.8314 Y-45.3567
G01 X32.8512 Y-45.3012
G01 X32.8655 Y-45.2441
G01 X32.8742 Y-45.1859
G01 X32.8771 Y-45.1271
G01 X32.8771 Y-24.6880
G00 X32.8771 Y-24.6880
G01 F60.00
G01 Z-2.0000
G01 F50.00
G01 X32.8771 Y-45.1271
G01 X32.8742 Y-45.1859
G01 X32.8655 Y-45.2441
G01 X32.8512 Y-45.3012
G01 X32.8314 Y-45.3567
G01 X32.8062 Y-45.4099
G01 X32.7759 Y-45.4604
G01 X32.7409 Y-45.5077
G01 X32.7013 Y-45.5513
G01 X32.6577 Y-45.5909
G01 X32.6104 Y-45.6259
G01 X32.5599 Y-45.6562
G01 X32.5067 Y-45.6814
G01 X32.4512 Y-45.7012
G01 X32.3941 Y-45.7155
G01 X32.3359 Y-45.7242
G01 X32.2771 Y-45.7271
G01 X18.6750 Y-45.7271
G00 Z2.0000
G00 X15.6750 Y-45.7271
G01 F60.00
G01 Z-0.4000
G01 F50.00
G01 X1.8729 Y-45.7271
G01 X1.8141 Y-45.7242
G01 X1.7559 Y-45.7155
G01 X1.6988 Y-45.7012
G01 X1.6433 Y-45.6814
G01 X1.5901 Y-45.6562
G01 X1.5396 Y-45.6259
G01 X1.4923 Y-45.5909
G01 X1.4487 Y-45.5513
G01 X1.4091 Y-45.5077
G01 X1.3741 Y-45.4604
G01 X1.3438 Y-45.4099
G01 X1.3186 Y-45.3567
G01 X1.2988 Y-45.3012
G01 X1.2845 Y-45.2441
G01 X1.2758 Y-45.1859
G01 X1.2729 Y-45.1271
G01 X1.2729 Y-24.6880
G00 X1.2729 Y-24.6880
G01 F60.00
G01 Z-0.8000
G01 F50.00
G01 X1.2729 Y-45.1271
G01 X1.2758 Y-45.1859
G01 X1.2845 Y-45.2441
G01 X1.2988 Y-45.3012
G01 X1.3186 Y-45.3567
G01 X1.3438 Y-45.4099
G01 X1.3741 Y-45.4604
G01 X1.4091 Y-45.5077
G01 X1.4487 Y-45.5513
G01 X1.4923 Y-45.5909
G01 X1.5396 Y-45.6259
G01 X1.5901 Y-45.6562
G01 X1.6433 Y-45.6814
G01 X1.6988 Y-45.7012
G01 X1.7559 Y-45.7155
G01 X1.8141 Y-45.7242
G01 X1.8729 Y-45.7271
G01 X15.6750 Y-45.7271
G00 X15.6750 Y-45.7271
G01 F60.00
G01 Z-1.2000
G01 F50.00
G01 X1.8729 Y-45.7271
G01 X1.8141 Y-45.7242
G01 X1.7559 Y-45.7155
G01 X1.6988 Y-45.7012
G01 X1.6433 Y-45.6814
G01 X1.5901 Y-45.6562
G01 X1.5396 Y-45.6259
G01 X1.4923 Y-45.5909
G01 X1.4487 Y-45.5513
G01 X1.4091 Y-45.5077
G01 X1.3741 Y-45.4604
G01 X1.3438 Y-45.4099
G01 X1.3186 Y-45.3567
G01 X1.2988 Y-45.3012
G01 X1.2845 Y-45.2441
G01 X1.2758 Y-45.1859
G01 X1.2729 Y-45.1271
G01 X1.2729 Y-24.6880
G00 X1.2729 Y-24.6880
G01 F60.00
G01 Z-1.6000
G01 F50.00
G01 X1.2729 Y-45.1271
G01 X1.2758 Y-45.1859
G01 X1.2845 Y-45.2441
G01 X1.2988 Y-45.3012
G01 X1.3186 Y-45.3567
G01 X1.3438 Y-45.4099
G01 X1.3741 Y-45.4604
G01 X1.4091 Y-45.5077
G01 X1.4487 Y-45.5513
G01 X1.4923 Y-45.5909
G01 X1.5396 Y-45.6259
G01 X1.5901 Y-45.6562
G01 X1.6433 Y-45.6814
G01 X1.6988 Y-45.7012
G01 X1.7559 Y-45.7155
G01 X1.8141 Y-45.7242
G01 X1.8729 Y-45.7271
G01 X15.6750 Y-45.7271
G00 X15.6750 Y-45.7271
G01 F60.00
G01 Z-2.0000
G01 F50.00
G01 X1.8729 Y-45.7271
G01 X1.8141 Y-45.7242
G01 X1.7559 Y-45.7155
G01 X1.6988 Y-45.7012
G01 X1.6433 Y-45.6814
G01 X1.5901 Y-45.6562
G01 X1.5396 Y-45.6259
G01 X1.4923 Y-45.5909
G01 X1.4487 Y-45.5513
G01 X1.4091 Y-45.5077
G01 X1.3741 Y-45.4604
G01 X1.3438 Y-45.4099
G01 X1.3186 Y-45.3567
G01 X1.2988 Y-45.3012
G01 X1.2845 Y-45.2441
G01 X1.2758 Y-45.1859
G01 X1.2729 Y-45.1271
G01 X1.2729 Y-24.6880
G00 Z2.0000
M05
G00 Z2.0000
G00 Z4.00


