(G-CODE GENERATED BY FLATCAM v8.994 - www.flatcam.org - Version Date: 2020/11/7)

(Name: soldermask_top.gbr_inverted_ncc_cnc)
(Type: G-code from Geometry)
(Units: MM)

(Created on Sunday, 26 May 2024 at 19:48)

(This preprocessor is the default preprocessor used by FlatCAM.)
(It is made to work with MACH3 compatible motion controllers.)

(TOOL DIAMETER: 0.1 mm)
(Feedrate_XY: 50.0 mm/min)
(Feedrate_Z: 60.0 mm/min)
(Feedrate rapids 1500.0 mm/min)

(Z_Cut: 0.0 mm)
(Z_Move: 2.0 mm)
(Z Start: None mm)
(Z End: 4.0 mm)
(X,Y End: None mm)
(Steps per circle: 64)
(Preprocessor Geometry: default)

(X range:    1.6384 ...   32.5876  mm)
(Y range:  -45.3616 ...   -1.2044  mm)

(Spindle Speed: 0.0 RPM)
G21
G90
G94

G01 F50.00

M5
G00 Z4.0000
G00 X0.0000 Y0.0000
T3
M6    
(MSG, Change to Tool Dia = 0.1000)
M0
G00 Z4.0000

M03
G01 F50.00
G00 X1.6384 Y-1.2125
G01 F60.00
G01 Z0.0000
G01 F50.00
G01 X1.6442 Y-1.2044
G01 X1.7183 Y-1.2044
G01 X1.6384 Y-1.3149
G01 X1.6384 Y-1.4173
G01 X1.7923 Y-1.2044
G01 X1.8663 Y-1.2044
G01 X1.6384 Y-1.5197
G01 X1.6384 Y-1.6221
G01 X1.9403 Y-1.2044
G01 X2.0144 Y-1.2044
G01 X1.6384 Y-1.7246
G01 X1.6384 Y-1.8278
G01 X1.6499 Y-1.8111
G01 X2.0884 Y-1.2044
G01 X2.1624 Y-1.2044
G01 X1.6989 Y-1.8457
G01 X1.6384 Y-1.9339
G01 X1.6384 Y-2.0399
G01 X1.7480 Y-1.8802
G01 X2.2364 Y-1.2044
G01 X2.3105 Y-1.2044
G01 X1.7970 Y-1.9148
G01 X1.6384 Y-2.1460
G01 X1.6384 Y-2.2520
G01 X1.8461 Y-1.9493
G01 X2.3848 Y-1.2044
G01 X2.4602 Y-1.2044
G01 X2.4270 Y-1.2481
G01 X1.8951 Y-1.9839
G01 X1.6384 Y-2.3581
G01 X1.6384 Y-2.4641
G01 X1.9442 Y-2.0184
G01 X2.4751 Y-1.2838
G01 X2.5356 Y-1.2044
G01 X2.6110 Y-1.2044
G01 X2.5233 Y-1.3196
G01 X1.9932 Y-2.0530
G01 X1.6384 Y-2.5702
G01 X1.6384 Y-2.6762
G01 X2.0423 Y-2.0875
G01 X2.5715 Y-1.3553
G01 X2.6863 Y-1.2044
G01 X2.7617 Y-1.2044
G01 X2.6197 Y-1.3911
G01 X2.0914 Y-2.1220
G01 X1.6384 Y-2.7823
G01 X1.6384 Y-2.8883
G01 X2.1404 Y-2.1566
G01 X2.6679 Y-1.4268
G01 X2.8371 Y-1.2044
G01 X2.9125 Y-1.2044
G01 X2.7161 Y-1.4625
G01 X2.1895 Y-2.1911
G01 X1.6809 Y-2.9325
G01 X1.6384 Y-2.9977
G01 X1.6384 Y-3.1078
G01 X1.7308 Y-2.9658
G01 X2.2385 Y-2.2257
G01 X2.7643 Y-1.4983
G01 X2.9879 Y-1.2044
G01 X3.0633 Y-1.2044
G01 X2.8125 Y-1.5340
G01 X2.2876 Y-2.2602
G01 X1.7806 Y-2.9991
G01 X1.6384 Y-3.2178
G01 X1.6384 Y-3.3278
G01 X1.8305 Y-3.0325
G01 X2.3366 Y-2.2948
G01 X2.8607 Y-1.5698
G01 X3.1387 Y-1.2044
G01 X3.2141 Y-1.2044
G01 X2.9089 Y-1.6055
G01 X2.3857 Y-2.3293
G01 X1.8804 Y-3.0658
G01 X1.6384 Y-3.4378
G01 X1.6384 Y-3.5478
G01 X1.9303 Y-3.0991
G01 X2.4347 Y-2.3639
G01 X2.5384 Y-2.2205
G01 X2.5384 Y-2.3229
G01 X2.4838 Y-2.3984
G01 X1.9802 Y-3.1325
G01 X1.6384 Y-3.6578
G01 X1.6384 Y-3.7679
G01 X2.0301 Y-3.1658
G01 X2.5384 Y-2.4253
G01 X2.5384 Y-2.5310
G01 X2.0800 Y-3.1991
G01 X1.6384 Y-3.8779
G01 X1.6384 Y-3.9886
G01 X1.6468 Y-3.9749
G01 X2.1299 Y-3.2325
G01 X2.5384 Y-2.6370
G01 X2.5384 Y-2.7430
G01 X2.1797 Y-3.2658
G01 X1.6975 Y-4.0070
G01 X1.6384 Y-4.1030
G01 X1.6384 Y-4.2174
G01 X1.7482 Y-4.0391
G01 X2.2296 Y-3.2991
G01 X2.5384 Y-2.8491
G01 X2.5384 Y-2.9551
G01 X2.2795 Y-3.3325
G01 X1.7989 Y-4.0712
G01 X1.6384 Y-4.3317
G01 X1.6384 Y-4.4461
G01 X1.8496 Y-4.1033
G01 X2.3294 Y-3.3658
G01 X2.5384 Y-3.0612
G01 X2.5384 Y-3.1672
G01 X2.3793 Y-3.3991
G01 X1.9003 Y-4.1354
G01 X1.6384 Y-4.5605
G01 X1.6384 Y-4.6748
G01 X1.9510 Y-4.1675
G01 X2.4292 Y-3.4325
G01 X2.5384 Y-3.2733
G01 X2.5384 Y-3.3793
G01 X2.4791 Y-3.4658
G01 X2.0017 Y-4.1996
G01 X1.6384 Y-4.7892
G01 X1.6384 Y-4.9036
G01 X2.0524 Y-4.2317
G01 X2.5290 Y-3.4991
G01 X2.5384 Y-3.4854
G01 X2.5384 Y-3.5947
G01 X2.1031 Y-4.2638
G01 X1.6453 Y-5.0066
G01 X1.6384 Y-5.0186
G01 X1.6384 Y-5.1377
G01 X1.6968 Y-5.0375
G01 X2.1537 Y-4.2959
G01 X2.5384 Y-3.7047
G01 X2.5384 Y-3.8147
G01 X2.2044 Y-4.3280
G01 X1.7483 Y-5.0683
G01 X1.6384 Y-5.2569
G01 X1.6384 Y-5.3760
G01 X1.7997 Y-5.0992
G01 X2.2551 Y-4.3601
G01 X2.5384 Y-3.9247
G01 X2.5384 Y-4.0347
G01 X2.3058 Y-4.3922
G01 X1.8512 Y-5.1300
G01 X1.6384 Y-5.4952
G01 X1.6384 Y-5.6143
G01 X1.9027 Y-5.1609
G01 X2.3565 Y-4.4243
G01 X2.5384 Y-4.1448
G01 X2.5384 Y-4.2548
G01 X2.4072 Y-4.4564
G01 X1.9541 Y-5.1917
G01 X1.6384 Y-5.7335
G01 X1.6384 Y-5.8526
G01 X2.0056 Y-5.2226
G01 X2.4579 Y-4.4885
G01 X2.5384 Y-4.3648
G01 X2.5384 Y-4.4748
G01 X2.5086 Y-4.5206
G01 X2.0571 Y-5.2534
G01 X1.6384 Y-5.9718
G01 X1.6384 Y-6.0947
G01 X1.6759 Y-6.0266
G01 X2.1085 Y-5.2843
G01 X2.5384 Y-4.5866
G01 X2.5384 Y-4.7010
G01 X2.1600 Y-5.3151
G01 X1.7281 Y-6.0562
G01 X1.6384 Y-6.2191
G01 X1.6384 Y-6.3435
G01 X1.7803 Y-6.0858
G01 X2.2114 Y-5.3460
G01 X2.5384 Y-4.8153
G01 X2.5384 Y-4.9297
G01 X2.2629 Y-5.3768
G01 X1.8325 Y-6.1154
G01 X1.6384 Y-6.4680
G01 X1.6384 Y-6.5924
G01 X1.8847 Y-6.1449
G01 X2.3144 Y-5.4076
G01 X2.5384 Y-5.0441
G01 X2.5384 Y-5.1584
G01 X2.3658 Y-5.4385
G01 X1.9369 Y-6.1745
G01 X1.6384 Y-6.7168
G01 X1.6384 Y-6.8412
G01 X1.9891 Y-6.2041
G01 X2.4173 Y-5.4693
G01 X2.5384 Y-5.2728
G01 X2.5384 Y-5.3872
G01 X2.4688 Y-5.5002
G01 X2.0413 Y-6.2337
G01 X1.6384 Y-6.9657
G01 X1.6384 Y-7.0952
G01 X1.6849 Y-7.0057
G01 X2.0935 Y-6.2632
G01 X2.5202 Y-5.5310
G01 X2.5384 Y-5.5015
G01 X2.5384 Y-5.6190
G01 X2.1457 Y-6.2928
G01 X1.7378 Y-7.0340
G01 X1.6384 Y-7.2255
G01 X1.6384 Y-7.3558
G01 X1.7907 Y-7.0622
G01 X2.1979 Y-6.3224
G01 X2.5384 Y-5.7382
G01 X2.5384 Y-5.8573
G01 X2.2501 Y-6.3519
G01 X1.8436 Y-7.0905
G01 X1.6384 Y-7.4860
G01 X1.6384 Y-7.6163
G01 X1.8965 Y-7.1188
G01 X2.3023 Y-6.3815
G01 X2.5384 Y-5.9764
G01 X2.5384 Y-6.0956
G01 X2.3545 Y-6.4111
G01 X1.9494 Y-7.1471
G01 X1.6384 Y-7.7466
G01 X1.6384 Y-7.8768
G01 X2.0024 Y-7.1754
G01 X2.4067 Y-6.4407
G01 X2.5384 Y-6.2147
G01 X2.5384 Y-6.3339
G01 X2.4589 Y-6.4702
G01 X2.0553 Y-7.2037
G01 X1.6697 Y-7.9468
G01 X1.6384 Y-8.0109
G01 X1.6384 Y-8.1477
G01 X1.7233 Y-7.9737
G01 X2.1082 Y-7.2319
G01 X2.5111 Y-6.4998
G01 X2.5384 Y-6.4530
G01 X2.5384 Y-6.5747
G01 X2.1611 Y-7.2602
G01 X1.7769 Y-8.0007
G01 X1.6384 Y-8.2845
G01 X1.6384 Y-8.4213
G01 X1.8305 Y-8.0277
G01 X2.2140 Y-7.2885
G01 X2.5384 Y-6.6991
G01 X2.5384 Y-6.8236
G01 X2.2669 Y-7.3168
G01 X1.8841 Y-8.0547
G01 X1.6384 Y-8.5581
G01 X1.6384 Y-8.6948
G01 X1.9377 Y-8.0816
G01 X2.3198 Y-7.3451
G01 X2.5384 Y-6.9480
G01 X2.5384 Y-7.0724
G01 X2.3728 Y-7.3734
G01 X1.9913 Y-8.1086
G01 X1.6384 Y-8.8316
G01 X1.6384 Y-8.9743
G01 X1.6822 Y-8.8787
G01 X2.0449 Y-8.1356
G01 X2.4257 Y-7.4016
G01 X2.5384 Y-7.1968
G01 X2.5384 Y-7.3213
G01 X2.4786 Y-7.4299
G01 X2.0985 Y-8.1626
G01 X1.7364 Y-8.9043
G01 X1.6384 Y-9.1184
G01 X1.6384 Y-9.2624
G01 X1.7907 Y-8.9300
G01 X2.1521 Y-8.1895
G01 X2.5315 Y-7.4582
G01 X2.5384 Y-7.4457
G01 X2.5384 Y-7.5752
G01 X2.2057 Y-8.2165
G01 X1.8449 Y-8.9556
G01 X1.6384 Y-9.4065
G01 X1.6384 Y-9.5506
G01 X1.8992 Y-8.9813
G01 X2.2592 Y-8.2435
G01 X2.5384 Y-7.7055
G01 X2.5384 Y-7.8357
G01 X2.3128 Y-8.2705
G01 X1.9534 Y-9.0069
G01 X1.6384 Y-9.6947
G01 X1.6384 Y-9.8430
G01 X1.6670 Y-9.7763
G01 X2.0076 Y-9.0326
G01 X2.3664 Y-8.2975
G01 X2.5384 Y-7.9660
G01 X2.5384 Y-8.0963
G01 X2.4200 Y-8.3244
G01 X2.0619 Y-9.0582
G01 X1.7218 Y-9.8006
G01 X1.6384 Y-9.9953
G01 X1.6384 Y-10.1476
G01 X1.7767 Y-9.8249
G01 X2.1161 Y-9.0839
G01 X2.4736 Y-8.3514
G01 X2.5384 Y-8.2266
G01 X2.5384 Y-8.3568
G01 X2.5272 Y-8.3784
G01 X2.1704 Y-9.1095
G01 X1.8315 Y-9.8493
G01 X1.6384 Y-10.2998
G01 X1.6384 Y-10.4521
G01 X1.8864 Y-9.8736
G01 X2.2246 Y-9.1352
G01 X2.5384 Y-8.4922
G01 X2.5384 Y-8.6290
G01 X2.2788 Y-9.1609
G01 X1.9413 Y-9.8979
G01 X1.6384 Y-10.6044
G01 X1.6384 Y-10.7632
G01 X1.6773 Y-10.6659
G01 X1.9961 Y-9.9222
G01 X2.3331 Y-9.1865
G01 X2.5384 Y-8.7658
G01 X2.5384 Y-8.9026
G01 X2.3873 Y-9.2122
G01 X2.0510 Y-9.9465
G01 X1.7327 Y-10.6889
G01 X1.6384 Y-10.9248
G01 X1.6384 Y-11.0863
G01 X1.7882 Y-10.7118
G01 X2.1058 Y-9.9708
G01 X2.4416 Y-9.2378
G01 X2.5384 Y-9.0394
G01 X2.5384 Y-9.1762
G01 X2.4958 Y-9.2635
G01 X2.1607 Y-9.9951
G01 X1.8436 Y-10.7348
G01 X1.6384 Y-11.2479
G01 X1.6384 Y-11.4095
G01 X1.8990 Y-10.7578
G01 X2.2155 Y-10.0195
G01 X2.5384 Y-9.3145
G01 X2.5384 Y-9.4586
G01 X2.2704 Y-10.0438
G01 X1.9545 Y-10.7807
G01 X1.6567 Y-11.5252
G01 X1.6384 Y-11.5745
G01 X1.6384 Y-11.7467
G01 X1.7127 Y-11.5468
G01 X2.0099 Y-10.8037
G01 X2.3252 Y-10.0681
G01 X2.5384 Y-9.6027
G01 X2.5384 Y-9.7467
G01 X2.3801 Y-10.0924
G01 X2.0653 Y-10.8267
G01 X1.7687 Y-11.5684
G01 X1.6384 Y-11.9189
G01 X1.6384 Y-12.0911
G01 X1.8247 Y-11.5900
G01 X2.1208 Y-10.8496
G01 X2.4349 Y-10.1167
G01 X2.5384 Y-9.8908
G01 X2.5384 Y-10.0349
G01 X2.4898 Y-10.1410
G01 X2.1762 Y-10.8726
G01 X1.8806 Y-11.6116
G01 X1.6384 Y-12.2633
G01 X1.6384 Y-12.4401
G01 X1.6598 Y-12.3779
G01 X1.9366 Y-11.6332
G01 X2.2316 Y-10.8955
G01 X2.5384 Y-10.1799
G01 X2.5384 Y-10.3321
G01 X2.2871 Y-10.9185
G01 X1.9926 Y-11.6548
G01 X1.7163 Y-12.3981
G01 X1.6384 Y-12.6246
G01 X1.6384 Y-12.8090
G01 X1.7728 Y-12.4183
G01 X2.0486 Y-11.6764
G01 X2.3425 Y-10.9415
G01 X2.5384 Y-10.4844
G01 X2.5384 Y-10.6367
G01 X2.3979 Y-10.9644
G01 X2.1046 Y-11.6980
G01 X1.8293 Y-12.4385
G01 X1.6384 Y-12.9934
G01 X1.6384 Y-13.1778
G01 X1.8858 Y-12.4587
G01 X2.1605 Y-11.7196
G01 X2.4534 Y-10.9874
G01 X2.5384 Y-10.7890
G01 X2.5384 Y-10.9413
G01 X2.5088 Y-11.0103
G01 X2.2165 Y-11.7412
G01 X1.9423 Y-12.4789
G01 X1.6862 Y-13.2232
G01 X1.6384 Y-13.3742
G01 X1.6384 Y-13.5729
G01 X1.7432 Y-13.2420
G01 X1.9988 Y-12.4992
G01 X2.2725 Y-11.7628
G01 X2.5384 Y-11.0979
G01 X2.5384 Y-11.2594
G01 X2.3285 Y-11.7844
G01 X2.0553 Y-12.5194
G01 X1.8002 Y-13.2609
G01 X1.6384 Y-13.7715
G01 X1.6384 Y-13.9702
G01 X1.8571 Y-13.2797
G01 X2.1118 Y-12.5396
G01 X2.3845 Y-11.8059
G01 X2.5384 Y-11.4210
G01 X2.5384 Y-11.5826
G01 X2.4404 Y-11.8275
G01 X2.1683 Y-12.5598
G01 X1.9141 Y-13.2985
G01 X1.6782 Y-14.0432
G01 X1.6384 Y-14.1804
G01 X1.6384 Y-14.3959
G01 X1.7356 Y-14.0607
G01 X1.9711 Y-13.3173
G01 X2.2247 Y-12.5800
G01 X2.4964 Y-11.8491
G01 X2.5384 Y-11.7442
G01 X2.5384 Y-11.9084
G01 X2.2812 Y-12.6002
G01 X2.0281 Y-13.3362
G01 X1.7930 Y-14.0781
G01 X1.6384 Y-14.6113
G01 X1.6384 Y-14.8267
G01 X1.8504 Y-14.0955
G01 X2.0850 Y-13.3550
G01 X2.3377 Y-12.6204
G01 X2.5384 Y-12.0806
G01 X2.5384 Y-12.2528
G01 X2.3942 Y-12.6406
G01 X2.1420 Y-13.3738
G01 X1.9079 Y-14.1129
G01 X1.6919 Y-14.8575
G01 X1.6384 Y-15.0606
G01 X1.6384 Y-15.2960
G01 X1.7497 Y-14.8735
G01 X1.9653 Y-14.1303
G01 X2.1990 Y-13.3926
G01 X2.4507 Y-12.6609
G01 X2.5384 Y-12.4250
G01 X2.5384 Y-12.5972
G01 X2.5072 Y-12.6811
G01 X2.2559 Y-13.4114
G01 X2.0227 Y-14.1477
G01 X1.8076 Y-14.8895
G01 X1.6384 Y-15.5314
G01 X1.6384 Y-15.7795
G01 X1.6689 Y-15.6510
G01 X1.8654 Y-14.9056
G01 X2.0801 Y-14.1652
G01 X2.3129 Y-13.4303
G01 X2.5384 Y-12.7748
G01 X2.5384 Y-12.9593
G01 X2.3699 Y-13.4491
G01 X2.1375 Y-14.1826
G01 X1.9232 Y-14.9216
G01 X1.7271 Y-15.6656
G01 X1.6384 Y-16.0392
G01 X1.6384 Y-16.2988
G01 X1.7853 Y-15.6802
G01 X1.9810 Y-14.9376
G01 X2.1949 Y-14.2000
G01 X2.4269 Y-13.4679
G01 X2.5384 Y-13.1437
G01 X2.5384 Y-13.3281
G01 X2.4838 Y-13.4867
G01 X2.2524 Y-14.2174
G01 X2.0389 Y-14.9536
G01 X1.8435 Y-15.6947
G01 X1.6664 Y-16.4405
G01 X1.6384 Y-16.5728
G01 X1.6384 Y-16.8625
G01 X1.7250 Y-16.4536
G01 X1.9017 Y-15.7093
G01 X2.0967 Y-14.9696
G01 X2.3098 Y-14.2348
G01 X2.5384 Y-13.5131
G01 X2.5384 Y-13.7118
G01 X2.3672 Y-14.2522
G01 X2.1545 Y-14.9856
G01 X1.9599 Y-15.7239
G01 X1.7835 Y-16.4668
G01 X1.6384 Y-17.1522
G01 X1.6384 Y-17.4715
G01 X1.6842 Y-17.2254
G01 X1.8420 Y-16.4799
G01 X2.0181 Y-15.7385
G01 X2.2124 Y-15.0016
G01 X2.4246 Y-14.2697
G01 X2.5384 Y-13.9104
G01 X2.5384 Y-14.1091
G01 X2.4820 Y-14.2871
G01 X2.2702 Y-15.0176
G01 X2.0763 Y-15.7530
G01 X1.9006 Y-16.4931
G01 X1.7431 Y-17.2372
G01 X1.6384 Y-17.7993
G01 X1.6384 Y-18.1478
G01 X1.6630 Y-17.9951
G01 X1.8019 Y-17.2489
G01 X1.9591 Y-16.5062
G01 X2.1345 Y-15.7676
G01 X2.3280 Y-15.0336
G01 X2.5384 Y-14.3081
G01 X2.5384 Y-14.5235
G01 X2.3858 Y-15.0496
G01 X2.1927 Y-15.7822
G01 X2.0177 Y-16.5193
G01 X1.8608 Y-17.2606
G01 X1.7221 Y-18.0054
G01 X1.6384 Y-18.5255
G01 X1.6384 Y-18.9292
G01 X1.6611 Y-18.7622
G01 X1.7812 Y-18.0157
G01 X1.9196 Y-17.2723
G01 X2.0762 Y-16.5325
G01 X2.2509 Y-15.7968
G01 X2.4437 Y-15.0656
G01 X2.5384 Y-14.7389
G01 X2.5384 Y-14.9543
G01 X2.5015 Y-15.0816
G01 X2.3091 Y-15.8114
G01 X2.1348 Y-16.5456
G01 X1.9785 Y-17.2840
G01 X1.8403 Y-18.0259
G01 X1.7204 Y-18.7710
G01 X1.6384 Y-19.3750
G01 X1.6384 Y-19.8869
G01 X1.6784 Y-19.5262
G01 X1.7798 Y-18.7798
G01 X1.8994 Y-18.0362
G01 X2.0373 Y-17.2957
G01 X2.1933 Y-16.5588
G01 X2.3673 Y-15.8259
G01 X2.5384 Y-15.1769
G01 X2.5384 Y-15.4123
G01 X2.4255 Y-15.8405
G01 X2.2518 Y-16.5719
G01 X2.0961 Y-17.3074
G01 X1.9585 Y-18.0464
G01 X1.8391 Y-18.7886
G01 X1.7380 Y-19.5336
G01 X1.6551 Y-20.2807
G01 X1.6384 Y-20.4746
G01 X1.6384 Y-21.2300
G01 X1.6504 Y-21.0341
G01 X1.7148 Y-20.2866
G01 X1.7975 Y-19.5409
G01 X1.8985 Y-18.7974
G01 X2.0177 Y-18.0567
G01 X2.1550 Y-17.3191
G01 X2.3104 Y-16.5851
G01 X2.4837 Y-15.8551
G01 X2.5384 Y-15.6477
G01 X2.5384 Y-15.8846
G01 X2.3689 Y-16.5982
G01 X2.2138 Y-17.3308
G01 X2.0768 Y-18.0670
G01 X1.9578 Y-18.8063
G01 X1.8570 Y-19.5483
G01 X1.7745 Y-20.2925
G01 X1.7103 Y-21.0385
G01 X1.6644 Y-21.7859
G01 X1.6384 Y-22.4905
G01 X2.5384 Y-22.5052
G01 X2.5365 Y-22.5563
G01 X2.5276 Y-23.2830
G01 X2.5365 Y-24.0097
G01 X2.5384 Y-24.0608
G01 X1.6384 Y-24.0755
G01 X1.6644 Y-24.7801
G01 X1.7103 Y-25.5275
G01 X1.7745 Y-26.2735
G01 X1.8570 Y-27.0177
G01 X1.9578 Y-27.7597
G01 X2.0768 Y-28.4990
G01 X2.2138 Y-29.2352
G01 X2.3689 Y-29.9678
G01 X2.5384 Y-30.6814
G01 X2.5384 Y-30.9183
G01 X2.4837 Y-30.7109
G01 X2.3104 Y-29.9809
G01 X2.1550 Y-29.2469
G01 X2.0177 Y-28.5093
G01 X1.8985 Y-27.7686
G01 X1.7975 Y-27.0251
G01 X1.7148 Y-26.2794
G01 X1.6504 Y-25.5319
G01 X1.6384 Y-25.3360
G01 X1.6384 Y-26.0914
G01 X1.6551 Y-26.2853
G01 X1.7380 Y-27.0324
G01 X1.8391 Y-27.7774
G01 X1.9585 Y-28.5196
G01 X2.0961 Y-29.2586
G01 X2.2518 Y-29.9941
G01 X2.4255 Y-30.7255
G01 X2.5384 Y-31.1537
G01 X2.5384 Y-31.3891
G01 X2.3673 Y-30.7401
G01 X2.1933 Y-30.0072
G01 X2.0373 Y-29.2703
G01 X1.8994 Y-28.5298
G01 X1.7798 Y-27.7862
G01 X1.6784 Y-27.0398
G01 X1.6384 Y-26.6791
G01 X1.6384 Y-27.1910
G01 X1.7204 Y-27.7950
G01 X1.8403 Y-28.5401
G01 X1.9785 Y-29.2820
G01 X2.1348 Y-30.0204
G01 X2.3091 Y-30.7546
G01 X2.5015 Y-31.4844
G01 X2.5384 Y-31.6117
G01 X2.5384 Y-31.8271
G01 X2.4437 Y-31.5004
G01 X2.2509 Y-30.7692
G01 X2.0762 Y-30.0335
G01 X1.9196 Y-29.2937
G01 X1.7812 Y-28.5503
G01 X1.6611 Y-27.8038
G01 X1.6384 Y-27.6368
G01 X1.6384 Y-28.0405
G01 X1.7221 Y-28.5606
G01 X1.8608 Y-29.3054
G01 X2.0177 Y-30.0467
G01 X2.1927 Y-30.7838
G01 X2.3858 Y-31.5164
G01 X2.5384 Y-32.0425
G01 X2.5384 Y-32.2579
G01 X2.3280 Y-31.5324
G01 X2.1345 Y-30.7984
G01 X1.9591 Y-30.0598
G01 X1.8019 Y-29.3171
G01 X1.6630 Y-28.5709
G01 X1.6384 Y-28.4182
G01 X1.6384 Y-28.7667
G01 X1.7431 Y-29.3288
G01 X1.9006 Y-30.0729
G01 X2.0763 Y-30.8130
G01 X2.2702 Y-31.5484
G01 X2.4820 Y-32.2789
G01 X2.5384 Y-32.4569
G01 X2.5384 Y-32.6556
G01 X2.4246 Y-32.2963
G01 X2.2124 Y-31.5644
G01 X2.0181 Y-30.8275
G01 X1.8420 Y-30.0861
G01 X1.6842 Y-29.3406
G01 X1.6384 Y-29.0945
G01 X1.6384 Y-29.4138
G01 X1.7835 Y-30.0992
G01 X1.9599 Y-30.8421
G01 X2.1545 Y-31.5804
G01 X2.3672 Y-32.3138
G01 X2.5384 Y-32.8542
G01 X2.5384 Y-33.0529
G01 X2.3098 Y-32.3312
G01 X2.0967 Y-31.5964
G01 X1.9017 Y-30.8567
G01 X1.7250 Y-30.1124
G01 X1.6384 Y-29.7035
G01 X1.6384 Y-29.9932
G01 X1.6664 Y-30.1255
G01 X1.8435 Y-30.8713
G01 X2.0389 Y-31.6124
G01 X2.2524 Y-32.3486
G01 X2.4838 Y-33.0793
G01 X2.5384 Y-33.2379
G01 X2.5384 Y-33.4223
G01 X2.4269 Y-33.0981
G01 X2.1949 Y-32.3660
