(G-CODE GENERATED BY FLATCAM v8.994 - www.flatcam.org - Version Date: 2020/11/7)

(Name: hexpansion-Edge_Cuts.gm1_cutout_cnc)
(Type: G-code from Geometry)
(Units: MM)

(Created on Wednesday, 22 May 2024 at 14:13)

(This preprocessor is the default preprocessor used by FlatCAM.)
(It is made to work with MACH3 compatible motion controllers.)

(TOOL DIAMETER: 0.7431 mm)
(Feedrate_XY: 100.0 mm/min)
(Feedrate_Z: 60.0 mm/min)
(Feedrate rapids 1500.0 mm/min)

(Z_Cut: -1.2 mm)
(DepthPerCut: 0.1 mm <=>12 passes)
(Z_Move: 2.0 mm)
(Z Start: None mm)
(Z End: 4.0 mm)
(X,Y End: None mm)
(Steps per circle: 64)
(Preprocessor Geometry: default)

(X range:   -0.2466 ...   34.4966  mm)
(Y range:  -37.8159 ...   -0.1841  mm)

(Spindle Speed: 0.0 RPM)
G21
G90
G94

G01 F100.00

M5
G00 Z4.0000
G00 X0.0000 Y0.0000
T1
M6    
(MSG, Change to Tool Dia = 0.7431)
M0
G00 Z4.0000

M03
G01 F100.00
G00 X-0.2466 Y-17.0284
G01 F60.00
G01 Z-0.1000
G01 F100.00
G01 X-0.2466 Y-14.6000
G01 X-0.2460 Y-14.5756
G01 X-0.2450 Y-14.5560
G01 X-0.2431 Y-14.5305
G01 X-0.2402 Y-14.5075
G01 X-0.2373 Y-14.4881
G01 X-0.2369 Y-14.4882
G01 X-0.2334 Y-14.4653
G01 X-0.2278 Y-14.4403
G01 X-0.2231 Y-14.4213
G01 X-0.2227 Y-14.4214
G01 X-0.2162 Y-14.3966
G01 X-0.2089 Y-14.3747
G01 X-0.2023 Y-14.3562
G01 X-0.2020 Y-14.3563
G01 X-0.1940 Y-14.3346
G01 X-0.1837 Y-14.3112
G01 X-0.1753 Y-14.2934
G01 X-0.1750 Y-14.2935
G01 X-0.1637 Y-14.2706
G01 X-0.1523 Y-14.2504
G01 X-0.1422 Y-14.2336
G01 X-0.1298 Y-14.2140
G01 X-0.1151 Y-14.1931
G01 X-0.1034 Y-14.1773
G01 X-0.0892 Y-14.1591
G01 X-0.0725 Y-14.1397
G01 X-0.0593 Y-14.1251
G01 X-0.0417 Y-14.1066
G01 X-0.0249 Y-14.0907
G01 X-0.0103 Y-14.0775
G01 X0.0091 Y-14.0608
G01 X0.0273 Y-14.0466
G01 X0.0431 Y-14.0349
G01 X0.0640 Y-14.0202
G01 X0.0836 Y-14.0078
G01 X0.1004 Y-13.9977
G01 X0.1227 Y-13.9851
G01 X0.1434 Y-13.9747
G01 X0.1612 Y-13.9663
G01 X0.1846 Y-13.9560
G01 X0.2062 Y-13.9477
G01 X0.2247 Y-13.9411
G01 X0.2466 Y-13.9338
G01 X0.2713 Y-13.9269
G01 X0.2903 Y-13.9222
G01 X0.3129 Y-13.9171
G01 X0.3381 Y-13.9127
G01 X0.3575 Y-13.9098
G01 X0.3805 Y-13.9069
G01 X0.4060 Y-13.9050
G01 X0.4372 Y-13.9036
G01 X0.4500 Y-13.9034
G01 X6.4878 Y-13.9034
G01 X6.5199 Y-13.9019
G01 X6.5396 Y-13.8989
G01 X6.5589 Y-13.8941
G01 X6.5776 Y-13.8874
G01 X6.5956 Y-13.8789
G01 X6.6127 Y-13.8687
G01 X6.6287 Y-13.8568
G01 X6.6434 Y-13.8434
G01 X6.6568 Y-13.8287
G01 X6.6687 Y-13.8127
G01 X6.6789 Y-13.7956
G01 X6.6874 Y-13.7776
G01 X6.6941 Y-13.7589
G01 X6.6989 Y-13.7396
G01 X6.7019 Y-13.7199
G01 X6.7028 Y-13.7000
G01 X6.7019 Y-13.6801
G01 X6.6989 Y-13.6604
G01 X6.6941 Y-13.6411
G01 X6.6874 Y-13.6224
G01 X6.6789 Y-13.6044
G01 X6.6687 Y-13.5873
G01 X6.6568 Y-13.5713
G01 X6.6434 Y-13.5566
G01 X6.6287 Y-13.5432
G01 X6.6127 Y-13.5313
G01 X6.5956 Y-13.5211
G01 X6.5776 Y-13.5126
G01 X6.5589 Y-13.5059
G01 X6.5396 Y-13.5011
G01 X6.5199 Y-13.4981
G01 X6.4878 Y-13.4966
G01 X2.4087 Y-13.4966
G01 X2.3990 Y-13.4998
G01 X2.3541 Y-13.5110
G01 X2.3036 Y-13.5188
G01 X2.2525 Y-13.5215
G01 X2.2244 Y-13.5209
G01 X2.1999 Y-13.5197
G01 X2.1719 Y-13.5176
G01 X2.1490 Y-13.5147
G01 X2.1247 Y-13.5111
G01 X2.1248 Y-13.5107
G01 X2.0971 Y-13.5062
G01 X2.0745 Y-13.5011
G01 X2.0507 Y-13.4952
G01 X2.0508 Y-13.4948
G01 X2.0237 Y-13.4876
G01 X2.0017 Y-13.4803
G01 X1.9786 Y-13.4721
G01 X1.9787 Y-13.4717
G01 X1.9525 Y-13.4618
G01 X1.9313 Y-13.4525
G01 X1.9091 Y-13.4420
G01 X1.9093 Y-13.4417
G01 X1.8841 Y-13.4293
G01 X1.8640 Y-13.4179
G01 X1.8430 Y-13.4052
G01 X1.8234 Y-13.3929
G01 X1.8004 Y-13.3768
G01 X1.7807 Y-13.3622
G01 X1.7625 Y-13.3479
G01 X1.7411 Y-13.3297
G01 X1.7230 Y-13.3132
G01 X1.7062 Y-13.2973
G01 X1.6868 Y-13.2770
G01 X1.6703 Y-13.2589
G01 X1.6552 Y-13.2413
G01 X1.6378 Y-13.2193
G01 X1.6232 Y-13.1996
G01 X1.6099 Y-13.1807
G01 X1.5948 Y-13.1570
G01 X1.5821 Y-13.1360
G01 X1.5707 Y-13.1159
G01 X1.5580 Y-13.0909
G01 X1.5475 Y-13.0687
G01 X1.5382 Y-13.0475
G01 X1.5279 Y-13.0214
G01 X1.5197 Y-12.9983
G01 X1.5124 Y-12.9763
G01 X1.5048 Y-12.9493
G01 X1.4989 Y-12.9255
G01 X1.4938 Y-12.9029
G01 X1.4889 Y-12.8753
G01 X1.4853 Y-12.8510
G01 X1.4824 Y-12.8281
G01 X1.4803 Y-12.8001
G01 X1.4791 Y-12.7756
G01 X1.4785 Y-12.7475
G01 X1.4812 Y-12.6964
G01 X1.4890 Y-12.6459
G01 X1.5002 Y-12.6010
G01 X1.5028 Y-12.5932
G01 X1.5034 Y-10.3396
G01 X1.5040 Y-10.3161
G01 X1.5085 Y-10.2210
G01 X1.5101 Y-10.1987
G01 X1.5130 Y-10.1740
G01 X1.5266 Y-10.0798
G01 X1.5270 Y-10.0799
G01 X1.5303 Y-10.0577
G01 X1.5355 Y-10.0334
G01 X1.5580 Y-9.9409
G01 X1.5583 Y-9.9410
G01 X1.5638 Y-9.9193
G01 X1.5713 Y-9.8956
G01 X1.6024 Y-9.8057
G01 X1.6027 Y-9.8058
G01 X1.6102 Y-9.7846
G01 X1.6200 Y-9.7618
G01 X1.6595 Y-9.6752
G01 X1.6598 Y-9.6754
G01 X1.6693 Y-9.6551
G01 X1.6812 Y-9.6332
G01 X1.7287 Y-9.5508
G01 X1.7404 Y-9.5317
G01 X1.7543 Y-9.5111
G01 X1.8095 Y-9.4336
G01 X1.8229 Y-9.4156
G01 X1.8387 Y-9.3964
G01 X1.9010 Y-9.3245
G01 X1.9161 Y-9.3079
G01 X1.9336 Y-9.2903
G01 X2.0025 Y-9.2246
G01 X2.0027 Y-9.2249
G01 X2.0191 Y-9.2095
G01 X2.0382 Y-9.1937
G01 X2.1130 Y-9.1349
G01 X2.1310 Y-9.1214
G01 X2.1515 Y-9.1075
G01 X2.2320 Y-9.0558
G01 X2.2517 Y-9.0437
G01 X17.2517 Y-0.3834
G01 X17.2725 Y-0.3721
G01 X17.3570 Y-0.3285
G01 X17.3794 Y-0.3177
G01 X17.4000 Y-0.3089
G01 X17.4884 Y-0.2735
G01 X17.5094 Y-0.2657
G01 X17.5330 Y-0.2580
G01 X17.6243 Y-0.2312
G01 X17.6460 Y-0.2254
G01 X17.6703 Y-0.2201
G01 X17.7637 Y-0.2021
G01 X17.7858 Y-0.1984
G01 X17.8105 Y-0.1954
G01 X17.9052 Y-0.1863
G01 X17.9300 Y-0.1846
G01 X17.9524 Y-0.1841
G01 X18.0476 Y-0.1841
G01 X18.0700 Y-0.1846
G01 X18.0948 Y-0.1863
G01 X18.1895 Y-0.1954
G01 X18.2142 Y-0.1984
G01 X18.2363 Y-0.2021
G01 X18.3297 Y-0.2201
G01 X18.3540 Y-0.2254
G01 X18.3757 Y-0.2312
G01 X18.4670 Y-0.2580
G01 X18.4883 Y-0.2649
G01 X18.5116 Y-0.2735
G01 X18.6000 Y-0.3089
G01 X18.6206 Y-0.3177
G01 X18.6429 Y-0.3285
G01 X18.7275 Y-0.3721
G01 X18.7483 Y-0.3834
G01 X33.7483 Y-9.0437
G01 X33.7685 Y-9.0560
G01 X33.8485 Y-9.1074
G01 X33.8690 Y-9.1214
G01 X33.8870 Y-9.1349
G01 X33.9618 Y-9.1937
G01 X33.9809 Y-9.2095
G01 X33.9975 Y-9.2246
G01 X34.0664 Y-9.2903
G01 X34.0823 Y-9.3062
G01 X34.0990 Y-9.3245
G01 X34.1613 Y-9.3964
G01 X34.1756 Y-9.4137
G01 X34.1905 Y-9.4336
G01 X34.2457 Y-9.5111
G01 X34.2583 Y-9.5297
G01 X34.2713 Y-9.5508
G01 X34.3189 Y-9.6333
G01 X34.3296 Y-9.6530
G01 X34.3405 Y-9.6753
G01 X34.3800 Y-9.7618
G01 X34.3898 Y-9.7847
G01 X34.3976 Y-9.8057
G01 X34.4287 Y-9.8956
G01 X34.4362 Y-9.9193
G01 X34.4420 Y-9.9410
G01 X34.4645 Y-10.0335
G01 X34.4697 Y-10.0577
G01 X34.4734 Y-10.0799
G01 X34.4869 Y-10.1740
G01 X34.4896 Y-10.1963
G01 X34.4914 Y-10.2211
G01 X34.4960 Y-10.3166
G01 X34.4966 Y-10.3398
G01 X34.4966 Y-17.0284
G00 X34.4966 Y-17.0284
G01 F60.00
G01 Z-0.2000
G01 F100.00
G01 X34.4966 Y-10.3398
G01 X34.4960 Y-10.3166
G01 X34.4914 Y-10.2211
G01 X34.4896 Y-10.1963
G01 X34.4869 Y-10.1740
G01 X34.4734 Y-10.0799
G01 X34.4697 Y-10.0577
G01 X34.4645 Y-10.0335
G01 X34.4420 Y-9.9410
G01 X34.4362 Y-9.9193
G01 X34.4287 Y-9.8956
G01 X34.3976 Y-9.8057
G01 X34.3898 Y-9.7847
G01 X34.3800 Y-9.7618
G01 X34.3405 Y-9.6753
G01 X34.3296 Y-9.6530
G01 X34.3189 Y-9.6333
G01 X34.2713 Y-9.5508
G01 X34.2583 Y-9.5297
G01 X34.2457 Y-9.5111
G01 X34.1905 Y-9.4336
G01 X34.1756 Y-9.4137
G01 X34.1613 Y-9.3964
G01 X34.0990 Y-9.3245
G01 X34.0823 Y-9.3062
G01 X34.0664 Y-9.2903
G01 X33.9975 Y-9.2246
G01 X33.9809 Y-9.2095
G01 X33.9618 Y-9.1937
G01 X33.8870 Y-9.1349
G01 X33.8690 Y-9.1214
G01 X33.8485 Y-9.1074
G01 X33.7685 Y-9.0560
G01 X33.7483 Y-9.0437
G01 X18.7483 Y-0.3834
G01 X18.7275 Y-0.3721
G01 X18.6429 Y-0.3285
G01 X18.6206 Y-0.3177
G01 X18.6000 Y-0.3089
G01 X18.5116 Y-0.2735
G01 X18.4906 Y-0.2657
G01 X18.4670 Y-0.2580
G01 X18.3757 Y-0.2312
G01 X18.3540 Y-0.2254
G01 X18.3297 Y-0.2201
G01 X18.2363 Y-0.2021
G01 X18.2142 Y-0.1984
G01 X18.1895 Y-0.1954
G01 X18.0948 Y-0.1863
G01 X18.0700 Y-0.1846
G01 X18.0476 Y-0.1841
G01 X17.9524 Y-0.1841
G01 X17.9300 Y-0.1846
G01 X17.9052 Y-0.1863
G01 X17.8105 Y-0.1954
G01 X17.7858 Y-0.1984
G01 X17.7637 Y-0.2021
G01 X17.6703 Y-0.2201
G01 X17.6460 Y-0.2254
G01 X17.6243 Y-0.2312
G01 X17.5330 Y-0.2580
G01 X17.5117 Y-0.2649
G01 X17.4884 Y-0.2735
G01 X17.4000 Y-0.3089
G01 X17.3794 Y-0.3177
G01 X17.3570 Y-0.3285
G01 X17.2725 Y-0.3721
G01 X17.2517 Y-0.3834
G01 X2.2517 Y-9.0437
G01 X2.2320 Y-9.0558
G01 X2.1515 Y-9.1075
G01 X2.1310 Y-9.1214
G01 X2.1130 Y-9.1349
G01 X2.0382 Y-9.1937
G01 X2.0191 Y-9.2095
G01 X2.0027 Y-9.2249
G01 X2.0025 Y-9.2246
G01 X1.9336 Y-9.2903
G01 X1.9161 Y-9.3079
G01 X1.9010 Y-9.3245
G01 X1.8387 Y-9.3964
G01 X1.8229 Y-9.4156
G01 X1.8095 Y-9.4336
G01 X1.7543 Y-9.5111
G01 X1.7404 Y-9.5317
G01 X1.7287 Y-9.5508
G01 X1.6812 Y-9.6332
G01 X1.6693 Y-9.6551
G01 X1.6598 Y-9.6754
G01 X1.6595 Y-9.6752
G01 X1.6200 Y-9.7618
G01 X1.6102 Y-9.7846
G01 X1.6027 Y-9.8058
G01 X1.6024 Y-9.8057
G01 X1.5713 Y-9.8956
G01 X1.5638 Y-9.9193
G01 X1.5583 Y-9.9410
G01 X1.5580 Y-9.9409
G01 X1.5355 Y-10.0334
G01 X1.5303 Y-10.0577
G01 X1.5270 Y-10.0799
G01 X1.5266 Y-10.0798
G01 X1.5130 Y-10.1740
G01 X1.5101 Y-10.1987
G01 X1.5085 Y-10.2210
G01 X1.5040 Y-10.3161
G01 X1.5034 Y-10.3396
G01 X1.5028 Y-12.5932
G01 X1.5002 Y-12.6010
G01 X1.4890 Y-12.6459
G01 X1.4812 Y-12.6964
G01 X1.4785 Y-12.7475
G01 X1.4791 Y-12.7756
G01 X1.4803 Y-12.8001
G01 X1.4824 Y-12.8281
G01 X1.4853 Y-12.8510
G01 X1.4889 Y-12.8753
G01 X1.4938 Y-12.9029
G01 X1.4989 Y-12.9255
G01 X1.5048 Y-12.9493
G01 X1.5124 Y-12.9763
G01 X1.5197 Y-12.9983
G01 X1.5279 Y-13.0214
G01 X1.5382 Y-13.0475
G01 X1.5475 Y-13.0687
G01 X1.5580 Y-13.0909
G01 X1.5707 Y-13.1159
G01 X1.5821 Y-13.1360
G01 X1.5948 Y-13.1570
G01 X1.6099 Y-13.1807
G01 X1.6232 Y-13.1996
G01 X1.6378 Y-13.2193
G01 X1.6552 Y-13.2413
G01 X1.6703 Y-13.2589
G01 X1.6868 Y-13.2770
G01 X1.7062 Y-13.2973
G01 X1.7230 Y-13.3132
G01 X1.7411 Y-13.3297
G01 X1.7625 Y-13.3479
G01 X1.7807 Y-13.3622
G01 X1.8004 Y-13.3768
G01 X1.8234 Y-13.3929
G01 X1.8430 Y-13.4052
G01 X1.8640 Y-13.4179
G01 X1.8841 Y-13.4293
G01 X1.9093 Y-13.4417
G01 X1.9091 Y-13.4420
G01 X1.9313 Y-13.4525
G01 X1.9525 Y-13.4618
G01 X1.9787 Y-13.4717
G01 X1.9786 Y-13.4721
G01 X2.0017 Y-13.4803
G01 X2.0237 Y-13.4876
G01 X2.0508 Y-13.4948
G01 X2.0507 Y-13.4952
G01 X2.0745 Y-13.5011
G01 X2.0971 Y-13.5062
G01 X2.1248 Y-13.5107
G01 X2.1247 Y-13.5111
G01 X2.1490 Y-13.5147
G01 X2.1719 Y-13.5176
G01 X2.1999 Y-13.5197
G01 X2.2244 Y-13.5209
G01 X2.2525 Y-13.5215
G01 X2.3036 Y-13.5188
G01 X2.3541 Y-13.5110
G01 X2.3990 Y-13.4998
G01 X2.4087 Y-13.4966
G01 X6.4878 Y-13.4966
G01 X6.5199 Y-13.4981
G01 X6.5396 Y-13.5011
G01 X6.5589 Y-13.5059
G01 X6.5776 Y-13.5126
G01 X6.5956 Y-13.5211
G01 X6.6127 Y-13.5313
G01 X6.6287 Y-13.5432
G01 X6.6434 Y-13.5566
G01 X6.6568 Y-13.5713
G01 X6.6687 Y-13.5873
G01 X6.6789 Y-13.6044
G01 X6.6874 Y-13.6224
G01 X6.6941 Y-13.6411
G01 X6.6989 Y-13.6604
G01 X6.7019 Y-13.6801
G01 X6.7028 Y-13.7000
G01 X6.7019 Y-13.7199
G01 X6.6989 Y-13.7396
G01 X6.6941 Y-13.7589
G01 X6.6874 Y-13.7776
G01 X6.6789 Y-13.7956
G01 X6.6687 Y-13.8127
G01 X6.6568 Y-13.8287
G01 X6.6434 Y-13.8434
G01 X6.6287 Y-13.8568
G01 X6.6127 Y-13.8687
G01 X6.5956 Y-13.8789
G01 X6.5776 Y-13.8874
G01 X6.5589 Y-13.8941
G01 X6.5396 Y-13.8989
G01 X6.5199 Y-13.9019
G01 X6.4878 Y-13.9034
G01 X0.4500 Y-13.9034
G01 X0.4372 Y-13.9036
G01 X0.4060 Y-13.9050
G01 X0.3805 Y-13.9069
G01 X0.3575 Y-13.9098
G01 X0.3381 Y-13.9127
G01 X0.3129 Y-13.9171
G01 X0.2903 Y-13.9222
G01 X0.2713 Y-13.9269
G01 X0.2466 Y-13.9338
G01 X0.2247 Y-13.9411
G01 X0.2062 Y-13.9477
G01 X0.1846 Y-13.9560
G01 X0.1612 Y-13.9663
G01 X0.1434 Y-13.9747
G01 X0.1227 Y-13.9851
G01 X0.1004 Y-13.9977
G01 X0.0836 Y-14.0078
G01 X0.0640 Y-14.0202
G01 X0.0431 Y-14.0349
G01 X0.0273 Y-14.0466
G01 X0.0091 Y-14.0608
G01 X-0.0103 Y-14.0775
G01 X-0.0249 Y-14.0907
G01 X-0.0417 Y-14.1066
G01 X-0.0593 Y-14.1251
G01 X-0.0725 Y-14.1397
G01 X-0.0892 Y-14.1591
G01 X-0.1034 Y-14.1773
G01 X-0.1151 Y-14.1931
G01 X-0.1298 Y-14.2140
G01 X-0.1422 Y-14.2336
G01 X-0.1523 Y-14.2504
G01 X-0.1637 Y-14.2706
G01 X-0.1750 Y-14.2935
G01 X-0.1753 Y-14.2934
G01 X-0.1837 Y-14.3112
G01 X-0.1940 Y-14.3346
G01 X-0.2020 Y-14.3563
G01 X-0.2023 Y-14.3562
G01 X-0.2089 Y-14.3747
G01 X-0.2162 Y-14.3966
G01 X-0.2227 Y-14.4214
G01 X-0.2231 Y-14.4213
G01 X-0.2278 Y-14.4403
G01 X-0.2334 Y-14.4653
G01 X-0.2369 Y-14.4882
G01 X-0.2373 Y-14.4881
G01 X-0.2402 Y-14.5075
G01 X-0.2431 Y-14.5305
G01 X-0.2450 Y-14.5560
G01 X-0.2460 Y-14.5756
G01 X-0.2466 Y-14.6000
G01 X-0.2466 Y-17.0284
G00 X-0.2466 Y-17.0284
G01 F60.00
G01 Z-0.3000
G01 F100.00
G01 X-0.2466 Y-14.6000
G01 X-0.2460 Y-14.5756
G01 X-0.2450 Y-14.5560
G01 X-0.2431 Y-14.5305
G01 X-0.2402 Y-14.5075
G01 X-0.2373 Y-14.4881
G01 X-0.2369 Y-14.4882
G01 X-0.2334 Y-14.4653
G01 X-0.2278 Y-14.4403
G01 X-0.2231 Y-14.4213
G01 X-0.2227 Y-14.4214
G01 X-0.2162 Y-14.3966
G01 X-0.2089 Y-14.3747
G01 X-0.2023 Y-14.3562
G01 X-0.2020 Y-14.3563
G01 X-0.1940 Y-14.3346
G01 X-0.1837 Y-14.3112
G01 X-0.1753 Y-14.2934
G01 X-0.1750 Y-14.2935
G01 X-0.1637 Y-14.2706
G01 X-0.1523 Y-14.2504
G01 X-0.1422 Y-14.2336
G01 X-0.1298 Y-14.2140
G01 X-0.1151 Y-14.1931
G01 X-0.1034 Y-14.1773
G01 X-0.0892 Y-14.1591
G01 X-0.0725 Y-14.1397
G01 X-0.0593 Y-14.1251
G01 X-0.0417 Y-14.1066
G01 X-0.0249 Y-14.0907
G01 X-0.0103 Y-14.0775
G01 X0.0091 Y-14.0608
G01 X0.0273 Y-14.0466
G01 X0.0431 Y-14.0349
G01 X0.0640 Y-14.0202
G01 X0.0836 Y-14.0078
G01 X0.1004 Y-13.9977
G01 X0.1227 Y-13.9851
G01 X0.1434 Y-13.9747
G01 X0.1612 Y-13.9663
G01 X0.1846 Y-13.9560
G01 X0.2062 Y-13.9477
G01 X0.2247 Y-13.9411
G01 X0.2466 Y-13.9338
G01 X0.2713 Y-13.9269
G01 X0.2903 Y-13.9222
G01 X0.3129 Y-13.9171
G01 X0.3381 Y-13.9127
G01 X0.3575 Y-13.9098
G01 X0.3805 Y-13.9069
G01 X0.4060 Y-13.9050
G01 X0.4372 Y-13.9036
G01 X0.4500 Y-13.9034
G01 X6.4878 Y-13.9034
G01 X6.5199 Y-13.9019
G01 X6.5396 Y-13.8989
G01 X6.5589 Y-13.8941
G01 X6.5776 Y-13.8874
G01 X6.5956 Y-13.8789
G01 X6.6127 Y-13.8687
G01 X6.6287 Y-13.8568
G01 X6.6434 Y-13.8434
G01 X6.6568 Y-13.8287
G01 X6.6687 Y-13.8127
G01 X6.6789 Y-13.7956
G01 X6.6874 Y-13.7776
G01 X6.6941 Y-13.7589
G01 X6.6989 Y-13.7396
G01 X6.7019 Y-13.7199
G01 X6.7028 Y-13.7000
G01 X6.7019 Y-13.6801
G01 X6.6989 Y-13.6604
G01 X6.6941 Y-13.6411
G01 X6.6874 Y-13.6224
G01 X6.6789 Y-13.6044
G01 X6.6687 Y-13.5873
G01 X6.6568 Y-13.5713
G01 X6.6434 Y-13.5566
G01 X6.6287 Y-13.5432
G01 X6.6127 Y-13.5313
G01 X6.5956 Y-13.5211
G01 X6.5776 Y-13.5126
G01 X6.5589 Y-13.5059
G01 X6.5396 Y-13.5011
G01 X6.5199 Y-13.4981
G01 X6.4878 Y-13.4966
G01 X2.4087 Y-13.4966
G01 X2.3990 Y-13.4998
G01 X2.3541 Y-13.5110
G01 X2.3036 Y-13.5188
G01 X2.2525 Y-13.5215
G01 X2.2244 Y-13.5209
G01 X2.1999 Y-13.5197
G01 X2.1719 Y-13.5176
G01 X2.1490 Y-13.5147
G01 X2.1247 Y-13.5111
G01 X2.1248 Y-13.5107
G01 X2.0971 Y-13.5062
G01 X2.0745 Y-13.5011
G01 X2.0507 Y-13.4952
G01 X2.0508 Y-13.4948
G01 X2.0237 Y-13.4876
G01 X2.0017 Y-13.4803
G01 X1.9786 Y-13.4721
G01 X1.9787 Y-13.4717
G01 X1.9525 Y-13.4618
G01 X1.9313 Y-13.4525
G01 X1.9091 Y-13.4420
G01 X1.9093 Y-13.4417
G01 X1.8841 Y-13.4293
G01 X1.8640 Y-13.4179
G01 X1.8430 Y-13.4052
G01 X1.8234 Y-13.3929
G01 X1.8004 Y-13.3768
G01 X1.7807 Y-13.3622
G01 X1.7625 Y-13.3479
G01 X1.7411 Y-13.3297
G01 X1.7230 Y-13.3132
G01 X1.7062 Y-13.2973
G01 X1.6868 Y-13.2770
G01 X1.6703 Y-13.2589
G01 X1.6552 Y-13.2413
G01 X1.6378 Y-13.2193
G01 X1.6232 Y-13.1996
G01 X1.6099 Y-13.1807
G01 X1.5948 Y-13.1570
G01 X1.5821 Y-13.1360
G01 X1.5707 Y-13.1159
G01 X1.5580 Y-13.0909
G01 X1.5475 Y-13.0687
G01 X1.5382 Y-13.0475
G01 X1.5279 Y-13.0214
G01 X1.5197 Y-12.9983
G01 X1.5124 Y-12.9763
G01 X1.5048 Y-12.9493
