(G-CODE GENERATED BY FLATCAM v8.994 - www.flatcam.org - Version Date: 2020/11/7)

(Name: hexpansion-B_Cu.gbl_iso_combined_cnc)
(Type: G-code from Geometry)
(Units: MM)

(Created on Tuesday, 21 May 2024 at 22:32)

(This preprocessor is the default preprocessor used by FlatCAM.)
(It is made to work with MACH3 compatible motion controllers.)

(TOOL DIAMETER: 0.1268 mm)
(Feedrate_XY: 100.0 mm/min)
(Feedrate_Z: 60.0 mm/min)
(Feedrate rapids 1500.0 mm/min)

(Z_Cut: -0.05 mm)
(Z_Move: 2.0 mm)
(Z Start: None mm)
(Z End: 4.0 mm)
(X,Y End: None mm)
(Steps per circle: 64)
(Preprocessor Geometry: default)

(X range:    0.4584 ...   33.3416  mm)
(Y range:  -33.9916 ...   -4.0084  mm)

(Spindle Speed: 0.0 RPM)
G21
G90
G94

G01 F100.00

M5
G00 Z4.0000
G00 X0.0000 Y0.0000
T1
M6    
(MSG, Change to Tool Dia = 0.1268)
M0
G00 Z4.0000

M03
G01 F100.00
G00 X8.6953 Y-10.7778
G01 F60.00
G01 Z-0.0500
G01 F100.00
G01 X8.6934 Y-10.7877
G01 X8.6864 Y-10.8157
G01 X8.6814 Y-10.8324
G01 X8.6700 Y-10.8636
G01 X8.6520 Y-10.9015
G01 X8.6305 Y-10.9375
G01 X8.6108 Y-10.9643
G01 X8.5998 Y-10.9778
G01 X8.5803 Y-10.9992
G01 X8.5710 Y-11.0083
G01 X8.5462 Y-11.0305
G01 X8.5125 Y-11.0555
G01 X8.4765 Y-11.0770
G01 X8.4466 Y-11.0914
G01 X8.4305 Y-11.0981
G01 X8.4033 Y-11.1078
G01 X8.3949 Y-11.1103
G01 X8.3584 Y-11.1193
G01 X8.3212 Y-11.1250
G01 X8.3082 Y-11.1261
G01 X8.2750 Y-11.1275
G01 X6.2706 Y-11.1275
G01 X6.2374 Y-11.1258
G01 X6.2244 Y-11.1244
G01 X6.1916 Y-11.1193
G01 X6.1593 Y-11.1114
G01 X6.1467 Y-11.1078
G01 X6.1114 Y-11.0950
G01 X6.0735 Y-11.0770
G01 X6.0411 Y-11.0578
G01 X6.0304 Y-11.0505
G01 X6.0038 Y-11.0305
G01 X5.9790 Y-11.0083
G01 X5.9697 Y-10.9992
G01 X5.9445 Y-10.9712
G01 X5.9195 Y-10.9375
G01 X5.9001 Y-10.9053
G01 X5.8940 Y-10.8937
G01 X5.8800 Y-10.8636
G01 X5.8686 Y-10.8324
G01 X5.8647 Y-10.8199
G01 X5.8557 Y-10.7834
G01 X5.8495 Y-10.7419
G01 X5.8475 Y-10.7000
G01 X5.8475 Y-9.4956
G01 X5.8492 Y-9.4624
G01 X5.8506 Y-9.4494
G01 X5.8557 Y-9.4166
G01 X5.8636 Y-9.3843
G01 X5.8672 Y-9.3717
G01 X5.8800 Y-9.3364
G01 X5.8980 Y-9.2985
G01 X5.9172 Y-9.2661
G01 X5.9245 Y-9.2554
G01 X5.9445 Y-9.2288
G01 X5.9667 Y-9.2040
G01 X5.9758 Y-9.1947
G01 X6.0038 Y-9.1695
G01 X6.0375 Y-9.1445
G01 X6.0697 Y-9.1251
G01 X6.0813 Y-9.1190
G01 X6.1114 Y-9.1050
G01 X6.1426 Y-9.0936
G01 X6.1551 Y-9.0897
G01 X6.1916 Y-9.0807
G01 X6.2331 Y-9.0745
G01 X6.2750 Y-9.0725
G01 X8.2750 Y-9.0725
G01 X8.3082 Y-9.0739
G01 X8.3256 Y-9.0756
G01 X8.3541 Y-9.0799
G01 X8.3669 Y-9.0826
G01 X8.3991 Y-9.0909
G01 X8.4386 Y-9.1050
G01 X8.4765 Y-9.1230
G01 X8.5052 Y-9.1399
G01 X8.5196 Y-9.1495
G01 X8.5428 Y-9.1668
G01 X8.5528 Y-9.1752
G01 X8.5773 Y-9.1977
G01 X8.6055 Y-9.2288
G01 X8.6305 Y-9.2625
G01 X8.6499 Y-9.2947
G01 X8.6560 Y-9.3063
G01 X8.6683 Y-9.3324
G01 X8.6716 Y-9.3404
G01 X8.6814 Y-9.3676
G01 X8.6864 Y-9.3843
G01 X8.6934 Y-9.4123
G01 X8.6953 Y-9.4222
G01 X9.4000 Y-9.4222
G01 X9.4621 Y-9.4251
G01 X9.4751 Y-9.4266
G01 X9.5322 Y-9.4353
G01 X9.5967 Y-9.4514
G01 X9.6594 Y-9.4738
G01 X9.7156 Y-9.5003
G01 X9.7271 Y-9.5066
G01 X9.7692 Y-9.5318
G01 X9.7837 Y-9.5415
G01 X9.8300 Y-9.5761
G01 X9.8793 Y-9.6207
G01 X12.7823 Y-12.5239
G01 X12.8239 Y-12.5700
G01 X12.8635 Y-12.6235
G01 X12.8977 Y-12.6805
G01 X12.9226 Y-12.7327
G01 X12.9278 Y-12.7447
G01 X12.9459 Y-12.7950
G01 X12.9509 Y-12.8117
G01 X12.9647 Y-12.8678
G01 X12.9745 Y-12.9336
G01 X12.9778 Y-13.0000
G01 X12.9778 Y-30.3697
G01 X12.9751 Y-30.4274
G01 X12.9740 Y-30.4405
G01 X12.9647 Y-30.5019
G01 X12.9509 Y-30.5581
G01 X12.9459 Y-30.5747
G01 X12.9262 Y-30.6291
G01 X12.8977 Y-30.6892
G01 X12.8682 Y-30.7389
G01 X12.8585 Y-30.7534
G01 X12.8293 Y-30.7928
G01 X12.8211 Y-30.8030
G01 X12.7793 Y-30.8490
G01 X11.7627 Y-31.8655
G01 X11.7702 Y-31.9159
G01 X11.7716 Y-31.9289
G01 X11.7769 Y-32.0356
G01 X11.7767 Y-32.0487
G01 X11.7716 Y-32.1511
G01 X11.7702 Y-32.1641
G01 X11.7543 Y-32.2697
G01 X11.7274 Y-32.3776
G01 X11.7235 Y-32.3901
G01 X11.6873 Y-32.4906
G01 X11.6379 Y-32.5951
G01 X11.5785 Y-32.6942
G01 X11.5096 Y-32.7870
G01 X11.4320 Y-32.8726
G01 X11.3464 Y-32.9502
G01 X11.2536 Y-33.0191
G01 X11.1545 Y-33.0785
G01 X11.0500 Y-33.1279
G01 X10.9412 Y-33.1668
G01 X10.8291 Y-33.1949
G01 X10.7148 Y-33.2118
G01 X10.5994 Y-33.2175
G01 X10.4840 Y-33.2118
G01 X10.3697 Y-33.1949
G01 X10.2660 Y-33.1691
G01 X10.2493 Y-33.1641
G01 X10.1488 Y-33.1279
G01 X10.0521 Y-33.0824
G01 X10.0367 Y-33.0742
G01 X9.9526 Y-33.0237
G01 X9.9381 Y-33.0141
G01 X9.8524 Y-32.9502
G01 X9.7731 Y-32.8786
G01 X9.7608 Y-32.8663
G01 X9.6892 Y-32.7870
G01 X9.6203 Y-32.6942
G01 X9.5609 Y-32.5951
G01 X9.5115 Y-32.4906
G01 X9.4726 Y-32.3818
G01 X9.4445 Y-32.2697
G01 X9.4276 Y-32.1554
G01 X9.4221 Y-32.0487
G01 X9.4221 Y-32.0313
G01 X9.4269 Y-31.9333
G01 X9.4286 Y-31.9159
G01 X9.4445 Y-31.8103
G01 X9.4703 Y-31.7066
G01 X9.4753 Y-31.6899
G01 X9.5115 Y-31.5894
G01 X9.5570 Y-31.4927
G01 X9.5652 Y-31.4773
G01 X9.6203 Y-31.3858
G01 X9.6892 Y-31.2930
G01 X9.7668 Y-31.2074
G01 X9.8491 Y-31.1326
G01 X9.8593 Y-31.1244
G01 X9.9452 Y-31.0609
G01 X10.0443 Y-31.0015
G01 X10.1488 Y-30.9521
G01 X10.2493 Y-30.9159
G01 X10.2660 Y-30.9109
G01 X10.3697 Y-30.8851
G01 X10.4753 Y-30.8692
G01 X10.4927 Y-30.8675
G01 X10.5907 Y-30.8627
G01 X10.6081 Y-30.8627
G01 X10.7148 Y-30.8682
G01 X10.8266 Y-30.8846
G01 X11.6222 Y-30.0890
G01 X11.6222 Y-13.2807
G01 X9.1193 Y-10.7778
G01 X8.6953 Y-10.7778
G00 Z2.0000
G00 X5.9417 Y-13.0276
G01 F60.00
G01 Z-0.0500
G01 F100.00
G01 X5.6000 Y-13.0276
G01 X5.5668 Y-13.0262
G01 X5.5538 Y-13.0251
G01 X5.5209 Y-13.0202
G01 X5.5081 Y-13.0175
G01 X5.4759 Y-13.0092
G01 X5.4404 Y-12.9967
G01 X5.4284 Y-12.9916
G01 X5.3984 Y-12.9771
G01 X5.3661 Y-12.9579
G01 X5.3553 Y-12.9506
G01 X5.3287 Y-12.9306
G01 X5.2976 Y-12.9024
G01 X4.7976 Y-12.4024
G01 X4.7694 Y-12.3713
G01 X4.7444 Y-12.3376
G01 X4.7271 Y-12.3092
G01 X4.7208 Y-12.2977
G01 X4.7084 Y-12.2716
G01 X4.7018 Y-12.2555
G01 X4.6908 Y-12.2241
G01 X4.6806 Y-12.1834
G01 X4.6744 Y-12.1419
G01 X4.6724 Y-12.1044
G01 X4.6724 Y-9.3000
G01 X4.6740 Y-9.2624
G01 X4.6755 Y-9.2494
G01 X4.6806 Y-9.2166
G01 X4.6896 Y-9.1800
G01 X4.6935 Y-9.1676
G01 X4.7049 Y-9.1363
G01 X4.7208 Y-9.1023
G01 X4.7271 Y-9.0908
G01 X4.7444 Y-9.0624
G01 X4.7641 Y-9.0356
G01 X4.7722 Y-9.0254
G01 X4.7946 Y-9.0007
G01 X5.8039 Y-7.9916
G01 X5.8287 Y-7.9694
G01 X5.8624 Y-7.9444
G01 X5.8984 Y-7.9229
G01 X5.9363 Y-7.9049
G01 X5.9759 Y-7.8908
G01 X6.0166 Y-7.8806
G01 X6.0581 Y-7.8744
G01 X6.0956 Y-7.8724
G01 X11.5000 Y-7.8724
G01 X11.5419 Y-7.8744
G01 X11.5834 Y-7.8806
G01 X11.6157 Y-7.8884
G01 X11.6283 Y-7.8921
G01 X11.6555 Y-7.9018
G01 X11.6716 Y-7.9084
G01 X11.7016 Y-7.9229
G01 X11.7376 Y-7.9444
G01 X11.7713 Y-7.9694
G01 X11.7993 Y-7.9946
G01 X16.3566 Y-12.5518
G01 X16.4016 Y-12.5249
G01 X16.4131 Y-12.5186
G01 X16.5501 Y-12.4537
G01 X16.5621 Y-12.4486
G01 X16.7130 Y-12.3947
G01 X16.8685 Y-12.3556
G01 X16.8813 Y-12.3532
G01 X17.0269 Y-12.3316
G01 X17.0443 Y-12.3299
G01 X17.2000 Y-12.3225
G01 X17.3601 Y-12.3302
G01 X17.3731 Y-12.3316
G01 X17.5187 Y-12.3532
G01 X17.5358 Y-12.3566
G01 X17.6870 Y-12.3947
G01 X17.8420 Y-12.4502
G01 X17.9908 Y-12.5206
G01 X18.1246 Y-12.6005
G01 X18.1391 Y-12.6102
G01 X18.2573 Y-12.6979
G01 X18.2675 Y-12.7061
G01 X18.3799 Y-12.8078
G01 X18.3922 Y-12.8201
G01 X18.4967 Y-12.9358
G01 X18.5898 Y-13.0609
G01 X18.5995 Y-13.0754
G01 X18.6794 Y-13.2092
G01 X18.7498 Y-13.3580
G01 X18.8053 Y-13.5130
G01 X18.8434 Y-13.6642
G01 X18.8468 Y-13.6813
G01 X18.8694 Y-13.8356
G01 X18.8773 Y-13.9913
G01 X18.8773 Y-14.0087
G01 X18.8694 Y-14.1644
G01 X18.8468 Y-14.3187
G01 X18.8434 Y-14.3358
G01 X18.8053 Y-14.4870
G01 X18.7530 Y-14.6338
G01 X18.7463 Y-14.6499
G01 X18.6794 Y-14.7908
G01 X18.5995 Y-14.9246
G01 X18.5898 Y-14.9391
G01 X18.4967 Y-15.0642
G01 X18.3922 Y-15.1799
G01 X18.3799 Y-15.1922
G01 X18.2642 Y-15.2967
G01 X18.1391 Y-15.3898
G01 X18.1246 Y-15.3995
G01 X17.9908 Y-15.4794
G01 X17.8499 Y-15.5463
G01 X17.8338 Y-15.5530
G01 X17.6870 Y-15.6053
G01 X17.5358 Y-15.6434
G01 X17.5187 Y-15.6468
G01 X17.3644 Y-15.6694
G01 X17.2087 Y-15.6773
G01 X17.1913 Y-15.6773
G01 X17.0356 Y-15.6694
G01 X16.8813 Y-15.6468
G01 X16.8642 Y-15.6434
G01 X16.7130 Y-15.6053
G01 X16.5662 Y-15.5530
G01 X16.5501 Y-15.5463
G01 X16.4092 Y-15.4794
G01 X16.2754 Y-15.3995
G01 X16.2644 Y-15.3923
G01 X16.1358 Y-15.2967
G01 X16.0138 Y-15.1862
G01 X15.9033 Y-15.0642
G01 X15.8052 Y-14.9320
G01 X15.7206 Y-14.7908
G01 X15.6502 Y-14.6420
G01 X15.5947 Y-14.4870
G01 X15.5556 Y-14.3315
G01 X15.5532 Y-14.3187
G01 X15.5306 Y-14.1644
G01 X15.5225 Y-14.0000
G01 X15.5306 Y-13.8356
G01 X15.5539 Y-13.6770
G01 X15.5566 Y-13.6642
G01 X15.5947 Y-13.5130
G01 X15.6486 Y-13.3621
G01 X15.6537 Y-13.3501
G01 X15.7186 Y-13.2131
G01 X15.7249 Y-13.2016
G01 X15.7518 Y-13.1566
G01 X11.3229 Y-8.7276
G01 X6.2771 Y-8.7276
G01 X5.5276 Y-9.4771
G01 X5.5276 Y-11.9229
G01 X5.7771 Y-12.1724
G01 X5.9417 Y-12.1724
G01 X5.9688 Y-12.1156
G01 X6.0183 Y-12.0328
G01 X6.0257 Y-12.0220
G01 X6.0780 Y-11.9515
G01 X6.0864 Y-11.9416
G01 X6.1484 Y-11.8734
G01 X6.2198 Y-11.8085
G01 X6.2300 Y-11.8004
G01 X6.3041 Y-11.7456
G01 X6.3906 Y-11.6938
G01 X6.4818 Y-11.6507
G01 X6.5767 Y-11.6167
G01 X6.6660 Y-11.5941
G01 X6.6831 Y-11.5907
G01 X6.7743 Y-11.5774
G01 X6.8706 Y-11.5725
G01 X7.6794 Y-11.5725
G01 X7.7757 Y-11.5774
G01 X7.8669 Y-11.5907
G01 X7.8840 Y-11.5941
G01 X7.9733 Y-11.6167
G01 X8.0682 Y-11.6507
G01 X8.1594 Y-11.6938
G01 X8.2459 Y-11.7456
G01 X8.3269 Y-11.8057
G01 X8.4016 Y-11.8734
G01 X8.4693 Y-11.9481
G01 X8.5243 Y-12.0220
G01 X8.5340 Y-12.0365
G01 X8.5812 Y-12.1156
G01 X8.6208 Y-12.1988
G01 X8.6274 Y-12.2149
G01 X8.6555 Y-12.2935
G01 X8.6606 Y-12.3101
G01 X8.6828 Y-12.3995
G01 X8.6976 Y-12.4993
G01 X8.7025 Y-12.6000
G01 X8.6979 Y-12.6964
G01 X8.6965 Y-12.7094
G01 X8.6828 Y-12.8005
G01 X8.6606 Y-12.8899
G01 X8.6555 Y-12.9065
G01 X8.6274 Y-12.9851
G01 X8.6208 Y-13.0012
G01 X8.5812 Y-13.0844
G01 X8.5294 Y-13.1709
G01 X8.4693 Y-13.2519
G01 X8.4016 Y-13.3266
G01 X8.3269 Y-13.3943
G01 X8.2530 Y-13.4493
G01 X8.2385 Y-13.4590
G01 X8.1670 Y-13.5019
G01 X8.1516 Y-13.5101
G01 X8.0682 Y-13.5493
G01 X7.9733 Y-13.5833
G01 X7.8755 Y-13.6078
G01 X7.7800 Y-13.6221
G01 X7.7670 Y-13.6232
G01 X7.6750 Y-13.6275
G01 X6.8706 Y-13.6275
G01 X6.7743 Y-13.6226
G01 X6.6831 Y-13.6093
G01 X6.6660 Y-13.6059
G01 X6.5851 Y-13.5856
G01 X6.5726 Y-13.5820
G01 X6.4818 Y-13.5493
G01 X6.3906 Y-13.5062
G01 X6.3041 Y-13.4544
G01 X6.2300 Y-13.3996
G01 X6.2198 Y-13.3915
G01 X6.1484 Y-13.3266
G01 X6.0864 Y-13.2584
G01 X6.0780 Y-13.2485
G01 X6.0257 Y-13.1780
G01 X6.0183 Y-13.1672
G01 X5.9688 Y-13.0844
G01 X5.9417 Y-13.0276
G00 Z2.0000
G00 X6.1784 Y-14.5100
G01 F60.00
G01 Z-0.0500
G01 F100.00
G01 X6.2291 Y-14.4541
G01 X6.2955 Y-14.3939
G01 X6.3675 Y-14.3405
G01 X6.4417 Y-14.2960
G01 X6.4472 Y-14.2931
G01 X6.5226 Y-14.2574
G01 X6.5284 Y-14.2550
G01 X6.6099 Y-14.2259
G01 X6.6953 Y-14.2045
G01 X6.7855 Y-14.1910
G01 X6.8734 Y-14.1866
G01 X7.6766 Y-14.1866
G01 X7.7645 Y-14.1910
G01 X7.8501 Y-14.2036
G01 X7.8562 Y-14.2048
G01 X7.9401 Y-14.2259
G01 X8.0216 Y-14.2550
G01 X8.0274 Y-14.2574
G01 X8.1042 Y-14.2937
G01 X8.1825 Y-14.3405
G01 X8.2545 Y-14.3939
G01 X8.3220 Y-14.4552
G01 X8.3801 Y-14.5194
G01 X8.3929 Y-14.5363
G01 X9.0000 Y-14.5363
G01 X9.0521 Y-14.5388
G01 X9.0583 Y-14.5394
G01 X9.1069 Y-14.5466
G01 X9.1130 Y-14.5479
G01 X9.1636 Y-14.5606
G01 X9.2143 Y-14.5787
G01 X9.2657 Y-14.6029
G01 X9.3131 Y-14.6313
G01 X9.3576 Y-14.6643
G01 X9.3974 Y-14.7004
G01 X10.6996 Y-16.0026
G01 X10.7357 Y-16.0424
G01 X10.7669 Y-16.0843
G01 X10.7703 Y-16.0895
G01 X10.7971 Y-16.1343
G01 X10.8207 Y-16.1843
G01 X10.8384 Y-16.2334
G01 X10.8402 Y-16.2394
G01 X10.8531 Y-16.2916
G01 X10.8609 Y-16.3448
G01 X10.8637 Y-16.4000
G01 X10.8637 Y-22.2750
G01 X10.8609 Y-22.3302
G01 X10.8534 Y-22.3819
G01 X10.8521 Y-22.3880
G01 X10.8402 Y-22.4356
G01 X10.8384 Y-22.4416
G01 X10.8219 Y-22.4878
G01 X10.8195 Y-22.4935
G01 X10.7971 Y-22.5407
G01 X10.7703 Y-22.5855
G01 X10.7669 Y-22.5907
G01 X10.7357 Y-22.6326
G01 X10.6996 Y-22.6724
G01 X9.1236 Y-24.2486
G01 X9.0814 Y-24.2867
G01 X9.0407 Y-24.3169
G01 X9.0355 Y-24.3203
G01 X8.9907 Y-24.3471
G01 X8.9435 Y-24.3695
G01 X8.9378 Y-24.3719
G01 X8.8886 Y-24.3894
G01 X8.8334 Y-24.4031
G01 X8.7802 Y-24.4109
G01 X8.7266 Y-24.4136
G01 X8.3929 Y-24.4137
G01 X8.3801 Y-24.4306
G01 X8.3230 Y-24.4936
G01 X8.3186 Y-24.4980
G01 X8.2545 Y-24.5561
G01 X8.1850 Y-24.6077
G01 X8.1798 Y-24.6111
G01 X8.1056 Y-24.6555
G01 X8.0245 Y-24.6939
G01 X7.9401 Y-24.7241
G01 X7.8517 Y-24.7461
G01 X7.7645 Y-24.7590
G01 X7.6750 Y-24.7634
G01 X6.8750 Y-24.7634
G01 X6.7870 Y-24.7591
G01 X6.6968 Y-24.7458
G01 X6.6099 Y-24.7241
G01 X6.5255 Y-24.6939
G01 X6.4431 Y-24.6548
G01 X6.3675 Y-24.6095
G01 X6.2980 Y-24.5580
G01 X6.2932 Y-24.5540
G01 X6.2314 Y-24.4980
G01 X6.2270 Y-24.4936
G01 X6.1689 Y-24.4295
G01 X6.1155 Y-24.3575
G01 X6.0695 Y-24.2806
G01 X6.0324 Y-24.2024
G01 X6.0300 Y-24.1966
G01 X6.0019 Y-24.1181
G01 X6.0001 Y-24.1121
G01 X5.9792 Y-24.0282
G01 X5.9660 Y-23.9395
G01 X5.9616 Y-23.8500
G01 X5.9658 Y-23.7636
G01 X5.9664 Y-23.7574
G01 X5.9795 Y-23.6703
G01 X6.0009 Y-23.5849
G01 X6.0300 Y-23.5034
G01 X6.0324 Y-23.4976
G01 X6.0695 Y-23.4194
G01 X6.1155 Y-23.3425
G01 X6.1670 Y-23.2730
G01 X6.1710 Y-23.2682
G01 X6.2291 Y-23.2041
G01 X6.2932 Y-23.1460
G01 X6.2980 Y-23.1420
G01 X6.3675 Y-23.0905
G01 X6.4444 Y-23.0445
G01 X6.5255 Y-23.0061
G01 X6.6069 Y-22.9769
G01 X6.6129 Y-22.9751
G01 X6.6938 Y-22.9548
G01 X6.6999 Y-22.9536
G01 X6.7855 Y-22.9410
G01 X6.8734 Y-22.9366
G01 X7.6750 Y-22.9366
G01 X7.7645 Y-22.9410
G01 X7.8517 Y-22.9539
G01 X7.9401 Y-22.9759
G01 X8.0245 Y-23.0061
G01 X8.1056 Y-23.0445
G01 X8.1798 Y-23.0889
G01 X8.1850 Y-23.0923
G01 X8.2545 Y-23.1439
G01 X8.3186 Y-23.2020
G01 X8.3230 Y-23.2064
G01 X8.3801 Y-23.2694
G01 X8.3929 Y-23.2863
G01 X8.4915 Y-23.2863
G01 X9.7363 Y-22.0415
G01 X9.7363 Y-16.6335
G01 X8.7665 Y-15.6637
G01 X8.3929 Y-15.6637
G01 X8.3801 Y-15.6806
G01 X8.3220 Y-15.7448
G01 X8.2556 Y-15.8051
G01 X8.1825 Y-15.8595
G01 X8.1056 Y-15.9055
G01 X8.0245 Y-15.9439
G01 X7.9401 Y-15.9741
G01 X7.8532 Y-15.9958
G01 X7.7630 Y-16.0091
G01 X7.6750 Y-16.0134
G01 X6.8750 Y-16.0134
G01 X6.7855 Y-16.0090
G01 X6.6968 Y-15.9958
G01 X6.6129 Y-15.9749
G01 X6.6069 Y-15.9731
G01 X6.5284 Y-15.9450
G01 X6.5226 Y-15.9426
G01 X6.4444 Y-15.9055
G01 X6.3702 Y-15.8611
G01 X6.3650 Y-15.8577
G01 X6.2955 Y-15.8061
G01 X6.2314 Y-15.7480
G01 X6.2270 Y-15.7436
G01 X6.1710 Y-15.6818
G01 X6.1670 Y-15.6770
G01 X6.1155 Y-15.6075
G01 X6.0710 Y-15.5333
G01 X6.0681 Y-15.5278
G01 X6.0311 Y-15.4495
G01 X6.0009 Y-15.3651
G01 X5.9792 Y-15.2782
G01 X5.9664 Y-15.1926
G01 X5.9657 Y-15.1840
G01 X3.7783 Y-12.9967
G01 X3.7597 Y-12.9763
G01 X3.7557 Y-12.9714
G01 X3.7393 Y-12.9492
G01 X3.7235 Y-12.9228
G01 X3.7103 Y-12.8950
G01 X3.7010 Y-12.8690
G01 X3.6932 Y-12.8392
G01 X3.6920 Y-12.8331
G01 X3.6880 Y-12.8057
G01 X3.6865 Y-12.7750
G01 X3.6865 Y-8.7000
G01 X3.6878 Y-8.6724
G01 X3.6884 Y-8.6662
G01 X3.6925 Y-8.6388
G01 X3.6991 Y-8.6120
G01 X3.7010 Y-8.6060
G01 X3.7103 Y-8.5800
G01 X3.7242 Y-8.5508
G01 X3.7393 Y-8.5258
G01 X3.7557 Y-8.5036
G01 X3.7597 Y-8.4987
G01 X3.7783 Y-8.4783
G01 X5.4794 Y-6.7772
G01 X5.5011 Y-6.7576
G01 X5.5233 Y-6.7411
G01 X5.5284 Y-6.7376
G01 X5.5522 Y-6.7235
G01 X5.5800 Y-6.7103
G01 X5.6060 Y-6.7010
G01 X5.6120 Y-6.6991
G01 X5.6404 Y-6.6922
G01 X5.6693 Y-6.6880
G01 X5.7000 Y-6.6865
G01 X13.9516 Y-6.6865
G01 X13.9807 Y-6.6880
G01 X14.0112 Y-6.6925
G01 X14.0410 Y-6.7000
G01 X14.0700 Y-6.7103
G01 X14.0978 Y-6.7235
