(G-CODE GENERATED BY FLATCAM v8.994 - www.flatcam.org - Version Date: 2020/11/7)

(Name: hexpansion-F_Cu.gtl_iso_combined_cnc)
(Type: G-code from Geometry)
(Units: MM)

(Created on Tuesday, 21 May 2024 at 22:32)

(This preprocessor is the default preprocessor used by FlatCAM.)
(It is made to work with MACH3 compatible motion controllers.)

(TOOL DIAMETER: 0.1268 mm)
(Feedrate_XY: 100.0 mm/min)
(Feedrate_Z: 60.0 mm/min)
(Feedrate rapids 1500.0 mm/min)

(Z_Cut: -0.05 mm)
(Z_Move: 2.0 mm)
(Z Start: None mm)
(Z End: 4.0 mm)
(X,Y End: None mm)
(Steps per circle: 64)
(Preprocessor Geometry: default)

(X range:    0.4584 ...   33.3418  mm)
(Y range:  -33.9916 ...   -4.0084  mm)

(Spindle Speed: 0.0 RPM)
G21
G90
G94

G01 F100.00

M5
G00 Z4.0000
G00 X0.0000 Y0.0000
T1
M6    
(MSG, Change to Tool Dia = 0.1268)
M0
G00 Z4.0000

M03
G01 F100.00
G00 X4.3134 Y-15.7500
G01 F60.00
G01 Z-0.0500
G01 F100.00
G01 X4.3124 Y-15.7709
G01 X4.3093 Y-15.7916
G01 X4.3042 Y-15.8119
G01 X4.2972 Y-15.8317
G01 X4.2882 Y-15.8506
G01 X4.2774 Y-15.8686
G01 X4.2650 Y-15.8854
G01 X4.2530 Y-15.8986
G01 X4.2366 Y-15.9140
G01 X4.2211 Y-15.9256
G01 X4.2033 Y-15.9367
G01 X4.1978 Y-15.9396
G01 X4.1817 Y-15.9472
G01 X4.1619 Y-15.9542
G01 X4.1416 Y-15.9593
G01 X4.1194 Y-15.9625
G01 X4.1000 Y-15.9634
G01 X0.9000 Y-15.9634
G01 X0.8791 Y-15.9624
G01 X0.8584 Y-15.9593
G01 X0.8411 Y-15.9550
G01 X0.8183 Y-15.9472
G01 X0.7967 Y-15.9367
G01 X0.7814 Y-15.9274
G01 X0.7671 Y-15.9169
G01 X0.7491 Y-15.9009
G01 X0.7331 Y-15.8829
G01 X0.7226 Y-15.8686
G01 X0.7125 Y-15.8520
G01 X0.7041 Y-15.8345
G01 X0.7017 Y-15.8288
G01 X0.6958 Y-15.8119
G01 X0.6907 Y-15.7916
G01 X0.6876 Y-15.7709
G01 X0.6866 Y-15.7516
G01 X0.6866 Y-15.4500
G01 X0.6876 Y-15.4291
G01 X0.6907 Y-15.4084
G01 X0.6958 Y-15.3881
G01 X0.7028 Y-15.3683
G01 X0.7104 Y-15.3522
G01 X0.7133 Y-15.3467
G01 X0.7244 Y-15.3289
G01 X0.7350 Y-15.3146
G01 X0.7491 Y-15.2991
G01 X0.7646 Y-15.2850
G01 X0.7814 Y-15.2726
G01 X0.7994 Y-15.2618
G01 X0.8155 Y-15.2541
G01 X0.8351 Y-15.2468
G01 X0.8411 Y-15.2450
G01 X0.8599 Y-15.2404
G01 X0.8822 Y-15.2374
G01 X0.9000 Y-15.2366
G01 X4.1000 Y-15.2366
G01 X4.1209 Y-15.2376
G01 X4.1416 Y-15.2407
G01 X4.1589 Y-15.2450
G01 X4.1817 Y-15.2528
G01 X4.2033 Y-15.2633
G01 X4.2186 Y-15.2726
G01 X4.2329 Y-15.2831
G01 X4.2509 Y-15.2991
G01 X4.2669 Y-15.3171
G01 X4.2774 Y-15.3314
G01 X4.2867 Y-15.3467
G01 X4.2896 Y-15.3522
G01 X4.2977 Y-15.3698
G01 X4.3042 Y-15.3881
G01 X4.3093 Y-15.4084
G01 X4.3124 Y-15.4291
G01 X4.3133 Y-15.4469
G01 X4.3134 Y-15.7500
G00 Z2.0000
G00 X4.2371 Y-16.0865
G01 F60.00
G01 Z-0.0500
G01 F100.00
G01 X6.8701 Y-16.0865
G01 X9.1783 Y-13.7783
G01 X9.1987 Y-13.7597
G01 X9.2036 Y-13.7557
G01 X9.2258 Y-13.7393
G01 X9.2495 Y-13.7250
G01 X9.2550 Y-13.7221
G01 X9.2800 Y-13.7103
G01 X9.3105 Y-13.6995
G01 X9.3388 Y-13.6925
G01 X9.3662 Y-13.6884
G01 X9.3724 Y-13.6878
G01 X9.4000 Y-13.6865
G01 X15.0687 Y-13.6865
G01 X15.1039 Y-13.5462
G01 X15.1556 Y-13.4017
G01 X15.2212 Y-13.2630
G01 X15.3001 Y-13.1314
G01 X15.3915 Y-13.0082
G01 X15.4945 Y-12.8945
G01 X15.6082 Y-12.7915
G01 X15.7314 Y-12.7001
G01 X15.8630 Y-12.6212
G01 X16.0017 Y-12.5556
G01 X16.1462 Y-12.5039
G01 X16.2950 Y-12.4666
G01 X16.4468 Y-12.4441
G01 X16.6000 Y-12.4366
G01 X16.7532 Y-12.4441
G01 X16.9035 Y-12.4664
G01 X17.0508 Y-12.5031
G01 X17.0568 Y-12.5049
G01 X17.1983 Y-12.5556
G01 X17.3370 Y-12.6212
G01 X17.4659 Y-12.6984
G01 X17.4711 Y-12.7019
G01 X17.5918 Y-12.7915
G01 X17.7055 Y-12.8945
G01 X17.8085 Y-13.0082
G01 X17.8981 Y-13.1289
G01 X17.9016 Y-13.1341
G01 X17.9788 Y-13.2630
G01 X18.0431 Y-13.3989
G01 X18.0455 Y-13.4046
G01 X18.0961 Y-13.5462
G01 X18.1313 Y-13.6865
G01 X21.9016 Y-13.6865
G01 X21.9307 Y-13.6880
G01 X21.9581 Y-13.6920
G01 X21.9642 Y-13.6932
G01 X21.9910 Y-13.7000
G01 X22.0171 Y-13.7092
G01 X22.0228 Y-13.7116
G01 X22.0478 Y-13.7235
G01 X22.0716 Y-13.7376
G01 X22.0767 Y-13.7411
G01 X22.0989 Y-13.7576
G01 X22.1217 Y-13.7783
G01 X26.8299 Y-18.4865
G01 X29.0000 Y-18.4865
G01 X29.0307 Y-18.4880
G01 X29.0612 Y-18.4925
G01 X29.0910 Y-18.5000
G01 X29.1200 Y-18.5103
G01 X29.1478 Y-18.5235
G01 X29.1742 Y-18.5393
G01 X29.1989 Y-18.5576
G01 X29.2217 Y-18.5783
G01 X30.6699 Y-20.0265
G01 X31.2866 Y-20.0265
G01 X31.2868 Y-19.4853
G01 X31.2885 Y-19.4746
G01 X31.2914 Y-19.4657
G01 X31.2956 Y-19.4574
G01 X31.3020 Y-19.4486
G01 X31.3098 Y-19.4410
G01 X31.3174 Y-19.4356
G01 X31.3257 Y-19.4314
G01 X31.3346 Y-19.4285
G01 X31.3422 Y-19.4271
G01 X31.3500 Y-19.4266
G01 X33.0500 Y-19.4266
G01 X33.0578 Y-19.4271
G01 X33.0654 Y-19.4285
G01 X33.0728 Y-19.4308
G01 X33.0799 Y-19.4341
G01 X33.0878 Y-19.4391
G01 X33.0937 Y-19.4441
G01 X33.0990 Y-19.4498
G01 X33.1044 Y-19.4574
G01 X33.1086 Y-19.4657
G01 X33.1111 Y-19.4731
G01 X33.1127 Y-19.4807
G01 X33.1134 Y-19.4884
G01 X33.1134 Y-21.1900
G01 X33.1125 Y-21.2008
G01 X33.1097 Y-21.2114
G01 X33.1052 Y-21.2212
G01 X33.0990 Y-21.2302
G01 X33.0914 Y-21.2380
G01 X33.0826 Y-21.2444
G01 X33.0728 Y-21.2492
G01 X33.0624 Y-21.2522
G01 X33.0516 Y-21.2534
G01 X31.3500 Y-21.2534
G01 X31.3422 Y-21.2529
G01 X31.3346 Y-21.2515
G01 X31.3286 Y-21.2497
G01 X31.3215 Y-21.2466
G01 X31.3135 Y-21.2418
G01 X31.3074 Y-21.2370
G01 X31.3010 Y-21.2302
G01 X31.2964 Y-21.2239
G01 X31.2927 Y-21.2171
G01 X31.2898 Y-21.2099
G01 X31.2875 Y-21.2008
G01 X31.2867 Y-21.1931
G01 X31.2866 Y-20.6535
G01 X30.5400 Y-20.6535
G01 X30.5124 Y-20.6522
G01 X30.5062 Y-20.6516
G01 X30.4788 Y-20.6475
G01 X30.4520 Y-20.6409
G01 X30.4460 Y-20.6390
G01 X30.4200 Y-20.6297
G01 X30.3950 Y-20.6179
G01 X30.3895 Y-20.6150
G01 X30.3671 Y-20.6015
G01 X30.3411 Y-20.5824
G01 X30.3183 Y-20.5617
G01 X28.8701 Y-19.1135
G01 X26.6984 Y-19.1135
G01 X26.6693 Y-19.1120
G01 X26.6419 Y-19.1080
G01 X26.6358 Y-19.1068
G01 X26.6090 Y-19.1000
G01 X26.5829 Y-19.0908
G01 X26.5772 Y-19.0884
G01 X26.5522 Y-19.0765
G01 X26.5284 Y-19.0624
G01 X26.5233 Y-19.0589
G01 X26.5011 Y-19.0424
G01 X26.4783 Y-19.0217
G01 X21.7701 Y-14.3135
G01 X18.1313 Y-14.3135
G01 X18.0961 Y-14.4538
G01 X18.0444 Y-14.5983
G01 X17.9788 Y-14.7370
G01 X17.9016 Y-14.8659
G01 X17.8981 Y-14.8711
G01 X17.8104 Y-14.9894
G01 X17.8065 Y-14.9942
G01 X17.7055 Y-15.1055
G01 X17.5918 Y-15.2085
G01 X17.4686 Y-15.2999
G01 X17.3370 Y-15.3788
G01 X17.1983 Y-15.4444
G01 X17.0568 Y-15.4951
G01 X17.0508 Y-15.4969
G01 X16.9080 Y-15.5327
G01 X16.9019 Y-15.5339
G01 X16.7532 Y-15.5559
G01 X16.6000 Y-15.5634
G01 X16.4468 Y-15.5559
G01 X16.2950 Y-15.5334
G01 X16.1462 Y-15.4961
G01 X16.0046 Y-15.4455
G01 X15.9989 Y-15.4431
G01 X15.8658 Y-15.3802
G01 X15.8603 Y-15.3773
G01 X15.7314 Y-15.2999
G01 X15.6082 Y-15.2085
G01 X15.4945 Y-15.1055
G01 X15.3935 Y-14.9942
G01 X15.3896 Y-14.9894
G01 X15.3019 Y-14.8711
G01 X15.2984 Y-14.8659
G01 X15.2212 Y-14.7370
G01 X15.1556 Y-14.5983
G01 X15.1039 Y-14.4538
G01 X15.0687 Y-14.3135
G01 X9.5299 Y-14.3135
G01 X7.2217 Y-16.6217
G01 X7.2013 Y-16.6403
G01 X7.1964 Y-16.6443
G01 X7.1742 Y-16.6607
G01 X7.1505 Y-16.6750
G01 X7.1450 Y-16.6779
G01 X7.1200 Y-16.6897
G01 X7.0895 Y-16.7005
G01 X7.0612 Y-16.7075
G01 X7.0338 Y-16.7116
G01 X7.0276 Y-16.7122
G01 X7.0000 Y-16.7135
G01 X4.2371 Y-16.7135
G01 X4.2186 Y-16.7274
G01 X4.2033 Y-16.7367
G01 X4.1978 Y-16.7396
G01 X4.1788 Y-16.7483
G01 X4.1619 Y-16.7542
G01 X4.1416 Y-16.7593
G01 X4.1209 Y-16.7624
G01 X4.1000 Y-16.7634
G01 X1.6984 Y-16.7634
G01 X1.6791 Y-16.7624
G01 X1.6584 Y-16.7593
G01 X1.6381 Y-16.7542
G01 X1.6212 Y-16.7483
G01 X1.6155 Y-16.7459
G01 X1.5967 Y-16.7367
G01 X1.5814 Y-16.7274
G01 X1.5646 Y-16.7150
G01 X1.5491 Y-16.7009
G01 X1.5350 Y-16.6854
G01 X1.5226 Y-16.6686
G01 X1.5133 Y-16.6533
G01 X1.5104 Y-16.6478
G01 X1.5017 Y-16.6288
G01 X1.4958 Y-16.6119
G01 X1.4904 Y-16.5901
G01 X1.4876 Y-16.5709
G01 X1.4866 Y-16.5500
G01 X1.4866 Y-16.2484
G01 X1.4876 Y-16.2291
G01 X1.4902 Y-16.2114
G01 X1.4958 Y-16.1881
G01 X1.5028 Y-16.1683
G01 X1.5104 Y-16.1522
G01 X1.5226 Y-16.1314
G01 X1.5371 Y-16.1123
G01 X1.5491 Y-16.0991
G01 X1.5623 Y-16.0871
G01 X1.5814 Y-16.0726
G01 X1.6022 Y-16.0604
G01 X1.6183 Y-16.0528
G01 X1.6351 Y-16.0468
G01 X1.6411 Y-16.0450
G01 X1.6599 Y-16.0404
G01 X1.6791 Y-16.0376
G01 X1.7000 Y-16.0366
G01 X4.1016 Y-16.0366
G01 X4.1209 Y-16.0376
G01 X4.1416 Y-16.0407
G01 X4.1619 Y-16.0458
G01 X4.1788 Y-16.0517
G01 X4.1845 Y-16.0541
G01 X4.2033 Y-16.0633
G01 X4.2186 Y-16.0726
G01 X4.2371 Y-16.0865
G00 Z2.0000
G00 X4.3134 Y-17.3500
G01 F60.00
G01 Z-0.0500
G01 F100.00
G01 X4.3124 Y-17.3709
G01 X4.3093 Y-17.3916
G01 X4.3042 Y-17.4119
G01 X4.2972 Y-17.4317
G01 X4.2882 Y-17.4506
G01 X4.2774 Y-17.4686
G01 X4.2650 Y-17.4854
G01 X4.2530 Y-17.4986
G01 X4.2486 Y-17.5030
G01 X4.2329 Y-17.5169
G01 X4.2173 Y-17.5283
G01 X4.1978 Y-17.5396
G01 X4.1817 Y-17.5472
G01 X4.1619 Y-17.5542
G01 X4.1416 Y-17.5593
G01 X4.1194 Y-17.5625
G01 X4.1000 Y-17.5634
G01 X1.7000 Y-17.5634
G01 X1.6775 Y-17.5622
G01 X1.6584 Y-17.5593
G01 X1.6411 Y-17.5550
G01 X1.6183 Y-17.5472
G01 X1.5967 Y-17.5367
G01 X1.5814 Y-17.5274
G01 X1.5646 Y-17.5150
G01 X1.5470 Y-17.4986
G01 X1.5350 Y-17.4854
G01 X1.5226 Y-17.4686
G01 X1.5104 Y-17.4478
G01 X1.5028 Y-17.4317
G01 X1.4968 Y-17.4149
G01 X1.4950 Y-17.4089
G01 X1.4902 Y-17.3886
G01 X1.4876 Y-17.3709
G01 X1.4866 Y-17.3516
G01 X1.4866 Y-17.0500
G01 X1.4878 Y-17.0275
G01 X1.4907 Y-17.0084
G01 X1.4958 Y-16.9881
G01 X1.5028 Y-16.9683
G01 X1.5104 Y-16.9522
G01 X1.5209 Y-16.9341
G01 X1.5244 Y-16.9289
G01 X1.5350 Y-16.9146
G01 X1.5491 Y-16.8991
G01 X1.5646 Y-16.8850
G01 X1.5814 Y-16.8726
G01 X1.5994 Y-16.8618
G01 X1.6155 Y-16.8541
G01 X1.6351 Y-16.8468
G01 X1.6411 Y-16.8450
G01 X1.6584 Y-16.8407
G01 X1.6806 Y-16.8375
G01 X1.7000 Y-16.8366
G01 X4.1000 Y-16.8366
G01 X4.1225 Y-16.8378
G01 X4.1416 Y-16.8407
G01 X4.1589 Y-16.8450
G01 X4.1817 Y-16.8528
G01 X4.2033 Y-16.8633
G01 X4.2186 Y-16.8726
G01 X4.2329 Y-16.8831
G01 X4.2509 Y-16.8991
G01 X4.2669 Y-16.9171
G01 X4.2774 Y-16.9314
G01 X4.2867 Y-16.9467
G01 X4.2896 Y-16.9522
G01 X4.2977 Y-16.9698
G01 X4.3042 Y-16.9881
G01 X4.3093 Y-17.0084
G01 X4.3124 Y-17.0291
G01 X4.3133 Y-17.0469
G01 X4.3134 Y-17.3500
G00 Z2.0000
G00 X4.3134 Y-18.1500
G01 F60.00
G01 Z-0.0500
G01 F100.00
G01 X4.3124 Y-18.1709
G01 X4.3093 Y-18.1916
G01 X4.3042 Y-18.2119
G01 X4.2972 Y-18.2317
G01 X4.2882 Y-18.2506
G01 X4.2774 Y-18.2686
G01 X4.2650 Y-18.2854
G01 X4.2530 Y-18.2986
G01 X4.2366 Y-18.3140
G01 X4.2211 Y-18.3256
G01 X4.2033 Y-18.3367
G01 X4.1978 Y-18.3396
G01 X4.1817 Y-18.3472
G01 X4.1619 Y-18.3542
G01 X4.1416 Y-18.3593
G01 X4.1194 Y-18.3625
G01 X4.1000 Y-18.3634
G01 X0.9000 Y-18.3634
G01 X0.8791 Y-18.3624
G01 X0.8584 Y-18.3593
G01 X0.8411 Y-18.3550
G01 X0.8183 Y-18.3472
G01 X0.7967 Y-18.3367
G01 X0.7814 Y-18.3274
G01 X0.7671 Y-18.3169
G01 X0.7491 Y-18.3009
G01 X0.7331 Y-18.2829
G01 X0.7226 Y-18.2686
G01 X0.7125 Y-18.2520
G01 X0.7041 Y-18.2345
G01 X0.7017 Y-18.2288
G01 X0.6958 Y-18.2119
G01 X0.6907 Y-18.1916
G01 X0.6876 Y-18.1709
G01 X0.6866 Y-18.1516
G01 X0.6866 Y-17.8500
G01 X0.6876 Y-17.8291
G01 X0.6907 Y-17.8084
G01 X0.6958 Y-17.7881
G01 X0.7028 Y-17.7683
G01 X0.7104 Y-17.7522
G01 X0.7133 Y-17.7467
G01 X0.7244 Y-17.7289
G01 X0.7350 Y-17.7146
G01 X0.7491 Y-17.6991
G01 X0.7646 Y-17.6850
G01 X0.7814 Y-17.6726
G01 X0.7994 Y-17.6618
G01 X0.8155 Y-17.6541
G01 X0.8351 Y-17.6468
G01 X0.8411 Y-17.6450
G01 X0.8599 Y-17.6404
G01 X0.8822 Y-17.6374
G01 X0.9000 Y-17.6366
G01 X4.1000 Y-17.6366
G01 X4.1209 Y-17.6376
G01 X4.1416 Y-17.6407
G01 X4.1589 Y-17.6450
G01 X4.1817 Y-17.6528
G01 X4.2033 Y-17.6633
G01 X4.2186 Y-17.6726
G01 X4.2329 Y-17.6831
G01 X4.2509 Y-17.6991
G01 X4.2669 Y-17.7171
G01 X4.2774 Y-17.7314
G01 X4.2867 Y-17.7467
G01 X4.2896 Y-17.7522
G01 X4.2977 Y-17.7698
G01 X4.3042 Y-17.7881
G01 X4.3093 Y-17.8084
G01 X4.3124 Y-17.8291
G01 X4.3133 Y-17.8469
G01 X4.3134 Y-18.1500
G00 Z2.0000
G00 X4.5416 Y-18.1500
G01 F60.00
G01 Z-0.0500
G01 F100.00
G01 X4.5406 Y-18.1790
G01 X4.5387 Y-18.2004
G01 X4.5345 Y-18.2291
G01 X4.5317 Y-18.2432
G01 X4.5280 Y-18.2582
G01 X7.0756 Y-18.2582
G01 X9.4595 Y-15.8744
G01 X9.4830 Y-15.8531
G01 X9.4938 Y-15.8437
G01 X9.5248 Y-15.8203
G01 X9.5425 Y-15.8081
G01 X9.5697 Y-15.7918
G01 X9.5821 Y-15.7847
G01 X9.5949 Y-15.7783
G01 X9.6302 Y-15.7620
G01 X9.6666 Y-15.7486
G01 X9.6871 Y-15.7421
G01 X9.7178 Y-15.7343
G01 X9.7318 Y-15.7311
G01 X9.7459 Y-15.7287
G01 X9.7844 Y-15.7233
G01 X9.8232 Y-15.7211
G01 X9.8375 Y-15.7207
G01 X16.1034 Y-15.7207
G01 X16.0868 Y-15.7165
G01 X16.0663 Y-15.7100
G01 X15.9277 Y-15.6604
G01 X15.9144 Y-15.6553
G01 X15.9013 Y-15.6495
G01 X15.7682 Y-15.5865
G01 X15.7554 Y-15.5801
G01 X15.7430 Y-15.5730
G01 X15.6167 Y-15.4974
G01 X15.6046 Y-15.4897
G01 X15.5929 Y-15.4815
G01 X15.4747 Y-15.3938
G01 X15.4634 Y-15.3850
G01 X15.4526 Y-15.3756
G01 X15.3382 Y-15.2719
G01 X15.3232 Y-15.2565
G01 X15.2244 Y-15.1474
G01 X15.2150 Y-15.1366
G01 X15.2062 Y-15.1253
G01 X15.1185 Y-15.0071
G01 X15.1103 Y-14.9954
G01 X15.1026 Y-14.9833
G01 X15.0270 Y-14.8570
G01 X15.0199 Y-14.8446
G01 X15.0135 Y-14.8318
G01 X14.9505 Y-14.6987
G01 X14.9447 Y-14.6856
G01 X14.9396 Y-14.6723
G01 X14.8929 Y-14.5418
G01 X9.6244 Y-14.5418
G01 X7.3831 Y-16.7831
G01 X7.3545 Y-16.8094
G01 X7.3437 Y-16.8188
G01 X7.3324 Y-16.8276
G01 X7.3069 Y-16.8464
G01 X7.2950 Y-16.8544
G01 X7.2617 Y-16.8743
G01 X7.2490 Y-16.8811
G01 X7.2204 Y-16.8947
G01 X7.2007 Y-16.9032
G01 X7.1641 Y-16.9163
G01 X7.1504 Y-16.9204
G01 X7.1127 Y-16.9299
G01 X7.0987 Y-16.9327
G01 X7.0602 Y-16.9384
G01 X7.0460 Y-16.9398
G01 X7.0072 Y-16.9417
G01 X4.5280 Y-16.9418
G01 X4.5317 Y-16.9568
G01 X4.5345 Y-16.9709
G01 X4.5387 Y-16.9996
G01 X4.5401 Y-17.0138
G01 X4.5416 Y-17.0428
G01 X4.5416 Y-17.3500
G01 X4.5413 Y-17.3643
G01 X4.5395 Y-17.3933
G01 X4.5356 Y-17.4221
G01 X4.5317 Y-17.4432
G01 X4.5226 Y-17.4782
G01 X4.5132 Y-17.5057
G01 X4.5052 Y-17.5256
G01 X4.4895 Y-17.5582
G01 X4.4749 Y-17.5833
G01 X4.4640 Y-17.6000
G01 X4.4749 Y-17.6167
G01 X4.4895 Y-17.6418
G01 X4.5022 Y-17.6679
G01 X4.5107 Y-17.6876
G01 X4.5205 Y-17.7150
G01 X4.5264 Y-17.7356
G01 X4.5332 Y-17.7638
G01 X4.5378 Y-17.7925
G01 X4.5401 Y-17.8138
G01 X4.5416 Y-17.8500
G01 X4.5416 Y-18.1500
G00 Z2.0000
G00 X4.2371 Y-20.0865
G01 F60.00
G01 Z-0.0500
G01 F100.00
G01 X16.8000 Y-20.0865
G01 X16.8307 Y-20.0880
G01 X16.8612 Y-20.0925
G01 X16.8880 Y-20.0991
G01 X16.9171 Y-20.1092
G01 X16.9228 Y-20.1116
G01 X16.9478 Y-20.1235
G01 X16.9742 Y-20.1393
G01 X16.9989 Y-20.1576
G01 X17.0194 Y-20.1762
G01 X17.9449 Y-21.1015
G01 X19.3849 Y-21.1015
G01 X19.3898 Y-21.0821
G01 X19.3994 Y-21.0552
G01 X19.4136 Y-21.0251
G01 X19.4284 Y-21.0006
G01 X19.4444 Y-20.9788
G01 X19.4484 Y-20.9740
G01 X19.4677 Y-20.9530
G01 X19.4889 Y-20.9338
G01 X19.5106 Y-20.9177
G01 X19.5157 Y-20.9142
G01 X19.5390 Y-20.9004
G01 X19.5662 Y-20.8875
G01 X19.5916 Y-20.8783
G01 X19.5976 Y-20.8765
G01 X19.6254 Y-20.8697
G01 X19.6536 Y-20.8656
G01 X19.6838 Y-20.8641
G01 X20.5978 Y-20.8641
G01 X20.6264 Y-20.8656
G01 X20.6562 Y-20.8700
G01 X20.6854 Y-20.8773
G01 X20.7123 Y-20.8869
G01 X20.7410 Y-20.9004
G01 X20.7643 Y-20.9142
G01 X20.7694 Y-20.9177
G01 X20.7911 Y-20.9338
G01 X20.8112 Y-20.9519
G01 X20.8156 Y-20.9563
G01 X20.8337 Y-20.9764
G01 X20.8516 Y-21.0006
G01 X20.8656 Y-21.0238
G01 X20.8685 Y-21.0292
G01 X20.8800 Y-21.0537
G01 X20.8892 Y-21.0791
G01 X20.8972 Y-21.1098
G01 X20.9019 Y-21.1411
G01 X20.9034 Y-21.1713
G01 X20.9034 Y-21.6587
G01 X20.9019 Y-21.6889
G01 X20.8975 Y-21.7187
G01 X20.8902 Y-21.7479
G01 X20.8800 Y-21.7763
G01 X20.8671 Y-21.8035
G01 X20.8516 Y-21.8294
G01 X20.8337 Y-21.8536
G01 X20.8134 Y-21.8759
G01 X20.7935 Y-21.8941
