(G-CODE GENERATED BY FLATCAM v8.994 - www.flatcam.org - Version Date: 2020/11/7)

(Name: hexpansion-PTH.drl_edit_cnc)
(Type: G-code from Geometry)
(Units: MM)

(Created on Friday, 24 May 2024 at 12:05)

(This preprocessor is the default preprocessor used by FlatCAM.)
(It is made to work with MACH3 compatible motion controllers.)


(TOOLS DIAMETER: )
(Tool: 1 -> Dia: 0.6)
(Tool: 2 -> Dia: 2.2)

(FEEDRATE Z: )
(Tool: 1 -> Feedrate: 50.0)
(Tool: 2 -> Feedrate: 50.0)

(FEEDRATE RAPIDS: )
(Tool: 1 -> Feedrate Rapids: 1500)
(Tool: 2 -> Feedrate Rapids: 1500)

(Z_CUT: )
(Tool: 1 -> Z_Cut: -3.0)
(Tool: 2 -> Z_Cut: -3.0)

(Tools Offset: )
(Tool: 1 -> Offset Z: 0.0)
(Tool: 2 -> Offset Z: 0.0)

(Z_MOVE: )
(Tool: 1 -> Z_Move: 2)
(Tool: 2 -> Z_Move: 2)

(Z Toolchange: 10.0 mm)
(X,Y Toolchange: 0.0000, 0.0000 mm)
(Z Start: None mm)
(Z End: 0.5 mm)
(X,Y End: None mm)
(Steps per circle: 64)
(Preprocessor Excellon: default)

(X range:   14.4000 ...   33.3000  mm)
(Y range:  -34.0700 ...   -6.4000  mm)

(Spindle Speed: 0 RPM)
G21
G90
G94

G01 F50.00

M5
G00 Z10.0000
T1
G00 X0.0000 Y0.0000                
M6
(MSG, Change to Tool Dia = 0.6000 ||| Total drills for tool T1 = 14)
M0
G00 Z10.0000

G01 F50.00
M03
G00 X25.3000 Y-14.0000
G01 Z-3.0000
G01 Z0
G00 Z2.0000
G00 X24.0970 Y-7.2950
G01 Z-3.0000
G01 Z0
G00 Z2.0000
G00 X26.2630 Y-8.5450
G01 Z-3.0000
G01 Z0
G00 Z2.0000
G00 X28.4280 Y-9.7950
G01 Z-3.0000
G01 Z0
G00 Z2.0000
G00 X33.0000 Y-11.5600
G01 Z-3.0000
G01 Z0
G00 Z2.0000
G00 X33.0000 Y-14.1000
G01 Z-3.0000
G01 Z0
G00 Z2.0000
G00 X31.4750 Y-18.6500
G01 Z-3.0000
G01 Z0
G00 Z2.0000
G00 X31.4750 Y-21.1500
G01 Z-3.0000
G01 Z0
G00 Z2.0000
G00 X28.8000 Y-31.2300
G01 Z-3.0000
G01 Z0
G00 Z2.0000
G00 X26.6000 Y-32.5000
G01 Z-3.0000
G01 Z0
G00 Z2.0000
G00 X24.4000 Y-33.7700
G01 Z-3.0000
G01 Z0
G00 Z2.0000
G00 X22.3470 Y-25.6000
G01 Z-3.0000
G01 Z0
G00 Z2.0000
G00 X25.8470 Y-25.6000
G01 Z-3.0000
G01 Z0
G00 Z2.0000
G00 X25.4000 Y-18.2000
G01 Z-3.0000
G01 Z0
G00 Z2.0000
G01 F50.00

M5
G00 Z10.0000
T2
G00 X0.0000 Y0.0000                
M6
(MSG, Change to Tool Dia = 2.2000 ||| Total drills for tool T2 = 2)
M0
G00 Z10.0000

G01 F50.00
M03
G00 X15.5000 Y-7.5000
G01 Z-3.0000
G01 Z0
G00 Z2.0000
G00 X15.5000 Y-32.5000
G01 Z-3.0000
G01 Z0
G00 Z2.0000
M05
G00 Z0.50


