(G-CODE GENERATED BY FLATCAM v8.994 - www.flatcam.org - Version Date: 2020/11/7)

(Name: hexpansion-Edge_Cuts.gm1_cutout_cnc)
(Type: G-code from Geometry)
(Units: MM)

(Created on Friday, 24 May 2024 at 12:14)

(This preprocessor is the default preprocessor used by FlatCAM.)
(It is made to work with MACH3 compatible motion controllers.)

(TOOL DIAMETER: 1.0 mm)
(Feedrate_XY: 100.0 mm/min)
(Feedrate_Z: 60.0 mm/min)
(Feedrate rapids 1500.0 mm/min)

(Z_Cut: -2.0 mm)
(DepthPerCut: 0.4 mm <=>5 passes)
(Z_Move: 2.0 mm)
(Z Start: None mm)
(Z End: 4.0 mm)
(X,Y End: None mm)
(Steps per circle: 64)
(Preprocessor Geometry: default)

(X range:    0.6250 ...   35.6250  mm)
(Y range:  -38.9444 ...   -1.0556  mm)

(Spindle Speed: 0.0 RPM)
G21
G90
G94

G01 F100.00

M5
G00 Z4.0000
G00 X0.0000 Y0.0000
T1
M6    
(MSG, Change to Tool Dia = 1.0000)
M0
G00 Z4.0000

M03
G01 F100.00
G00 X0.6250 Y-18.4000
G01 F60.00
G01 Z-0.4000
G01 F100.00
G01 X0.6250 Y-15.6000
G01 X0.6257 Y-15.5693
G01 X0.6267 Y-15.5497
G01 X0.6291 Y-15.5179
G01 X0.6327 Y-15.4887
G01 X0.6356 Y-15.4693
G01 X0.6361 Y-15.4694
G01 X0.6406 Y-15.4403
G01 X0.6476 Y-15.4091
G01 X0.6523 Y-15.3901
G01 X0.6528 Y-15.3902
G01 X0.6609 Y-15.3593
G01 X0.6701 Y-15.3314
G01 X0.6767 Y-15.3129
G01 X0.6771 Y-15.3130
G01 X0.6883 Y-15.2832
G01 X0.7002 Y-15.2562
G01 X0.7086 Y-15.2385
G01 X0.7090 Y-15.2387
G01 X0.7219 Y-15.2122
G01 X0.7375 Y-15.1844
G01 X0.7476 Y-15.1676
G01 X0.7647 Y-15.1406
G01 X0.7817 Y-15.1166
G01 X0.7934 Y-15.1008
G01 X0.8115 Y-15.0776
G01 X0.8323 Y-15.0534
G01 X0.8455 Y-15.0388
G01 X0.8658 Y-15.0175
G01 X0.8888 Y-14.9955
G01 X0.9034 Y-14.9823
G01 X0.9276 Y-14.9615
G01 X0.9508 Y-14.9434
G01 X0.9666 Y-14.9317
G01 X0.9906 Y-14.9147
G01 X1.0176 Y-14.8976
G01 X1.0344 Y-14.8875
G01 X1.0622 Y-14.8719
G01 X1.0885 Y-14.8586
G01 X1.1062 Y-14.8502
G01 X1.1354 Y-14.8373
G01 X1.1629 Y-14.8267
G01 X1.1814 Y-14.8201
G01 X1.2117 Y-14.8102
G01 X1.2401 Y-14.8023
G01 X1.2591 Y-14.7976
G01 X1.2903 Y-14.7906
G01 X1.3193 Y-14.7856
G01 X1.3387 Y-14.7827
G01 X1.3704 Y-14.7789
G01 X1.3997 Y-14.7767
G01 X1.4353 Y-14.7752
G01 X7.4847 Y-14.7750
G01 X7.5073 Y-14.7739
G01 X7.5145 Y-14.7728
G01 X7.5215 Y-14.7710
G01 X7.5284 Y-14.7686
G01 X7.5350 Y-14.7655
G01 X7.5412 Y-14.7617
G01 X7.5471 Y-14.7574
G01 X7.5525 Y-14.7525
G01 X7.5574 Y-14.7471
G01 X7.5617 Y-14.7412
G01 X7.5655 Y-14.7350
G01 X7.5686 Y-14.7284
G01 X7.5710 Y-14.7215
G01 X7.5728 Y-14.7145
G01 X7.5739 Y-14.7073
G01 X7.5742 Y-14.7000
G01 X7.5739 Y-14.6927
G01 X7.5728 Y-14.6855
G01 X7.5710 Y-14.6785
G01 X7.5686 Y-14.6716
G01 X7.5655 Y-14.6650
G01 X7.5617 Y-14.6588
G01 X7.5574 Y-14.6529
G01 X7.5525 Y-14.6475
G01 X7.5471 Y-14.6426
G01 X7.5412 Y-14.6383
G01 X7.5350 Y-14.6345
G01 X7.5284 Y-14.6314
G01 X7.5215 Y-14.6290
G01 X7.5145 Y-14.6272
G01 X7.5073 Y-14.6261
G01 X7.4847 Y-14.6250
G01 X3.4271 Y-14.6250
G01 X3.3744 Y-14.6380
G01 X3.3162 Y-14.6466
G01 X3.2525 Y-14.6500
G01 X3.2181 Y-14.6492
G01 X3.1936 Y-14.6480
G01 X3.1593 Y-14.6454
G01 X3.1301 Y-14.6418
G01 X3.1058 Y-14.6382
G01 X3.1059 Y-14.6376
G01 X3.0720 Y-14.6322
G01 X3.0433 Y-14.6257
G01 X3.0195 Y-14.6198
G01 X3.0196 Y-14.6193
G01 X2.9911 Y-14.6119
G01 X2.9584 Y-14.6013
G01 X2.9353 Y-14.5930
G01 X2.9355 Y-14.5926
G01 X2.9079 Y-14.5824
G01 X2.8764 Y-14.5686
G01 X2.8542 Y-14.5581
G01 X2.8544 Y-14.5577
G01 X2.8236 Y-14.5425
G01 X2.7980 Y-14.5280
G01 X2.7769 Y-14.5154
G01 X2.7480 Y-14.4969
G01 X2.7239 Y-14.4800
G01 X2.7042 Y-14.4654
G01 X2.6772 Y-14.4441
G01 X2.6549 Y-14.4249
G01 X2.6367 Y-14.4084
G01 X2.6154 Y-14.3881
G01 X2.5916 Y-14.3633
G01 X2.5751 Y-14.3451
G01 X2.5559 Y-14.3228
G01 X2.5346 Y-14.2958
G01 X2.5200 Y-14.2761
G01 X2.5003 Y-14.2480
G01 X2.4846 Y-14.2231
G01 X2.4720 Y-14.2020
G01 X2.4575 Y-14.1764
G01 X2.4419 Y-14.1458
G01 X2.4314 Y-14.1236
G01 X2.4176 Y-14.0921
G01 X2.4070 Y-14.0647
G01 X2.3987 Y-14.0416
G01 X2.3881 Y-14.0089
G01 X2.3802 Y-13.9805
G01 X2.3743 Y-13.9567
G01 X2.3668 Y-13.9232
G01 X2.3618 Y-13.8942
G01 X2.3582 Y-13.8699
G01 X2.3541 Y-13.8358
G01 X2.3520 Y-13.8064
G01 X2.3508 Y-13.7819
G01 X2.3501 Y-13.7413
G01 X2.3750 Y-11.3335
G01 X2.3757 Y-11.3100
G01 X2.3802 Y-11.2149
G01 X2.3825 Y-11.1841
G01 X2.3859 Y-11.1557
G01 X2.3994 Y-11.0615
G01 X2.3999 Y-11.0616
G01 X2.4042 Y-11.0334
G01 X2.4107 Y-11.0031
G01 X2.4331 Y-10.9106
G01 X2.4335 Y-10.9107
G01 X2.4405 Y-10.8831
G01 X2.4499 Y-10.8536
G01 X2.4810 Y-10.7637
G01 X2.4814 Y-10.7638
G01 X2.4910 Y-10.7369
G01 X2.5031 Y-10.7084
G01 X2.5427 Y-10.6219
G01 X2.5430 Y-10.6220
G01 X2.5551 Y-10.5962
G01 X2.5699 Y-10.5690
G01 X2.6175 Y-10.4866
G01 X2.6324 Y-10.4622
G01 X2.6497 Y-10.4366
G01 X2.7049 Y-10.3591
G01 X2.7220 Y-10.3362
G01 X2.7416 Y-10.3123
G01 X2.8039 Y-10.2404
G01 X2.8232 Y-10.2193
G01 X2.8450 Y-10.1973
G01 X2.9139 Y-10.1317
G01 X2.9142 Y-10.1320
G01 X2.9350 Y-10.1125
G01 X2.9588 Y-10.0927
G01 X3.0336 Y-10.0339
G01 X3.0565 Y-10.0168
G01 X3.0821 Y-9.9994
G01 X3.1624 Y-9.9478
G01 X3.1875 Y-9.9324
G01 X18.1875 Y-1.2722
G01 X18.2136 Y-1.2579
G01 X18.2982 Y-1.2143
G01 X18.3260 Y-1.2009
G01 X18.3523 Y-1.1896
G01 X18.4406 Y-1.1543
G01 X18.4674 Y-1.1443
G01 X18.4968 Y-1.1348
G01 X18.5881 Y-1.1080
G01 X18.6157 Y-1.1006
G01 X18.6460 Y-1.0940
G01 X18.7394 Y-1.0760
G01 X18.7676 Y-1.0712
G01 X18.7983 Y-1.0675
G01 X18.8930 Y-1.0584
G01 X18.9239 Y-1.0563
G01 X18.9524 Y-1.0556
G01 X19.0476 Y-1.0556
G01 X19.0761 Y-1.0563
G01 X19.1070 Y-1.0584
G01 X19.2017 Y-1.0675
G01 X19.2324 Y-1.0712
G01 X19.2606 Y-1.0760
G01 X19.3540 Y-1.0940
G01 X19.3843 Y-1.1006
G01 X19.4118 Y-1.1080
G01 X19.5031 Y-1.1348
G01 X19.5304 Y-1.1435
G01 X19.5594 Y-1.1543
G01 X19.6477 Y-1.1896
G01 X19.6740 Y-1.2009
G01 X19.7018 Y-1.2143
G01 X19.7864 Y-1.2579
G01 X19.8125 Y-1.2722
G01 X34.8125 Y-9.9324
G01 X34.8379 Y-9.9479
G01 X34.9180 Y-9.9994
G01 X34.9435 Y-10.0168
G01 X34.9664 Y-10.0339
G01 X35.0412 Y-10.0927
G01 X35.0650 Y-10.1125
G01 X35.0862 Y-10.1317
G01 X35.1550 Y-10.1973
G01 X35.1752 Y-10.2175
G01 X35.1961 Y-10.2404
G01 X35.2584 Y-10.3123
G01 X35.2766 Y-10.3343
G01 X35.2952 Y-10.3591
G01 X35.3504 Y-10.4366
G01 X35.3664 Y-10.4602
G01 X35.3825 Y-10.4866
G01 X35.4301 Y-10.5690
G01 X35.4438 Y-10.5941
G01 X35.4573 Y-10.6219
G01 X35.4969 Y-10.7085
G01 X35.5090 Y-10.7369
G01 X35.5190 Y-10.7637
G01 X35.5501 Y-10.8536
G01 X35.5595 Y-10.8831
G01 X35.5669 Y-10.9107
G01 X35.5893 Y-11.0032
G01 X35.5958 Y-11.0334
G01 X35.6005 Y-11.0616
G01 X35.6141 Y-11.1558
G01 X35.6175 Y-11.1841
G01 X35.6197 Y-11.2150
G01 X35.6243 Y-11.3103
G01 X35.6250 Y-11.3398
G01 X35.6250 Y-18.4000
G00 X35.6250 Y-18.4000
G01 F60.00
G01 Z-0.8000
G01 F100.00
G01 X35.6250 Y-11.3398
G01 X35.6243 Y-11.3103
G01 X35.6197 Y-11.2150
G01 X35.6175 Y-11.1841
G01 X35.6141 Y-11.1558
G01 X35.6005 Y-11.0616
G01 X35.5958 Y-11.0334
G01 X35.5893 Y-11.0032
G01 X35.5669 Y-10.9107
G01 X35.5595 Y-10.8831
G01 X35.5501 Y-10.8536
G01 X35.5190 Y-10.7637
G01 X35.5090 Y-10.7369
G01 X35.4969 Y-10.7085
G01 X35.4573 Y-10.6219
G01 X35.4438 Y-10.5941
G01 X35.4301 Y-10.5690
G01 X35.3825 Y-10.4866
G01 X35.3664 Y-10.4602
G01 X35.3504 Y-10.4366
G01 X35.2952 Y-10.3591
G01 X35.2766 Y-10.3343
G01 X35.2584 Y-10.3123
G01 X35.1961 Y-10.2404
G01 X35.1752 Y-10.2175
G01 X35.1550 Y-10.1973
G01 X35.0862 Y-10.1317
G01 X35.0650 Y-10.1125
G01 X35.0412 Y-10.0927
G01 X34.9664 Y-10.0339
G01 X34.9435 Y-10.0168
G01 X34.9180 Y-9.9994
G01 X34.8379 Y-9.9479
G01 X34.8125 Y-9.9324
G01 X19.8125 Y-1.2722
G01 X19.7864 Y-1.2579
G01 X19.7018 Y-1.2143
G01 X19.6740 Y-1.2009
G01 X19.6477 Y-1.1896
G01 X19.5594 Y-1.1543
G01 X19.5326 Y-1.1443
G01 X19.5031 Y-1.1348
G01 X19.4118 Y-1.1080
G01 X19.3843 Y-1.1006
G01 X19.3540 Y-1.0940
G01 X19.2606 Y-1.0760
G01 X19.2324 Y-1.0712
G01 X19.2017 Y-1.0675
G01 X19.1070 Y-1.0584
G01 X19.0761 Y-1.0563
G01 X19.0476 Y-1.0556
G01 X18.9524 Y-1.0556
G01 X18.9239 Y-1.0563
G01 X18.8930 Y-1.0584
G01 X18.7983 Y-1.0675
G01 X18.7676 Y-1.0712
G01 X18.7394 Y-1.0760
G01 X18.6460 Y-1.0940
G01 X18.6157 Y-1.1006
G01 X18.5881 Y-1.1080
G01 X18.4968 Y-1.1348
G01 X18.4696 Y-1.1435
G01 X18.4406 Y-1.1543
G01 X18.3523 Y-1.1896
G01 X18.3260 Y-1.2009
G01 X18.2982 Y-1.2143
G01 X18.2136 Y-1.2579
G01 X18.1875 Y-1.2722
G01 X3.1875 Y-9.9324
G01 X3.1624 Y-9.9478
G01 X3.0821 Y-9.9994
G01 X3.0565 Y-10.0168
G01 X3.0336 Y-10.0339
G01 X2.9588 Y-10.0927
G01 X2.9350 Y-10.1125
G01 X2.9142 Y-10.1320
G01 X2.9139 Y-10.1317
G01 X2.8450 Y-10.1973
G01 X2.8232 Y-10.2193
G01 X2.8039 Y-10.2404
G01 X2.7416 Y-10.3123
G01 X2.7220 Y-10.3362
G01 X2.7049 Y-10.3591
G01 X2.6497 Y-10.4366
G01 X2.6324 Y-10.4622
G01 X2.6175 Y-10.4866
G01 X2.5699 Y-10.5690
G01 X2.5551 Y-10.5962
G01 X2.5430 Y-10.6220
G01 X2.5427 Y-10.6219
G01 X2.5031 Y-10.7084
G01 X2.4910 Y-10.7369
G01 X2.4814 Y-10.7638
G01 X2.4810 Y-10.7637
G01 X2.4499 Y-10.8536
G01 X2.4405 Y-10.8831
G01 X2.4335 Y-10.9107
G01 X2.4331 Y-10.9106
G01 X2.4107 Y-11.0031
G01 X2.4042 Y-11.0334
G01 X2.3999 Y-11.0616
G01 X2.3994 Y-11.0615
G01 X2.3859 Y-11.1557
G01 X2.3825 Y-11.1841
G01 X2.3802 Y-11.2149
G01 X2.3757 Y-11.3100
G01 X2.3750 Y-11.3335
G01 X2.3501 Y-13.7413
G01 X2.3508 Y-13.7819
G01 X2.3520 Y-13.8064
G01 X2.3541 Y-13.8358
G01 X2.3582 Y-13.8699
G01 X2.3618 Y-13.8942
G01 X2.3668 Y-13.9232
G01 X2.3743 Y-13.9567
G01 X2.3802 Y-13.9805
G01 X2.3881 Y-14.0089
G01 X2.3987 Y-14.0416
G01 X2.4070 Y-14.0647
G01 X2.4176 Y-14.0921
G01 X2.4314 Y-14.1236
G01 X2.4419 Y-14.1458
G01 X2.4575 Y-14.1764
G01 X2.4720 Y-14.2020
G01 X2.4846 Y-14.2231
G01 X2.5003 Y-14.2480
G01 X2.5200 Y-14.2761
G01 X2.5346 Y-14.2958
G01 X2.5559 Y-14.3228
G01 X2.5751 Y-14.3451
G01 X2.5916 Y-14.3633
G01 X2.6154 Y-14.3881
G01 X2.6367 Y-14.4084
G01 X2.6549 Y-14.4249
G01 X2.6772 Y-14.4441
G01 X2.7042 Y-14.4654
G01 X2.7239 Y-14.4800
G01 X2.7480 Y-14.4969
G01 X2.7769 Y-14.5154
G01 X2.7980 Y-14.5280
G01 X2.8236 Y-14.5425
G01 X2.8544 Y-14.5577
G01 X2.8542 Y-14.5581
G01 X2.8764 Y-14.5686
G01 X2.9079 Y-14.5824
G01 X2.9355 Y-14.5926
G01 X2.9353 Y-14.5930
G01 X2.9584 Y-14.6013
G01 X2.9911 Y-14.6119
G01 X3.0196 Y-14.6193
G01 X3.0195 Y-14.6198
G01 X3.0433 Y-14.6257
G01 X3.0720 Y-14.6322
G01 X3.1059 Y-14.6376
G01 X3.1058 Y-14.6382
G01 X3.1301 Y-14.6418
G01 X3.1593 Y-14.6454
G01 X3.1936 Y-14.6480
G01 X3.2181 Y-14.6492
G01 X3.2525 Y-14.6500
G01 X3.3162 Y-14.6466
G01 X3.3744 Y-14.6380
G01 X3.4271 Y-14.6250
G01 X7.4847 Y-14.6250
G01 X7.5073 Y-14.6261
G01 X7.5145 Y-14.6272
G01 X7.5215 Y-14.6290
G01 X7.5284 Y-14.6314
G01 X7.5350 Y-14.6345
G01 X7.5412 Y-14.6383
G01 X7.5471 Y-14.6426
G01 X7.5525 Y-14.6475
G01 X7.5574 Y-14.6529
G01 X7.5617 Y-14.6588
G01 X7.5655 Y-14.6650
G01 X7.5686 Y-14.6716
G01 X7.5710 Y-14.6785
G01 X7.5728 Y-14.6855
G01 X7.5739 Y-14.6927
G01 X7.5742 Y-14.7000
G01 X7.5739 Y-14.7073
G01 X7.5728 Y-14.7145
G01 X7.5710 Y-14.7215
G01 X7.5686 Y-14.7284
G01 X7.5655 Y-14.7350
G01 X7.5617 Y-14.7412
G01 X7.5574 Y-14.7471
G01 X7.5525 Y-14.7525
G01 X7.5471 Y-14.7574
G01 X7.5412 Y-14.7617
G01 X7.5350 Y-14.7655
G01 X7.5284 Y-14.7686
G01 X7.5215 Y-14.7710
G01 X7.5145 Y-14.7728
G01 X7.5073 Y-14.7739
G01 X7.4847 Y-14.7750
G01 X1.4353 Y-14.7752
G01 X1.3997 Y-14.7767
G01 X1.3704 Y-14.7789
G01 X1.3387 Y-14.7827
G01 X1.3193 Y-14.7856
G01 X1.2903 Y-14.7906
G01 X1.2591 Y-14.7976
G01 X1.2401 Y-14.8023
G01 X1.2117 Y-14.8102
G01 X1.1814 Y-14.8201
G01 X1.1629 Y-14.8267
G01 X1.1354 Y-14.8373
G01 X1.1062 Y-14.8502
G01 X1.0885 Y-14.8586
G01 X1.0622 Y-14.8719
G01 X1.0344 Y-14.8875
G01 X1.0176 Y-14.8976
G01 X0.9906 Y-14.9147
G01 X0.9666 Y-14.9317
G01 X0.9508 Y-14.9434
G01 X0.9276 Y-14.9615
G01 X0.9034 Y-14.9823
G01 X0.8888 Y-14.9955
G01 X0.8658 Y-15.0175
G01 X0.8455 Y-15.0388
G01 X0.8323 Y-15.0534
G01 X0.8115 Y-15.0776
G01 X0.7934 Y-15.1008
G01 X0.7817 Y-15.1166
G01 X0.7647 Y-15.1406
G01 X0.7476 Y-15.1676
G01 X0.7375 Y-15.1844
G01 X0.7219 Y-15.2122
G01 X0.7090 Y-15.2387
G01 X0.7086 Y-15.2385
G01 X0.7002 Y-15.2562
G01 X0.6883 Y-15.2832
G01 X0.6771 Y-15.3130
G01 X0.6767 Y-15.3129
G01 X0.6701 Y-15.3314
G01 X0.6609 Y-15.3593
G01 X0.6528 Y-15.3902
G01 X0.6523 Y-15.3901
G01 X0.6476 Y-15.4091
G01 X0.6406 Y-15.4403
G01 X0.6361 Y-15.4694
G01 X0.6356 Y-15.4693
G01 X0.6327 Y-15.4887
G01 X0.6291 Y-15.5179
G01 X0.6267 Y-15.5497
G01 X0.6257 Y-15.5693
G01 X0.6250 Y-15.6000
G01 X0.6250 Y-18.4000
G00 X0.6250 Y-18.4000
G01 F60.00
G01 Z-1.2000
G01 F100.00
G01 X0.6250 Y-15.6000
G01 X0.6257 Y-15.5693
G01 X0.6267 Y-15.5497
G01 X0.6291 Y-15.5179
G01 X0.6327 Y-15.4887
G01 X0.6356 Y-15.4693
G01 X0.6361 Y-15.4694
G01 X0.6406 Y-15.4403
G01 X0.6476 Y-15.4091
G01 X0.6523 Y-15.3901
G01 X0.6528 Y-15.3902
G01 X0.6609 Y-15.3593
G01 X0.6701 Y-15.3314
G01 X0.6767 Y-15.3129
G01 X0.6771 Y-15.3130
G01 X0.6883 Y-15.2832
G01 X0.7002 Y-15.2562
G01 X0.7086 Y-15.2385
G01 X0.7090 Y-15.2387
G01 X0.7219 Y-15.2122
G01 X0.7375 Y-15.1844
G01 X0.7476 Y-15.1676
G01 X0.7647 Y-15.1406
G01 X0.7817 Y-15.1166
G01 X0.7934 Y-15.1008
G01 X0.8115 Y-15.0776
G01 X0.8323 Y-15.0534
G01 X0.8455 Y-15.0388
G01 X0.8658 Y-15.0175
G01 X0.8888 Y-14.9955
G01 X0.9034 Y-14.9823
G01 X0.9276 Y-14.9615
G01 X0.9508 Y-14.9434
G01 X0.9666 Y-14.9317
G01 X0.9906 Y-14.9147
G01 X1.0176 Y-14.8976
G01 X1.0344 Y-14.8875
G01 X1.0622 Y-14.8719
G01 X1.0885 Y-14.8586
G01 X1.1062 Y-14.8502
G01 X1.1354 Y-14.8373
G01 X1.1629 Y-14.8267
G01 X1.1814 Y-14.8201
G01 X1.2117 Y-14.8102
G01 X1.2401 Y-14.8023
G01 X1.2591 Y-14.7976
G01 X1.2903 Y-14.7906
G01 X1.3193 Y-14.7856
G01 X1.3387 Y-14.7827
G01 X1.3704 Y-14.7789
G01 X1.3997 Y-14.7767
G01 X1.4353 Y-14.7752
G01 X7.4847 Y-14.7750
G01 X7.5073 Y-14.7739
G01 X7.5145 Y-14.7728
G01 X7.5215 Y-14.7710
G01 X7.5284 Y-14.7686
G01 X7.5350 Y-14.7655
G01 X7.5412 Y-14.7617
G01 X7.5471 Y-14.7574
G01 X7.5525 Y-14.7525
G01 X7.5574 Y-14.7471
G01 X7.5617 Y-14.7412
G01 X7.5655 Y-14.7350
G01 X7.5686 Y-14.7284
G01 X7.5710 Y-14.7215
G01 X7.5728 Y-14.7145
G01 X7.5739 Y-14.7073
G01 X7.5742 Y-14.7000
G01 X7.5739 Y-14.6927
G01 X7.5728 Y-14.6855
G01 X7.5710 Y-14.6785
G01 X7.5686 Y-14.6716
G01 X7.5655 Y-14.6650
G01 X7.5617 Y-14.6588
G01 X7.5574 Y-14.6529
G01 X7.5525 Y-14.6475
G01 X7.5471 Y-14.6426
G01 X7.5412 Y-14.6383
G01 X7.5350 Y-14.6345
G01 X7.5284 Y-14.6314
G01 X7.5215 Y-14.6290
G01 X7.5145 Y-14.6272
G01 X7.5073 Y-14.6261
G01 X7.4847 Y-14.6250
G01 X3.4271 Y-14.6250
G01 X3.3744 Y-14.6380
G01 X3.3162 Y-14.6466
G01 X3.2525 Y-14.6500
G01 X3.2181 Y-14.6492
G01 X3.1936 Y-14.6480
G01 X3.1593 Y-14.6454
G01 X3.1301 Y-14.6418
G01 X3.1058 Y-14.6382
G01 X3.1059 Y-14.6376
G01 X3.0720 Y-14.6322
G01 X3.0433 Y-14.6257
G01 X3.0195 Y-14.6198
G01 X3.0196 Y-14.6193
G01 X2.9911 Y-14.6119
G01 X2.9584 Y-14.6013
G01 X2.9353 Y-14.5930
G01 X2.9355 Y-14.5926
G01 X2.9079 Y-14.5824
G01 X2.8764 Y-14.5686
G01 X2.8542 Y-14.5581
G01 X2.8544 Y-14.5577
G01 X2.8236 Y-14.5425
G01 X2.7980 Y-14.5280
G01 X2.7769 Y-14.5154
G01 X2.7480 Y-14.4969
G01 X2.7239 Y-14.4800
G01 X2.7042 Y-14.4654
G01 X2.6772 Y-14.4441
G01 X2.6549 Y-14.4249
G01 X2.6367 Y-14.4084
G01 X2.6154 Y-14.3881
G01 X2.5916 Y-14.3633
G01 X2.5751 Y-14.3451
G01 X2.5559 Y-14.3228
G01 X2.5346 Y-14.2958
G01 X2.5200 Y-14.2761
G01 X2.5003 Y-14.2480
G01 X2.4846 Y-14.2231
G01 X2.4720 Y-14.2020
G01 X2.4575 Y-14.1764
G01 X2.4419 Y-14.1458
G01 X2.4314 Y-14.1236
G01 X2.4176 Y-14.0921
G01 X2.4070 Y-14.0647
G01 X2.3987 Y-14.0416
G01 X2.3881 Y-14.0089
G01 X2.3802 Y-13.9805
G01 X2.3743 Y-13.9567
G01 X2.3668 Y-13.9232
G01 X2.3618 Y-13.8942
G01 X2.3582 Y-13.8699
G01 X2.3541 Y-13.8358
G01 X2.3520 Y-13.8064
G01 X2.3508 Y-13.7819
G01 X2.3501 Y-13.7413
G01 X2.3750 Y-11.3335
G01 X2.3757 Y-11.3100
G01 X2.3802 Y-11.2149
G01 X2.3825 Y-11.1841
G01 X2.3859 Y-11.1557
G01 X2.3994 Y-11.0615
