(G-CODE GENERATED BY FLATCAM v8.994 - www.flatcam.org - Version Date: 2020/11/7)

(Name: hexpansion-B_Cu.gbl_iso_combined_cnc)
(Type: G-code from Geometry)
(Units: MM)

(Created on Friday, 24 May 2024 at 12:11)

(This preprocessor is the default preprocessor used by FlatCAM.)
(It is made to work with MACH3 compatible motion controllers.)

(TOOL DIAMETER: 0.1268 mm)
(Feedrate_XY: 100.0 mm/min)
(Feedrate_Z: 60.0 mm/min)
(Feedrate rapids 1500.0 mm/min)

(Z_Cut: -0.05 mm)
(Z_Move: 2.0 mm)
(Z Start: None mm)
(Z End: 4.0 mm)
(X,Y End: None mm)
(Steps per circle: 64)
(Preprocessor Geometry: default)

(X range:    1.2301 ...   34.3699  mm)
(Y range:  -35.2899 ...   -4.7801  mm)

(Spindle Speed: 0.0 RPM)
G21
G90
G94

G01 F100.00

M5
G00 Z4.0000
G00 X0.0000 Y0.0000
T1
M6    
(MSG, Change to Tool Dia = 0.1268)
M0
G00 Z4.0000

M03
G01 F100.00
G00 X8.1403 Y-8.7539
G01 F60.00
G01 Z-0.0500
G01 F100.00
G01 X8.1307 Y-8.7371
G01 X8.1242 Y-8.7243
G01 X8.0886 Y-8.6489
G01 X8.0828 Y-8.6358
G01 X8.0776 Y-8.6225
G01 X8.0495 Y-8.5439
G01 X8.0450 Y-8.5303
G01 X8.0412 Y-8.5165
G01 X8.0209 Y-8.4356
G01 X8.0178 Y-8.4216
G01 X8.0153 Y-8.4075
G01 X8.0031 Y-8.3250
G01 X8.0014 Y-8.3108
G01 X8.0003 Y-8.2966
G01 X7.9962 Y-8.2132
G01 X7.9959 Y-8.1989
G01 X7.9962 Y-8.1846
G01 X8.0003 Y-8.1013
G01 X8.0014 Y-8.0870
G01 X8.0031 Y-8.0728
G01 X8.0153 Y-7.9903
G01 X8.0178 Y-7.9762
G01 X8.0209 Y-7.9622
G01 X8.0412 Y-7.8813
G01 X8.0450 Y-7.8675
G01 X8.0495 Y-7.8539
G01 X8.0776 Y-7.7754
G01 X8.0828 Y-7.7620
G01 X8.0886 Y-7.7490
G01 X8.1242 Y-7.6735
G01 X8.1307 Y-7.6608
G01 X8.1377 Y-7.6483
G01 X8.1806 Y-7.5768
G01 X8.1883 Y-7.5647
G01 X8.1965 Y-7.5530
G01 X8.2462 Y-7.4860
G01 X8.2550 Y-7.4747
G01 X8.2643 Y-7.4638
G01 X8.3204 Y-7.4020
G01 X8.3302 Y-7.3917
G01 X8.3406 Y-7.3818
G01 X8.4024 Y-7.3258
G01 X8.4133 Y-7.3164
G01 X8.4245 Y-7.3076
G01 X8.4915 Y-7.2579
G01 X8.5032 Y-7.2497
G01 X8.5153 Y-7.2420
G01 X8.5869 Y-7.1991
G01 X8.5993 Y-7.1921
G01 X8.6121 Y-7.1857
G01 X8.6875 Y-7.1500
G01 X8.7006 Y-7.1442
G01 X8.7140 Y-7.1390
G01 X8.7925 Y-7.1109
G01 X8.8061 Y-7.1064
G01 X8.8199 Y-7.1026
G01 X8.9008 Y-7.0824
G01 X8.9148 Y-7.0792
G01 X8.9289 Y-7.0768
G01 X9.0185 Y-7.0636
G01 X9.0399 Y-7.0617
G01 X9.1232 Y-7.0576
G01 X9.1375 Y-7.0573
G01 X9.1518 Y-7.0576
G01 X9.2351 Y-7.0617
G01 X9.2494 Y-7.0628
G01 X9.2636 Y-7.0645
G01 X9.3461 Y-7.0768
G01 X9.3602 Y-7.0792
G01 X9.3742 Y-7.0824
G01 X9.4551 Y-7.1026
G01 X9.4689 Y-7.1064
G01 X9.4825 Y-7.1109
G01 X9.5610 Y-7.1390
G01 X9.5744 Y-7.1442
G01 X9.5875 Y-7.1500
G01 X9.6629 Y-7.1857
G01 X9.6757 Y-7.1921
G01 X9.6881 Y-7.1991
G01 X9.7597 Y-7.2420
G01 X9.7718 Y-7.2497
G01 X9.7835 Y-7.2579
G01 X9.8505 Y-7.3076
G01 X9.8672 Y-7.3210
G01 X9.9344 Y-7.3818
G01 X9.9448 Y-7.3917
G01 X9.9546 Y-7.4020
G01 X10.0106 Y-7.4638
G01 X10.0200 Y-7.4747
G01 X10.0288 Y-7.4860
G01 X10.0785 Y-7.5530
G01 X10.0919 Y-7.5727
G01 X10.1262 Y-7.6281
G01 X10.5262 Y-8.3209
G01 X10.5476 Y-8.3599
G01 X10.5864 Y-8.4418
G01 X10.5922 Y-8.4549
G01 X10.5974 Y-8.4682
G01 X10.6255 Y-8.5468
G01 X10.6300 Y-8.5603
G01 X10.6338 Y-8.5741
G01 X10.6541 Y-8.6551
G01 X10.6572 Y-8.6690
G01 X10.6596 Y-8.6831
G01 X10.6719 Y-8.7656
G01 X10.6736 Y-8.7798
G01 X10.6747 Y-8.7941
G01 X10.6788 Y-8.8774
G01 X10.6791 Y-8.8917
G01 X10.6788 Y-8.9061
G01 X10.6747 Y-8.9894
G01 X10.6736 Y-9.0036
G01 X10.6719 Y-9.0179
G01 X10.6596 Y-9.1004
G01 X10.6572 Y-9.1145
G01 X10.6541 Y-9.1284
G01 X10.6338 Y-9.2094
G01 X10.6300 Y-9.2231
G01 X10.6255 Y-9.2367
G01 X10.5974 Y-9.3153
G01 X10.5894 Y-9.3352
G01 X10.5508 Y-9.4171
G01 X10.5443 Y-9.4299
G01 X10.5373 Y-9.4424
G01 X10.4944 Y-9.5139
G01 X10.4867 Y-9.5260
G01 X10.4785 Y-9.5377
G01 X10.4288 Y-9.6047
G01 X10.4200 Y-9.6160
G01 X10.4106 Y-9.6268
G01 X10.3546 Y-9.6886
G01 X10.3448 Y-9.6990
G01 X10.3344 Y-9.7089
G01 X10.2672 Y-9.7696
G01 X10.2505 Y-9.7831
G01 X10.1835 Y-9.8327
G01 X10.1718 Y-9.8410
G01 X10.1597 Y-9.8486
G01 X10.0881 Y-9.8915
G01 X10.0757 Y-9.8986
G01 X10.0629 Y-9.9050
G01 X9.9875 Y-9.9407
G01 X9.9744 Y-9.9465
G01 X9.9610 Y-9.9516
G01 X9.8793 Y-9.9808
G01 X9.8793 Y-10.1131
G01 X10.6881 Y-10.9220
G01 X10.7142 Y-10.9508
G01 X10.7276 Y-10.9676
G01 X10.7505 Y-10.9990
G01 X10.7707 Y-11.0322
G01 X10.7811 Y-11.0510
G01 X10.7977 Y-11.0861
G01 X10.8057 Y-11.1060
G01 X10.8184 Y-11.1427
G01 X10.8282 Y-11.1803
G01 X10.8327 Y-11.2013
G01 X10.8384 Y-11.2398
G01 X10.8402 Y-11.2612
G01 X10.8418 Y-11.3000
G01 X10.8418 Y-12.2929
G01 X10.9723 Y-12.3396
G01 X10.9856 Y-12.3447
G01 X10.9987 Y-12.3505
G01 X11.1318 Y-12.4135
G01 X11.1446 Y-12.4199
G01 X11.1570 Y-12.4270
G01 X11.2833 Y-12.5026
G01 X11.2954 Y-12.5103
G01 X11.3071 Y-12.5185
G01 X11.4253 Y-12.6062
G01 X11.4366 Y-12.6150
G01 X11.4474 Y-12.6244
G01 X11.5565 Y-12.7232
G01 X11.5669 Y-12.7331
G01 X11.5768 Y-12.7435
G01 X11.6756 Y-12.8526
G01 X11.6850 Y-12.8634
G01 X11.6938 Y-12.8747
G01 X11.7815 Y-12.9929
G01 X11.7897 Y-13.0046
G01 X11.7974 Y-13.0167
G01 X11.8730 Y-13.1430
G01 X11.8801 Y-13.1554
G01 X11.8865 Y-13.1682
G01 X11.9495 Y-13.3013
G01 X11.9553 Y-13.3144
G01 X11.9604 Y-13.3277
G01 X12.0100 Y-13.4663
G01 X12.0145 Y-13.4799
G01 X12.0183 Y-13.4937
G01 X12.0541 Y-13.6365
G01 X12.0572 Y-13.6505
G01 X12.0597 Y-13.6646
G01 X12.0813 Y-13.8102
G01 X12.0830 Y-13.8244
G01 X12.0841 Y-13.8387
G01 X12.0913 Y-13.9857
G01 X12.0916 Y-14.0000
G01 X12.0913 Y-14.0143
G01 X12.0841 Y-14.1613
G01 X12.0830 Y-14.1756
G01 X12.0813 Y-14.1898
G01 X12.0597 Y-14.3354
G01 X12.0572 Y-14.3495
G01 X12.0541 Y-14.3635
G01 X12.0183 Y-14.5063
G01 X12.0145 Y-14.5201
G01 X12.0100 Y-14.5337
G01 X11.9604 Y-14.6723
G01 X11.9553 Y-14.6856
G01 X11.9495 Y-14.6987
G01 X11.8865 Y-14.8318
G01 X11.8801 Y-14.8446
G01 X11.8730 Y-14.8570
G01 X11.7974 Y-14.9833
G01 X11.7897 Y-14.9954
G01 X11.7815 Y-15.0071
G01 X11.6938 Y-15.1253
G01 X11.6850 Y-15.1366
G01 X11.6756 Y-15.1474
G01 X11.5768 Y-15.2565
G01 X11.5669 Y-15.2669
G01 X11.5565 Y-15.2768
G01 X11.4474 Y-15.3756
G01 X11.4366 Y-15.3850
G01 X11.4253 Y-15.3938
G01 X11.3071 Y-15.4815
G01 X11.2954 Y-15.4897
G01 X11.2833 Y-15.4974
G01 X11.1570 Y-15.5730
G01 X11.1446 Y-15.5801
G01 X11.1318 Y-15.5865
G01 X10.9987 Y-15.6495
G01 X10.9856 Y-15.6553
G01 X10.9723 Y-15.6604
G01 X10.8337 Y-15.7100
G01 X10.8201 Y-15.7145
G01 X10.8063 Y-15.7183
G01 X10.6635 Y-15.7541
G01 X10.6495 Y-15.7572
G01 X10.6354 Y-15.7597
G01 X10.4898 Y-15.7813
G01 X10.4756 Y-15.7830
G01 X10.4613 Y-15.7841
G01 X10.3143 Y-15.7913
G01 X10.3000 Y-15.7916
G01 X10.2857 Y-15.7913
G01 X10.1387 Y-15.7841
G01 X10.1244 Y-15.7830
G01 X10.1102 Y-15.7813
G01 X9.9646 Y-15.7597
G01 X9.9505 Y-15.7572
G01 X9.9365 Y-15.7541
G01 X9.7937 Y-15.7183
G01 X9.7799 Y-15.7145
G01 X9.7663 Y-15.7100
G01 X9.6277 Y-15.6604
G01 X9.6144 Y-15.6553
G01 X9.6013 Y-15.6495
G01 X9.4682 Y-15.5865
G01 X9.4554 Y-15.5801
G01 X9.4430 Y-15.5730
G01 X9.3167 Y-15.4974
G01 X9.3046 Y-15.4897
G01 X9.2929 Y-15.4815
G01 X9.1747 Y-15.3938
G01 X9.1634 Y-15.3850
G01 X9.1526 Y-15.3756
G01 X9.0435 Y-15.2768
G01 X9.0331 Y-15.2669
G01 X9.0232 Y-15.2565
G01 X8.9244 Y-15.1474
G01 X8.9150 Y-15.1366
G01 X8.9062 Y-15.1253
G01 X8.8185 Y-15.0071
G01 X8.8103 Y-14.9954
G01 X8.8026 Y-14.9833
G01 X8.7270 Y-14.8570
G01 X8.7199 Y-14.8446
G01 X8.7135 Y-14.8318
G01 X8.6505 Y-14.6987
G01 X8.6447 Y-14.6856
G01 X8.6396 Y-14.6723
G01 X8.5900 Y-14.5337
G01 X8.5855 Y-14.5201
G01 X8.5817 Y-14.5063
G01 X8.5459 Y-14.3635
G01 X8.5428 Y-14.3495
G01 X8.5403 Y-14.3354
G01 X8.5187 Y-14.1898
G01 X8.5170 Y-14.1756
G01 X8.5159 Y-14.1613
G01 X8.5087 Y-14.0143
G01 X8.5084 Y-14.0000
G01 X8.5087 Y-13.9857
G01 X8.5159 Y-13.8387
G01 X8.5170 Y-13.8244
G01 X8.5187 Y-13.8102
G01 X8.5403 Y-13.6646
G01 X8.5428 Y-13.6505
G01 X8.5459 Y-13.6365
G01 X8.5817 Y-13.4937
G01 X8.5855 Y-13.4799
G01 X8.5900 Y-13.4663
G01 X8.6396 Y-13.3277
G01 X8.6447 Y-13.3144
G01 X8.6505 Y-13.3013
G01 X8.7135 Y-13.1682
G01 X8.7199 Y-13.1554
G01 X8.7270 Y-13.1430
G01 X8.8026 Y-13.0167
G01 X8.8103 Y-13.0046
G01 X8.8185 Y-12.9929
G01 X8.9062 Y-12.8747
G01 X8.9150 Y-12.8634
G01 X8.9244 Y-12.8526
G01 X9.0232 Y-12.7435
G01 X9.0331 Y-12.7331
G01 X9.0435 Y-12.7232
G01 X9.1526 Y-12.6244
G01 X9.1634 Y-12.6150
G01 X9.1747 Y-12.6062
G01 X9.2929 Y-12.5185
G01 X9.3046 Y-12.5103
G01 X9.3167 Y-12.5026
G01 X9.4430 Y-12.4270
G01 X9.4554 Y-12.4199
G01 X9.4682 Y-12.4135
G01 X9.6013 Y-12.3505
G01 X9.6144 Y-12.3447
G01 X9.6277 Y-12.3396
G01 X9.7582 Y-12.2929
G01 X9.7582 Y-11.5244
G01 X8.9494 Y-10.7155
G01 X8.9233 Y-10.6867
G01 X8.9099 Y-10.6699
G01 X8.8870 Y-10.6385
G01 X8.8668 Y-10.6053
G01 X8.8564 Y-10.5865
G01 X8.8398 Y-10.5514
G01 X8.8318 Y-10.5315
G01 X8.8191 Y-10.4948
G01 X8.8093 Y-10.4572
G01 X8.8061 Y-10.4432
G01 X8.8001 Y-10.4048
G01 X8.7977 Y-10.3835
G01 X8.7961 Y-10.3518
G01 X8.7957 Y-10.3375
G01 X8.7957 Y-9.7588
G01 X8.7406 Y-9.7089
G01 X8.7302 Y-9.6990
G01 X8.7204 Y-9.6886
G01 X8.6643 Y-9.6268
G01 X8.6550 Y-9.6160
G01 X8.6462 Y-9.6047
G01 X8.5965 Y-9.5377
G01 X8.5874 Y-9.5247
G01 X8.5488 Y-9.4626
G01 X8.1488 Y-8.7697
G01 X8.1403 Y-8.7539
G00 Z2.0000
G00 X8.2407 Y-8.6994
G01 F60.00
G01 Z-0.0500
G01 F100.00
G01 X8.2293 Y-8.6794
G01 X8.1882 Y-8.5921
G01 X8.1570 Y-8.5055
G01 X8.1519 Y-8.4888
G01 X8.1297 Y-8.3994
G01 X8.1160 Y-8.3083
G01 X8.1143 Y-8.2910
G01 X8.1100 Y-8.1989
G01 X8.1149 Y-8.0982
G01 X8.1282 Y-8.0071
G01 X8.1316 Y-7.9900
G01 X8.1542 Y-7.9007
G01 X8.1851 Y-7.8138
G01 X8.1917 Y-7.7977
G01 X8.2313 Y-7.7146
G01 X8.2785 Y-7.6354
G01 X8.2882 Y-7.6209
G01 X8.3432 Y-7.5471
G01 X8.4049 Y-7.4787
G01 X8.4172 Y-7.4664
G01 X8.4856 Y-7.4046
G01 X8.5666 Y-7.3446
G01 X8.6531 Y-7.2927
G01 X8.7363 Y-7.2532
G01 X8.7524 Y-7.2465
G01 X8.8392 Y-7.2157
G01 X8.9285 Y-7.1931
G01 X8.9456 Y-7.1897
G01 X9.0368 Y-7.1764
G01 X9.1375 Y-7.1714
G01 X9.2382 Y-7.1764
G01 X9.3380 Y-7.1912
G01 X9.4274 Y-7.2133
G01 X9.4440 Y-7.2184
G01 X9.5307 Y-7.2496
G01 X9.6141 Y-7.2888
G01 X9.6294 Y-7.2970
G01 X9.7084 Y-7.3446
G01 X9.7825 Y-7.3993
G01 X9.7959 Y-7.4103
G01 X9.8578 Y-7.4664
G01 X9.8701 Y-7.4787
G01 X9.9261 Y-7.5405
G01 X9.9345 Y-7.5505
G01 X9.9897 Y-7.6249
G01 X10.0244 Y-7.6802
G01 X10.4274 Y-8.3780
G01 X10.4343 Y-8.3912
G01 X10.4457 Y-8.4112
G01 X10.4833 Y-8.4906
G01 X10.4884 Y-8.5026
G01 X10.5208 Y-8.5935
G01 X10.5453 Y-8.6913
G01 X10.5601 Y-8.7910
G01 X10.5650 Y-8.8917
G01 X10.5601 Y-8.9925
G01 X10.5453 Y-9.0922
G01 X10.5208 Y-9.1900
G01 X10.4899 Y-9.2768
G01 X10.4851 Y-9.2890
G01 X10.4476 Y-9.3683
G01 X10.4394 Y-9.3837
G01 X10.3919 Y-9.4626
G01 X10.3371 Y-9.5367
G01 X10.3261 Y-9.5502
G01 X10.2641 Y-9.6183
G01 X10.1894 Y-9.6860
G01 X10.1084 Y-9.7461
G01 X10.0294 Y-9.7936
G01 X10.0141 Y-9.8019
G01 X9.9387 Y-9.8375
G01 X9.9226 Y-9.8442
G01 X9.8358 Y-9.8750
G01 X9.7651 Y-9.8929
G01 X9.7651 Y-10.1604
G01 X10.6054 Y-11.0007
G01 X10.6306 Y-11.0287
G01 X10.6556 Y-11.0624
G01 X10.6771 Y-11.0984
G01 X10.6934 Y-11.1323
G01 X10.6982 Y-11.1445
G01 X10.7092 Y-11.1759
G01 X10.7194 Y-11.2166
G01 X10.7256 Y-11.2581
G01 X10.7276 Y-11.2956
G01 X10.7276 Y-12.3796
G01 X10.7786 Y-12.3924
G01 X10.7911 Y-12.3960
G01 X10.9338 Y-12.4470
G01 X10.9460 Y-12.4519
G01 X11.0908 Y-12.5206
G01 X11.2283 Y-12.6028
G01 X11.2391 Y-12.6102
G01 X11.3573 Y-12.6979
G01 X11.3708 Y-12.7090
G01 X11.4862 Y-12.8138
G01 X11.5939 Y-12.9325
G01 X11.6021 Y-12.9427
G01 X11.6898 Y-13.0609
G01 X11.6995 Y-13.0754
G01 X11.7794 Y-13.2092
G01 X11.8498 Y-13.3580
G01 X11.9053 Y-13.5130
G01 X11.9434 Y-13.6642
G01 X11.9468 Y-13.6813
G01 X11.9684 Y-13.8269
G01 X11.9698 Y-13.8399
G01 X11.9775 Y-14.0000
G01 X11.9701 Y-14.1557
G01 X11.9684 Y-14.1731
G01 X11.9468 Y-14.3187
G01 X11.9434 Y-14.3358
G01 X11.9053 Y-14.4870
G01 X11.8498 Y-14.6420
G01 X11.7794 Y-14.7908
G01 X11.6995 Y-14.9246
G01 X11.6898 Y-14.9391
G01 X11.6021 Y-15.0573
G01 X11.5910 Y-15.0708
G01 X11.4862 Y-15.1862
G01 X11.3642 Y-15.2967
G01 X11.2320 Y-15.3948
G01 X11.0984 Y-15.4751
G01 X11.0830 Y-15.4834
G01 X10.9499 Y-15.5463
G01 X10.9379 Y-15.5514
G01 X10.7870 Y-15.6053
G01 X10.6273 Y-15.6453
G01 X10.4644 Y-15.6694
G01 X10.3000 Y-15.6775
G01 X10.1356 Y-15.6694
G01 X9.9727 Y-15.6453
G01 X9.8130 Y-15.6053
G01 X9.6580 Y-15.5498
G01 X9.5092 Y-15.4794
G01 X9.3680 Y-15.3948
G01 X9.2358 Y-15.2967
G01 X9.1138 Y-15.1862
G01 X9.0033 Y-15.0642
G01 X8.9052 Y-14.9320
G01 X8.8206 Y-14.7908
G01 X8.7537 Y-14.6499
G01 X8.7486 Y-14.6379
G01 X8.6947 Y-14.4870
G01 X8.6547 Y-14.3273
G01 X8.6306 Y-14.1644
G01 X8.6227 Y-14.0087
G01 X8.6227 Y-13.9913
G01 X8.6306 Y-13.8356
G01 X8.6532 Y-13.6813
G01 X8.6566 Y-13.6642
G01 X8.6924 Y-13.5214
G01 X8.6974 Y-13.5048
G01 X8.7470 Y-13.3662
G01 X8.7537 Y-13.3501
G01 X8.8206 Y-13.2092
G01 X8.9005 Y-13.0754
G01 X8.9102 Y-13.0609
G01 X9.0033 Y-12.9358
G01 X9.1078 Y-12.8201
G01 X9.1169 Y-12.8108
G01 X9.2292 Y-12.7090
G01 X9.2427 Y-12.6979
G01 X9.3680 Y-12.6052
G01 X9.5054 Y-12.5227
G01 X9.5170 Y-12.5166
G01 X9.6501 Y-12.4537
G01 X9.6621 Y-12.4486
G01 X9.8089 Y-12.3960
G01 X9.8214 Y-12.3924
G01 X9.8724 Y-12.3796
G01 X9.8724 Y-11.4771
G01 X9.0321 Y-10.6368
G01 X9.0097 Y-10.6121
G01 X9.0016 Y-10.6019
G01 X8.9819 Y-10.5751
G01 X8.9646 Y-10.5467
G01 X8.9583 Y-10.5352
G01 X8.9424 Y-10.5012
G01 X8.9283 Y-10.4616
G01 X8.9181 Y-10.4209
G01 X8.9130 Y-10.3881
G01 X8.9115 Y-10.3751
G01 X8.9099 Y-10.3375
G01 X8.9099 Y-9.7042
G01 X8.8890 Y-9.6888
G01 X8.8823 Y-9.6832
G01 X8.8172 Y-9.6243
G01 X8.8079 Y-9.6152
G01 X8.7432 Y-9.5436
G01 X8.6882 Y-9.4697
G01 X8.6826 Y-9.4618
G01 X8.6476 Y-9.4055
G01 X8.2476 Y-8.7127
G01 X8.2407 Y-8.6994
G00 Z2.0000
G00 X8.3423 Y-8.6469
G01 F60.00
G01 Z-0.0500
G01 F100.00
G01 X8.3312 Y-8.6281
G01 X8.2942 Y-8.5499
G01 X8.2630 Y-8.4626
G01 X8.2416 Y-8.3771
G01 X8.2289 Y-8.2915
G01 X8.2283 Y-8.2854
G01 X8.2241 Y-8.1989
G01 X8.2285 Y-8.1094
G01 X8.2411 Y-8.0238
G01 X8.2423 Y-8.0177
G01 X8.2634 Y-7.9338
G01 X8.2925 Y-7.8523
G01 X8.2949 Y-7.8465
G01 X8.3320 Y-7.7684
G01 X8.3764 Y-7.6941
G01 X8.3798 Y-7.6889
G01 X8.4314 Y-7.6195
G01 X8.4895 Y-7.5553
G01 X8.4939 Y-7.5509
G01 X8.5580 Y-7.4929
G01 X8.6300 Y-7.4395
G01 X8.7042 Y-7.3949
G01 X8.7097 Y-7.3920
G01 X8.7880 Y-7.3551
G01 X8.8694 Y-7.3258
G01 X8.8754 Y-7.3240
G01 X8.9593 Y-7.3031
G01 X9.0449 Y-7.2903
G01 X9.0511 Y-7.2897
G01 X9.1375 Y-7.2855
G01 X9.2239 Y-7.2897
G01 X9.2301 Y-7.2903
G01 X9.3126 Y-7.3025
G01 X9.3187 Y-7.3038
G01 X9.4026 Y-7.3249
G01 X9.4841 Y-7.3539
G01 X9.4899 Y-7.3563
G01 X9.5681 Y-7.3934
G01 X9.6450 Y-7.4395
G01 X9.7170 Y-7.4929
G01 X9.7823 Y-7.5520
G01 X9.8445 Y-7.6207
G01 X9.8961 Y-7.6902
G01 X9.9217 Y-7.7326
G01 X9.9277 Y-7.7409
G01 X10.3285 Y-8.4350
G01 X10.3327 Y-8.4438
G01 X10.3438 Y-8.4626
G01 X10.3819 Y-8.5436
G01 X10.4116 Y-8.6266
G01 X10.4333 Y-8.7136
G01 X10.4465 Y-8.8022
G01 X10.4509 Y-8.8917
G01 X10.4465 Y-8.9813
G01 X10.4333 Y-9.0699
G01 X10.4116 Y-9.1569
G01 X10.3808 Y-9.2427
G01 X10.3444 Y-9.3195
G01 X10.3415 Y-9.3250
G01 X10.2970 Y-9.3992
G01 X10.2455 Y-9.4687
G01 X10.2415 Y-9.4736
G01 X10.1834 Y-9.5376
G01 X10.1193 Y-9.5958
G01 X10.1145 Y-9.5997
G01 X10.0450 Y-9.6512
G01 X9.9708 Y-9.6958
G01 X9.9653 Y-9.6987
G01 X9.8870 Y-9.7356
G01 X9.8056 Y-9.7648
G01 X9.7996 Y-9.7666
G01 X9.7157 Y-9.7876
G01 X9.6510 Y-9.7973
G01 X9.6510 Y-10.2076
G01 X10.5228 Y-11.0794
G01 X10.5424 Y-11.1011
G01 X10.5607 Y-11.1258
G01 X10.5765 Y-11.1522
G01 X10.5897 Y-11.1800
G01 X10.6000 Y-11.2090
G01 X10.6075 Y-11.2388
G01 X10.6120 Y-11.2693
G01 X10.6135 Y-11.2984
G01 X10.6135 Y-12.4687
G01 X10.7538 Y-12.5039
G01 X10.8983 Y-12.5556
G01 X11.0370 Y-12.6212
G01 X11.1659 Y-12.6984
G01 X11.1711 Y-12.7019
G01 X11.2894 Y-12.7896
G01 X11.2942 Y-12.7935
G01 X11.4055 Y-12.8945
G01 X11.5065 Y-13.0058
