(G-CODE GENERATED BY FLATCAM v8.994 - www.flatcam.org - Version Date: 2020/11/7)

(Name: hexpansion-F_Cu.gtl_iso_combined_cnc)
(Type: G-code from Geometry)
(Units: MM)

(Created on Friday, 24 May 2024 at 12:12)

(This preprocessor is the default preprocessor used by FlatCAM.)
(It is made to work with MACH3 compatible motion controllers.)

(TOOL DIAMETER: 0.1268 mm)
(Feedrate_XY: 100.0 mm/min)
(Feedrate_Z: 60.0 mm/min)
(Feedrate rapids 1500.0 mm/min)

(Z_Cut: -0.05 mm)
(Z_Move: 2.0 mm)
(Z Start: None mm)
(Z End: 4.0 mm)
(X,Y End: None mm)
(Steps per circle: 64)
(Preprocessor Geometry: default)

(X range:    1.2301 ...   34.3699  mm)
(Y range:  -35.2899 ...   -4.7801  mm)

(Spindle Speed: 0.0 RPM)
G21
G90
G94

G01 F100.00

M5
G00 Z4.0000
G00 X0.0000 Y0.0000
T1
M6    
(MSG, Change to Tool Dia = 0.1268)
M0
G00 Z4.0000

M03
G01 F100.00
G00 X5.3134 Y-16.7500
G01 F60.00
G01 Z-0.0500
G01 F100.00
G01 X5.3124 Y-16.7709
G01 X5.3093 Y-16.7916
G01 X5.3042 Y-16.8119
G01 X5.2972 Y-16.8317
G01 X5.2882 Y-16.8506
G01 X5.2774 Y-16.8686
G01 X5.2650 Y-16.8854
G01 X5.2530 Y-16.8986
G01 X5.2366 Y-16.9140
G01 X5.2211 Y-16.9256
G01 X5.2033 Y-16.9367
G01 X5.1978 Y-16.9396
G01 X5.1817 Y-16.9472
G01 X5.1619 Y-16.9542
G01 X5.1416 Y-16.9593
G01 X5.1194 Y-16.9625
G01 X5.1000 Y-16.9634
G01 X1.9000 Y-16.9634
G01 X1.8791 Y-16.9624
G01 X1.8584 Y-16.9593
G01 X1.8411 Y-16.9550
G01 X1.8183 Y-16.9472
G01 X1.7967 Y-16.9367
G01 X1.7814 Y-16.9274
G01 X1.7671 Y-16.9169
G01 X1.7491 Y-16.9009
G01 X1.7331 Y-16.8829
G01 X1.7226 Y-16.8686
G01 X1.7125 Y-16.8520
G01 X1.7041 Y-16.8345
G01 X1.7017 Y-16.8288
G01 X1.6958 Y-16.8119
G01 X1.6907 Y-16.7916
G01 X1.6876 Y-16.7709
G01 X1.6866 Y-16.7516
G01 X1.6866 Y-16.4500
G01 X1.6876 Y-16.4291
G01 X1.6907 Y-16.4084
G01 X1.6958 Y-16.3881
G01 X1.7028 Y-16.3683
G01 X1.7104 Y-16.3522
G01 X1.7133 Y-16.3467
G01 X1.7244 Y-16.3289
G01 X1.7350 Y-16.3146
G01 X1.7491 Y-16.2991
G01 X1.7646 Y-16.2850
G01 X1.7814 Y-16.2726
G01 X1.7994 Y-16.2618
G01 X1.8155 Y-16.2541
G01 X1.8351 Y-16.2468
G01 X1.8411 Y-16.2450
G01 X1.8599 Y-16.2404
G01 X1.8822 Y-16.2374
G01 X1.9000 Y-16.2366
G01 X5.1000 Y-16.2366
G01 X5.1209 Y-16.2376
G01 X5.1416 Y-16.2407
G01 X5.1589 Y-16.2450
G01 X5.1817 Y-16.2528
G01 X5.2033 Y-16.2633
G01 X5.2186 Y-16.2726
G01 X5.2329 Y-16.2831
G01 X5.2509 Y-16.2991
G01 X5.2669 Y-16.3171
G01 X5.2774 Y-16.3314
G01 X5.2867 Y-16.3467
G01 X5.2896 Y-16.3522
G01 X5.2977 Y-16.3698
G01 X5.3042 Y-16.3881
G01 X5.3093 Y-16.4084
G01 X5.3124 Y-16.4291
G01 X5.3133 Y-16.4469
G01 X5.3134 Y-16.7500
G00 Z2.0000
G00 X5.2371 Y-17.0865
G01 F60.00
G01 Z-0.0500
G01 F100.00
G01 X7.8701 Y-17.0865
G01 X14.4533 Y-10.5033
G01 X14.4761 Y-10.4826
G01 X14.4983 Y-10.4661
G01 X14.5245 Y-10.4500
G01 X14.5300 Y-10.4471
G01 X14.5550 Y-10.4353
G01 X14.5840 Y-10.4250
G01 X14.6138 Y-10.4175
G01 X14.6427 Y-10.4132
G01 X14.6750 Y-10.4115
G01 X22.0250 Y-10.4115
G01 X22.0526 Y-10.4128
G01 X22.0588 Y-10.4134
G01 X22.0862 Y-10.4175
G01 X22.1145 Y-10.4245
G01 X22.1450 Y-10.4353
G01 X22.1700 Y-10.4471
G01 X22.1755 Y-10.4500
G01 X22.1992 Y-10.4643
G01 X22.2214 Y-10.4807
G01 X22.2263 Y-10.4847
G01 X22.2467 Y-10.5033
G01 X24.4389 Y-12.6955
G01 X24.5630 Y-12.6212
G01 X24.6989 Y-12.5569
G01 X24.7046 Y-12.5545
G01 X24.8432 Y-12.5049
G01 X24.8492 Y-12.5031
G01 X24.9950 Y-12.4666
G01 X25.1468 Y-12.4441
G01 X25.2969 Y-12.4367
G01 X25.3031 Y-12.4367
G01 X25.4532 Y-12.4441
G01 X25.6019 Y-12.4661
G01 X25.6080 Y-12.4673
G01 X25.7538 Y-12.5039
G01 X25.8997 Y-12.5562
G01 X26.0342 Y-12.6198
G01 X26.0397 Y-12.6227
G01 X26.1686 Y-12.7001
G01 X26.2894 Y-12.7896
G01 X26.2942 Y-12.7935
G01 X26.4055 Y-12.8945
G01 X26.5095 Y-13.0094
G01 X26.5981 Y-13.1289
G01 X26.6016 Y-13.1341
G01 X26.6788 Y-13.2630
G01 X26.7438 Y-13.4003
G01 X26.7965 Y-13.5477
G01 X26.8334 Y-13.6950
G01 X26.8470 Y-13.7865
G01 X32.0866 Y-13.7865
G01 X32.0868 Y-13.2453
G01 X32.0885 Y-13.2346
G01 X32.0914 Y-13.2257
G01 X32.0956 Y-13.2174
G01 X32.1010 Y-13.2098
G01 X32.1074 Y-13.2030
G01 X32.1148 Y-13.1973
G01 X32.1229 Y-13.1927
G01 X32.1316 Y-13.1893
G01 X32.1407 Y-13.1873
G01 X32.1500 Y-13.1866
G01 X33.8516 Y-13.1866
G01 X33.8578 Y-13.1871
G01 X33.8639 Y-13.1881
G01 X33.8743 Y-13.1914
G01 X33.8839 Y-13.1964
G01 X33.8926 Y-13.2030
G01 X33.9000 Y-13.2110
G01 X33.9059 Y-13.2201
G01 X33.9102 Y-13.2301
G01 X33.9119 Y-13.2361
G01 X33.9129 Y-13.2422
G01 X33.9134 Y-13.2500
G01 X33.9134 Y-14.9516
G01 X33.9125 Y-14.9608
G01 X33.9097 Y-14.9714
G01 X33.9059 Y-14.9799
G01 X33.9000 Y-14.9890
G01 X33.8926 Y-14.9970
G01 X33.8852 Y-15.0027
G01 X33.8771 Y-15.0073
G01 X33.8669 Y-15.0111
G01 X33.8593 Y-15.0127
G01 X33.8500 Y-15.0134
G01 X32.1500 Y-15.0134
G01 X32.1392 Y-15.0125
G01 X32.1301 Y-15.0102
G01 X32.1215 Y-15.0066
G01 X32.1135 Y-15.0018
G01 X32.1063 Y-14.9959
G01 X32.1000 Y-14.9890
G01 X32.0948 Y-14.9812
G01 X32.0908 Y-14.9728
G01 X32.0881 Y-14.9639
G01 X32.0868 Y-14.9547
G01 X32.0866 Y-14.4135
G01 X26.8063 Y-14.4135
G01 X26.7956 Y-14.4553
G01 X26.7438 Y-14.5997
G01 X26.6788 Y-14.7370
G01 X26.5990 Y-14.8699
G01 X26.5085 Y-14.9918
G01 X26.4055 Y-15.1055
G01 X26.2918 Y-15.2085
G01 X26.1699 Y-15.2990
G01 X26.0370 Y-15.3788
G01 X25.9011 Y-15.4431
G01 X25.8954 Y-15.4455
G01 X25.7568 Y-15.4951
G01 X25.7508 Y-15.4969
G01 X25.6050 Y-15.5334
G01 X25.4532 Y-15.5559
G01 X25.3000 Y-15.5634
G01 X25.1452 Y-15.5557
G01 X24.9950 Y-15.5334
G01 X24.8462 Y-15.4961
G01 X24.7017 Y-15.4444
G01 X24.5658 Y-15.3802
G01 X24.5603 Y-15.3773
G01 X24.4341 Y-15.3016
G01 X24.4289 Y-15.2981
G01 X24.3082 Y-15.2085
G01 X24.1968 Y-15.1076
G01 X24.1924 Y-15.1032
G01 X24.0915 Y-14.9918
G01 X24.0010 Y-14.8699
G01 X23.9227 Y-14.7397
G01 X23.9198 Y-14.7342
G01 X23.8556 Y-14.5983
G01 X23.8039 Y-14.4538
G01 X23.7666 Y-14.3050
G01 X23.7445 Y-14.1563
G01 X23.7439 Y-14.1501
G01 X23.7366 Y-14.0000
G01 X23.7441 Y-13.8468
G01 X23.7661 Y-13.6981
G01 X23.7673 Y-13.6920
G01 X23.8039 Y-13.5462
G01 X23.8545 Y-13.4046
G01 X23.8569 Y-13.3989
G01 X23.9212 Y-13.2630
G01 X23.9955 Y-13.1389
G01 X21.8951 Y-11.0385
G01 X14.8049 Y-11.0385
G01 X8.2217 Y-17.6217
G01 X8.2013 Y-17.6403
G01 X8.1964 Y-17.6443
G01 X8.1742 Y-17.6607
G01 X8.1478 Y-17.6765
G01 X8.1200 Y-17.6897
G01 X8.0940 Y-17.6990
G01 X8.0880 Y-17.7009
G01 X8.0612 Y-17.7075
G01 X8.0338 Y-17.7116
G01 X8.0276 Y-17.7122
G01 X8.0016 Y-17.7135
G01 X5.2371 Y-17.7135
G01 X5.2186 Y-17.7274
G01 X5.2033 Y-17.7367
G01 X5.1978 Y-17.7396
G01 X5.1788 Y-17.7483
G01 X5.1619 Y-17.7542
G01 X5.1416 Y-17.7593
G01 X5.1209 Y-17.7624
G01 X5.1016 Y-17.7634
G01 X2.6984 Y-17.7634
G01 X2.6791 Y-17.7624
G01 X2.6584 Y-17.7593
G01 X2.6381 Y-17.7542
G01 X2.6212 Y-17.7483
G01 X2.6155 Y-17.7459
G01 X2.5967 Y-17.7367
G01 X2.5814 Y-17.7274
G01 X2.5646 Y-17.7150
G01 X2.5491 Y-17.7009
G01 X2.5350 Y-17.6854
G01 X2.5226 Y-17.6686
G01 X2.5133 Y-17.6533
G01 X2.5104 Y-17.6478
G01 X2.5017 Y-17.6288
G01 X2.4958 Y-17.6119
G01 X2.4904 Y-17.5901
G01 X2.4876 Y-17.5709
G01 X2.4866 Y-17.5500
G01 X2.4866 Y-17.2484
G01 X2.4876 Y-17.2291
G01 X2.4902 Y-17.2114
G01 X2.4958 Y-17.1881
G01 X2.5028 Y-17.1683
G01 X2.5104 Y-17.1522
G01 X2.5226 Y-17.1314
G01 X2.5371 Y-17.1123
G01 X2.5491 Y-17.0991
G01 X2.5623 Y-17.0871
G01 X2.5814 Y-17.0726
G01 X2.6022 Y-17.0604
G01 X2.6183 Y-17.0528
G01 X2.6351 Y-17.0468
G01 X2.6411 Y-17.0450
G01 X2.6599 Y-17.0404
G01 X2.6791 Y-17.0376
G01 X2.7000 Y-17.0366
G01 X5.1016 Y-17.0366
G01 X5.1209 Y-17.0376
G01 X5.1416 Y-17.0407
G01 X5.1619 Y-17.0458
G01 X5.1788 Y-17.0517
G01 X5.1845 Y-17.0541
G01 X5.2033 Y-17.0633
G01 X5.2186 Y-17.0726
G01 X5.2371 Y-17.0865
G00 Z2.0000
G00 X5.3134 Y-18.3500
G01 F60.00
G01 Z-0.0500
G01 F100.00
G01 X5.3124 Y-18.3709
G01 X5.3093 Y-18.3916
G01 X5.3042 Y-18.4119
G01 X5.2972 Y-18.4317
G01 X5.2882 Y-18.4506
G01 X5.2774 Y-18.4686
G01 X5.2650 Y-18.4854
G01 X5.2530 Y-18.4986
G01 X5.2486 Y-18.5030
G01 X5.2329 Y-18.5169
G01 X5.2173 Y-18.5283
G01 X5.1978 Y-18.5396
G01 X5.1817 Y-18.5472
G01 X5.1619 Y-18.5542
G01 X5.1416 Y-18.5593
G01 X5.1194 Y-18.5625
G01 X5.1000 Y-18.5634
G01 X2.7000 Y-18.5634
G01 X2.6775 Y-18.5622
G01 X2.6584 Y-18.5593
G01 X2.6411 Y-18.5550
G01 X2.6183 Y-18.5472
G01 X2.5967 Y-18.5367
G01 X2.5814 Y-18.5274
G01 X2.5646 Y-18.5150
G01 X2.5470 Y-18.4986
G01 X2.5350 Y-18.4854
G01 X2.5226 Y-18.4686
G01 X2.5104 Y-18.4478
G01 X2.5028 Y-18.4317
G01 X2.4968 Y-18.4149
G01 X2.4950 Y-18.4089
G01 X2.4902 Y-18.3886
G01 X2.4876 Y-18.3709
G01 X2.4866 Y-18.3516
G01 X2.4866 Y-18.0500
G01 X2.4878 Y-18.0275
G01 X2.4907 Y-18.0084
G01 X2.4958 Y-17.9881
G01 X2.5028 Y-17.9683
G01 X2.5104 Y-17.9522
G01 X2.5209 Y-17.9341
G01 X2.5244 Y-17.9289
G01 X2.5350 Y-17.9146
G01 X2.5491 Y-17.8991
G01 X2.5646 Y-17.8850
G01 X2.5814 Y-17.8726
G01 X2.5994 Y-17.8618
G01 X2.6155 Y-17.8541
G01 X2.6351 Y-17.8468
G01 X2.6411 Y-17.8450
G01 X2.6584 Y-17.8407
G01 X2.6806 Y-17.8375
G01 X2.7000 Y-17.8366
G01 X5.1000 Y-17.8366
G01 X5.1225 Y-17.8378
G01 X5.1416 Y-17.8407
G01 X5.1589 Y-17.8450
G01 X5.1817 Y-17.8528
G01 X5.2033 Y-17.8633
G01 X5.2186 Y-17.8726
G01 X5.2329 Y-17.8831
G01 X5.2509 Y-17.8991
G01 X5.2669 Y-17.9171
G01 X5.2774 Y-17.9314
G01 X5.2867 Y-17.9467
G01 X5.2896 Y-17.9522
G01 X5.2977 Y-17.9698
G01 X5.3042 Y-17.9881
G01 X5.3093 Y-18.0084
G01 X5.3124 Y-18.0291
G01 X5.3133 Y-18.0469
G01 X5.3134 Y-18.3500
G00 Z2.0000
G00 X5.5963 Y-18.6000
G01 F60.00
G01 Z-0.0500
G01 F100.00
G01 X5.6054 Y-18.6191
G01 X5.6135 Y-18.6373
G01 X5.6256 Y-18.6698
G01 X5.6318 Y-18.6887
G01 X5.6371 Y-18.7079
G01 X5.6451 Y-18.7416
G01 X5.6506 Y-18.7758
G01 X5.6531 Y-18.7955
G01 X5.6553 Y-18.8301
G01 X5.6558 Y-18.8500
G01 X5.6558 Y-19.1441
G01 X8.0283 Y-19.1441
G01 X13.0362 Y-14.1362
G01 X13.0506 Y-14.1225
G01 X13.0688 Y-14.1060
G01 X13.0839 Y-14.0930
G01 X13.0996 Y-14.0807
G01 X13.1193 Y-14.0661
G01 X13.1440 Y-14.0492
G01 X13.1821 Y-14.0264
G01 X13.1997 Y-14.0170
G01 X13.2399 Y-13.9980
G01 X13.2676 Y-13.9869
G01 X13.3001 Y-13.9754
G01 X13.3192 Y-13.9696
G01 X13.3623 Y-13.9588
G01 X13.3818 Y-13.9549
G01 X13.4159 Y-13.9497
G01 X13.4357 Y-13.9473
G01 X13.4556 Y-13.9458
G01 X13.4801 Y-13.9446
G01 X13.5000 Y-13.9441
G01 X18.4283 Y-13.9441
G01 X18.6441 Y-13.7283
G01 X18.6442 Y-12.1900
G01 X18.6458 Y-12.1556
G01 X18.6473 Y-12.1357
G01 X18.6497 Y-12.1159
G01 X18.6533 Y-12.0917
G01 X18.6588 Y-12.0623
G01 X18.6670 Y-12.0288
G01 X18.6724 Y-12.0096
G01 X18.6786 Y-11.9907
G01 X18.6869 Y-11.9676
G01 X18.6940 Y-11.9490
G01 X18.7021 Y-11.9308
G01 X18.7126 Y-11.9086
G01 X18.7216 Y-11.8908
G01 X18.7314 Y-11.8735
G01 X18.7440 Y-11.8524
G01 X18.7547 Y-11.8356
G01 X18.7661 Y-11.8193
G01 X18.7807 Y-11.7996
G01 X18.7930 Y-11.7839
G01 X18.8060 Y-11.7688
G01 X18.8225 Y-11.7506
G01 X18.8362 Y-11.7362
G01 X19.1916 Y-11.3809
G01 X14.9467 Y-11.3809
G01 X8.4638 Y-17.8638
G01 X8.4494 Y-17.8775
G01 X8.4312 Y-17.8940
G01 X8.4083 Y-17.9132
G01 X8.3807 Y-17.9339
G01 X8.3644 Y-17.9453
G01 X8.3476 Y-17.9560
G01 X8.3179 Y-17.9736
G01 X8.2914 Y-17.9874
G01 X8.2601 Y-18.0020
G01 X8.2417 Y-18.0097
G01 X8.2093 Y-18.0214
G01 X8.1904 Y-18.0276
G01 X8.1712 Y-18.0330
G01 X8.1377 Y-18.0412
G01 X8.1182 Y-18.0451
G01 X8.0841 Y-18.0503
G01 X8.0643 Y-18.0527
G01 X8.0444 Y-18.0542
G01 X8.0199 Y-18.0554
G01 X8.0000 Y-18.0559
G01 X5.6558 Y-18.0559
G01 X5.6558 Y-18.3500
G01 X5.6553 Y-18.3699
G01 X5.6531 Y-18.4045
G01 X5.6485 Y-18.4388
G01 X5.6451 Y-18.4584
G01 X5.6371 Y-18.4921
G01 X5.6318 Y-18.5113
G01 X5.6256 Y-18.5302
G01 X5.6135 Y-18.5627
G01 X5.6054 Y-18.5809
G01 X5.5963 Y-18.6000
G00 Z2.0000
G00 X5.7214 Y-18.6000
G01 F60.00
G01 Z-0.0500
G01 F100.00
G01 X5.7281 Y-18.6175
G01 X5.7372 Y-18.6434
G01 X5.7446 Y-18.6678
G01 X5.7478 Y-18.6801
G01 X5.7544 Y-18.7068
G01 X5.7570 Y-18.7193
G01 X5.7614 Y-18.7445
G01 X5.7652 Y-18.7717
G01 X5.7677 Y-18.7971
G01 X5.7697 Y-18.8372
G01 X5.7699 Y-19.0300
G01 X7.9811 Y-19.0300
G01 X12.9555 Y-14.0555
G01 X12.9647 Y-14.0466
G01 X12.9922 Y-14.0214
G01 X13.0115 Y-14.0048
G01 X13.0215 Y-13.9968
G01 X13.0513 Y-13.9745
G01 X13.0722 Y-13.9598
G01 X13.0829 Y-13.9528
G01 X13.1148 Y-13.9335
G01 X13.1370 Y-13.9209
G01 X13.1483 Y-13.9150
G01 X13.1820 Y-13.8989
G01 X13.2053 Y-13.8886
G01 X13.2172 Y-13.8839
G01 X13.2523 Y-13.8712
G01 X13.2765 Y-13.8632
G01 X13.2887 Y-13.8596
G01 X13.3249 Y-13.8504
G01 X13.3498 Y-13.8448
G01 X13.3749 Y-13.8404
G01 X13.4118 Y-13.8351
G01 X13.4245 Y-13.8337
G01 X13.4372 Y-13.8326
G01 X13.4745 Y-13.8306
G01 X13.5000 Y-13.8300
G01 X18.3811 Y-13.8300
G01 X18.5300 Y-13.6811
G01 X18.5300 Y-12.2000
G01 X18.5302 Y-12.1872
G01 X18.5318 Y-12.1500
G01 X18.5337 Y-12.1245
G01 X18.5351 Y-12.1118
G01 X18.5404 Y-12.0749
G01 X18.5448 Y-12.0498
G01 X18.5474 Y-12.0373
G01 X18.5563 Y-12.0011
G01 X18.5632 Y-11.9765
G01 X18.5670 Y-11.9643
G01 X18.5794 Y-11.9291
G01 X18.5886 Y-11.9053
G01 X18.5989 Y-11.8820
G01 X18.6150 Y-11.8483
G01 X18.6209 Y-11.8370
G01 X18.6271 Y-11.8258
G01 X18.6461 Y-11.7938
G01 X18.6598 Y-11.7722
G01 X18.6745 Y-11.7513
G01 X18.6968 Y-11.7215
G01 X18.7130 Y-11.7018
G01 X18.7379 Y-11.6740
G01 X18.7555 Y-11.6555
G01 X18.9160 Y-11.4950
G01 X14.9939 Y-11.4950
G01 X8.5445 Y-17.9445
G01 X8.5353 Y-17.9534
G01 X8.5078 Y-17.9786
G01 X8.4885 Y-17.9952
G01 X8.4785 Y-18.0032
G01 X8.4487 Y-18.0255
G01 X8.4278 Y-18.0402
G01 X8.4062 Y-18.0539
G01 X8.3742 Y-18.0729
G01 X8.3630 Y-18.0791
G01 X8.3402 Y-18.0906
G01 X8.3064 Y-18.1064
G01 X8.2828 Y-18.1161
G01 X8.2477 Y-18.1288
G01 X8.2235 Y-18.1368
G01 X8.1989 Y-18.1437
G01 X8.1627 Y-18.1526
G01 X8.1377 Y-18.1575
G01 X8.1251 Y-18.1596
G01 X8.0882 Y-18.1649
G01 X8.0628 Y-18.1674
G01 X8.0255 Y-18.1694
G01 X8.0000 Y-18.1700
G01 X5.7699 Y-18.1700
G01 X5.7697 Y-18.3628
G01 X5.7677 Y-18.4029
G01 X5.7652 Y-18.4283
G01 X5.7614 Y-18.4555
G01 X5.7570 Y-18.4807
G01 X5.7544 Y-18.4932
G01 X5.7478 Y-18.5199
G01 X5.7446 Y-18.5322
G01 X5.7372 Y-18.5566
G01 X5.7281 Y-18.5825
G01 X5.7214 Y-18.6000
G00 Z2.0000
G00 X5.5416 Y-19.1500
G01 F60.00
G01 Z-0.0500
G01 F100.00
G01 X5.5406 Y-19.1790
G01 X5.5387 Y-19.2004
G01 X5.5345 Y-19.2291
G01 X5.5317 Y-19.2432
G01 X5.5280 Y-19.2582
G01 X8.0756 Y-19.2582
G01 X13.1169 Y-14.2169
G01 X13.1455 Y-14.1906
G01 X13.1563 Y-14.1812
G01 X13.1873 Y-14.1578
G01 X13.1990 Y-14.1495
G01 X13.2322 Y-14.1293
G01 X13.2446 Y-14.1222
G01 X13.2796 Y-14.1053
G01 X13.2993 Y-14.0968
G01 X13.3291 Y-14.0861
G01 X13.3427 Y-14.0816
G01 X13.3803 Y-14.0718
G01 X13.3943 Y-14.0686
G01 X13.4084 Y-14.0662
G01 X13.4469 Y-14.0608
G01 X13.4857 Y-14.0586
G01 X13.5000 Y-14.0582
G01 X18.4756 Y-14.0582
G01 X18.7582 Y-13.7756
G01 X18.7583 Y-12.1928
G01 X18.7598 Y-12.1612
G01 X18.7608 Y-12.1469
G01 X18.7626 Y-12.1327
G01 X18.7673 Y-12.1013
G01 X18.7701 Y-12.0873
G01 X18.7777 Y-12.0565
G01 X18.7816 Y-12.0427
G01 X18.7861 Y-12.0291
G01 X18.7968 Y-11.9993
G01 X18.8023 Y-11.9861
G01 X18.8189 Y-11.9510
G01 X18.8257 Y-11.9383
G01 X18.8456 Y-11.9050
G01 X18.8536 Y-11.8931
G01 X18.8767 Y-11.8619
G01 X18.8906 Y-11.8455
G01 X18.9169 Y-11.8169
G01 X19.4671 Y-11.2668
G01 X14.8994 Y-11.2668
G01 X8.3831 Y-17.7831
G01 X8.3545 Y-17.8094
G01 X8.3437 Y-17.8188
G01 X8.3324 Y-17.8276
G01 X8.3069 Y-17.8464
G01 X8.2950 Y-17.8544
G01 X8.2678 Y-17.8707
G01 X8.2490 Y-17.8811
G01 X8.2204 Y-17.8947
G01 X8.2073 Y-17.9005
G01 X8.1940 Y-17.9057
G01 X8.1641 Y-17.9163
G01 X8.1435 Y-17.9223
G01 X8.1127 Y-17.9299
G01 X8.0987 Y-17.9327
G01 X8.0673 Y-17.9374
G01 X8.0531 Y-17.9392
G01 X8.0388 Y-17.9402
G01 X8.0072 Y-17.9417
G01 X5.5280 Y-17.9418
G01 X5.5317 Y-17.9568
G01 X5.5345 Y-17.9709
G01 X5.5387 Y-17.9996
G01 X5.5401 Y-18.0138
G01 X5.5416 Y-18.0428
G01 X5.5416 Y-18.3500
G01 X5.5413 Y-18.3643
G01 X5.5395 Y-18.3933
